marzuk-umich/fetch_joint_controls/test/actual_all_joints.csv
Time,Joint_0,Joint_1,Joint_2,Joint_3,Joint_4,Joint_5,Joint_6
12.141,1.3199993286482892,1.399985935296189,-0.19998919217566957,1.719961915367925,2.3769613868296346e-06,1.660008007825736,-8.095316506029349e-07
12.151,1.320001455410992,1.399979898235756,-0.19998627246991063,1.7199750008488977,1.3612514804250964e-06,1.6599987110977459,1.0894470241495924e-06
12.161,1.3200003756736853,1.3999861827772522,-0.19999007263056168,1.7199583457618974,2.284503074712063e-06,1.660012332068841,-2.2024982913038116e-06
12.171,1.3200023525711693,1.3999781673779061,-0.19998313356533615,1.7199853259695779,-9.567567458290682e-07,1.6599893857664467,2.6294505968138537e-06
12.181,1.3200014333776098,1.399977776088651,-0.19998735169708493,1.719982970783125,5.339864257436489e-07,1.6599910481539046,-2.079174725722055e-07
12.191,1.3199991227737495,1.3999862750892333,-0.19998931354076088,1.7199627917016134,2.5202835720605776e-06,1.6600053986229089,-9.812697285838112e-07
12.201,1.3200018733338554,1.3999797467645845,-0.19998582019005884,1.719974355114024,1.4279641087355799e-06,1.6599992460434327,1.3558661011714435e-06
12.211,1.3200016662958856,1.3999871572129345,-0.19998869991067192,1.7199418341699335,1.7255663689041967e-06,1.6600236522632885,-2.834880024948916e-06
12.221,1.3199991160634772,1.3999798835331516,-0.19998777505718834,1.7199757358662175,2.3922439593704325e-06,1.66000699074029,2.1388800384158912e-06
12.231,1.3200016519074458,1.3999777219225704,-0.199986419124623,1.7200215109949717,-1.5869155474135255e-06,1.6599520988400727,-2.897279811620024e-07
12.241,1.320001037177775,1.3999757881192751,-0.19998532859412155,1.7199787336965482,5.609171056519813e-07,1.66000041674992,2.419780830820173e-06
12.251,1.3199993995242787,1.3999860201584848,-0.19998996539119585,1.719961162644232,2.1738865561005127e-06,1.6600040588066456,-1.815563241969187e-06
12.261,1.3200018619133393,1.3999802385711675,-0.19998613195005355,1.7199766616926357,1.7140403993920472e-06,1.6599958543789501,5.108022502753329e-07
12.271,1.3200002286912085,1.3999880055380434,-0.19998790051894133,1.7199271175185054,2.493273234982496e-06,1.6600414718098504,-3.878597745199386e-07
12.281,1.3200038519199397,1.3999752931720062,-0.199986237237324,1.7199965246018198,-5.791515453879015e-07,1.6599783944158215,-1.5545525808846605e-06
12.291,1.31999820611924,1.3999886263405967,-0.19998938047761783,1.719954605386274,3.0569864835072735e-06,1.660014348743184,1.7448786771012692e-07
12.301,1.3200019881871201,1.399978800825795,-0.19998576576366744,1.7199803933727935,9.566676153482945e-07,1.659995125764536,1.1639433949994782e-06
12.311,1.3199989758414574,1.399987550196701,-0.19998875348601963,1.719929581894533,2.319572483422405e-06,1.6600436249072388,-4.148388796920699e-07
12.321,1.3200039533205556,1.3999777062156937,-0.19998633666415433,1.719992873617553,5.891815160197211e-07,1.65997969554199,-1.6900291264221323e-06
12.331,1.3199989264595935,1.3999872381964904,-0.19998884558445695,1.7199579173373678,2.897459819628523e-06,1.6600124021100067,2.4633743933577534e-07
12.341,1.3200027422421785,1.3999799921304232,-0.19998594094718314,1.7199951467384142,4.2773109676375043e-07,1.6599764015568121,-4.655813299336842e-07
12.351,1.320001404895729,1.399974856524559,-0.1999860869766401,1.7199841176547856,-6.035675550464248e-07,1.6599960209200981,1.4008928381770147e-06
12.361,1.319998352283564,1.3999871056025945,-0.19999010453271726,1.7199600824016699,2.6225418361391917e-06,1.6600065776870547,-1.0921196702540215e-06
12.371,1.3200020754001498,1.3999801193924837,-0.19998563737211938,1.7199775520252842,1.6791281316486106e-06,1.6599957787588284,1.2707145362611527e-06
12.381,1.3200016706456772,1.3999871866703995,-0.19998860929382722,1.719938799279527,1.720963200391168e-06,1.660026703420538,-2.5310972198155923e-06
12.391,1.3199992995492096,1.3999795700944002,-0.199988034327804,1.7199764353869824,2.2588982666604807e-06,1.6600064473967153,1.5950507838979888e-06
12.401,1.3200000161039958,1.3999803394651469,-0.19998784542240955,1.7199698414521336,1.0766515785576303e-06,1.66000401101702,6.60486616510525e-07
12.411,1.3200003956392479,1.3999844647662192,-0.1999889702319475,1.719970008557894,2.055555087032701e-06,1.6599979783168592,-1.7823221902801833e-06
12.421,1.3200014475722552,1.3999810238547878,-0.1999863535949915,1.7199700518535632,1.6655458745518104e-06,1.6600029699955545,1.1015403238445742e-06
12.431000000000001,1.3199993414959446,1.3999800644313636,-0.1999908028069859,1.7200047982932478,1.4044801357471215e-06,1.6599733887097194,-1.524949404974052e-06
12.441,1.3200005162743542,1.3999914694233588,-0.19998735100344067,1.7198912849929933,4.0713884077447915e-06,1.660075884511583,4.702198559414228e-07
12.451,1.3200018174051307,1.3999775950577709,-0.1999864627916006,1.7199747500881095,6.137937331729404e-07,1.6600019147516285,6.282568101312336e-07
12.461,1.3199998217323587,1.3999861083020706,-0.199990024123756,1.7199664536660677,2.122721292074914e-06,1.6600006308775876,-2.5561528254058885e-06
12.471,1.3200015834256238,1.399981206356955,-0.19998574832477,1.7199723338393724,1.8490650859348534e-06,1.6600003277907165,1.668941004062674e-06
12.481,1.3200002463979414,1.3999896048615215,-0.19998864405897532,1.7199094615899622,2.985899756779986e-06,1.6600583875773705,-1.2040113528399843e-06
12.491,1.32000168068814,1.3999748343852678,-0.19998502859476552,1.719975761705193,5.298016372279335e-07,1.6600053476225103,2.05134046904476e-06
12.501,1.3199996807653092,1.399987311027088,-0.1999902731264065,1.7199636255109496,2.3145198193574856e-06,1.6600011134725303,-2.4602532402440147e-06
12.511,1.3200017225654577,1.3999812553593927,-0.19998591531095222,1.719975020715184,1.7718356932761026e-06,1.6599973780769446,1.0437827020481905e-06
12.521,1.3199962141209456,1.3999814566227116,-0.1999924781535789,1.719996995405129,2.915293603855673e-06,1.6599893281632925,4.233394275132696e-07
12.531,1.3200019083832952,1.3999720372049786,-0.1999852332403691,1.7199920241752693,-9.431892609157444e-07,1.659989359642399,1.636499267654301e-06
12.541,1.319998134505231,1.399990265453769,-0.1999908139835247,1.7199548498252248,3.3197694246922538e-06,1.6600085969825304,-1.83723548108361e-06
12.551,1.3200027087903417,1.3999788885267952,-0.19998487587480795,1.7199801100780086,1.4432725263802126e-06,1.659993881879565,1.4810819859434332e-06
12.561,1.3200014020011563,1.3999872904657167,-0.1999888874100817,1.7199352804586105,1.7602138280281565e-06,1.6600308573686826,-2.7782970359879755e-06
12.571,1.3199991875721349,1.399978073683232,-0.19998790776097675,1.7199908978800593,2.143041570867865e-06,1.6599934855066012,1.9076905388715204e-06
12.581,1.3200007081009533,1.399981500276784,-0.19998823818647438,1.7199764039405636,1.0719785432655726e-06,1.6599941795340518,-5.691129132401329e-07
12.591,1.319999805508882,1.3999843363299433,-0.1999882729171487,1.7199676073047794,1.9876404113716717e-06,1.6600030399877008,-4.241769806512252e-07
12.601,1.3200019559703016,1.3999796747284812,-0.19998384717488715,1.7199858412590565,-5.557348181639554e-07,1.6599882671434063,2.2175892988585133e-06
12.611,1.320001231860691,1.3999790500502298,-0.199988073568095,1.7199611316688,1.3604430586511285e-06,1.6600184976747343,-7.282708782696545e-07
12.621,1.3199971952164828,1.3999869008247758,-0.1999910784189094,1.7199599299539887,3.558059535890834e-06,1.6600145267986255,-5.246390513136134e-07
12.631,1.320003905216927,1.3999746570982934,-0.19998351957323646,1.7200312830906181,-2.0101615341161505e-06,1.6599421052817709,1.0610184038029047e-06
12.641,1.3200003146264754,1.3999752845447464,-0.19998630304670773,1.719972520993167,-5.247333172420099e-07,1.6600067777736145,1.9919782863198066e-06
12.651,1.3199993679295137,1.3999858147194493,-0.19999009215151364,1.7199646475810741,2.351298687308656e-06,1.6599992569257909,-2.362948877454585e-06
12.661,1.3200018933593922,1.3999811006422798,-0.19998556100076925,1.7199741792451384,2.2368535388395117e-06,1.659997791825245,1.3823065803109102e-06
12.671,1.3200007655448633,1.3999794653903734,-0.19998601281967243,1.7199921548098445,-8.769313994960726e-07,1.6599831639261158,5.99234645015656e-07
12.681000000000001,1.3200041251452515,1.3999782537564966,-0.19998493418793206,1.7199689256143529,-5.211347646749687e-07,1.6600041852821894,-7.640344472648053e-07
12.691,1.3200001300538142,1.3999856384507199,-0.19998876969216095,1.7199693873698187,1.9477497330555593e-06,1.6599990081821074,-7.855065256023863e-07
12.701,1.3200019908355953,1.399988865532972,-0.199986911036242,1.7199382845762035,2.5909064556017825e-06,1.6600255897380363,-8.213240532128907e-07
12.711,1.3200010200302978,1.399978075559921,-0.1999862988118215,1.7199620161902605,1.1281422631626015e-06,1.6600196825768272,2.1495812649874324e-06
12.721,1.3199997480116403,1.3999814090166263,-0.1999894464033316,1.7199767190715072,1.0955674403234639e-06,1.6599942165140211,-1.6291580671179418e-06
12.731,1.3199999996693395,1.399985566757926,-0.19998735218003993,1.7199668864850182,2.985475105354851e-06,1.660001878464934,8.257043129233921e-07
12.741,1.320001471283125,1.399979349695747,-0.19998674546390305,1.7199720779091212,1.0756959998303728e-06,1.6600027481034285,5.971643570745755e-07
12.751,1.3199992725832255,1.3999893721107197,-0.19999130759933692,1.7199432418381857,3.0419246987989368e-06,1.6600283094389026,-2.993721994748455e-06
12.761,1.3200032854027919,1.3999747974243695,-0.19998412294989265,1.7199899785485933,5.281866570783222e-07,1.659988094575355,2.240440338141525e-06
12.771,1.3199981752365444,1.3999875328657643,-0.19999084819259316,1.7199573086476434,2.3892127005709085e-06,1.6600102485290744,-1.664357260011684e-06
12.781,1.3200019449124918,1.3999795614230104,-0.19998582673396292,1.719978707081717,1.360520013982125e-06,1.6599950381144684,9.060712491404388e-07
12.791,1.3200017506673207,1.3999817941989354,-0.19998734504165938,1.7199987195224153,-4.238075215212689e-07,1.6599727294363342,-1.2420668991097727e-06
12.801,1.3200035525494336,1.3999744980907156,-0.19998397622337105,1.72000606452624,-1.4414012294849954e-06,1.6599713729362442,1.2961624955565298e-06
12.811,1.319999840826295,1.3999814109920674,-0.19998733387014234,1.7199952865177064,-4.128751838194944e-07,1.6599773798260156,6.900026212619537e-07
12.821,1.3200015556616052,1.399981897065162,-0.19998767888185398,1.719967923574762,1.9421442774003594e-06,1.6600058175969403,-2.0934339062250729e-07
12.831,1.3200022399743698,1.399980129305531,-0.1999847392031029,1.719971597687472,-6.519590645126527e-07,1.6599969550508797,6.959437790499123e-07
12.841,1.3200005153122687,1.3999798748217707,-0.19998724074357543,1.71996753032764,1.1056898809869153e-06,1.6600051341505164,5.018236644005469e-07
12.851,1.320000962658102,1.39998325549133,-0.19998844296426999,1.719969623201182,1.8572852908960158e-06,1.6599976636790963,-1.4683621767375143e-06
12.861,1.320001001756589,1.3999815356784637,-0.19998703142211216,1.7199701577223898,1.8271700428229565e-06,1.660001787592173,3.9876297730501165e-07
12.871,1.3200009641114079,1.3999764131064332,-0.19998712134266938,1.7200212095190288,-7.83698662409904e-07,1.659956285229077,1.580168467185672e-07
12.881,1.319997901263882,1.3999845280144534,-0.1999881974802733,1.719942632221624,2.8420671700502e-06,1.6600385221025524,2.3943563416395364e-06
12.891,1.3200009440376315,1.3999780000702895,-0.19998685003334948,1.719979252237465,5.555371274112986e-07,1.6599982197595562,7.577162506322566e-07
12.901,1.3199998528391594,1.3999863477587873,-0.19998937609552936,1.7199656249427875,2.155277563531399e-06,1.6600037188160295,-1.8457062065380114e-06
12.911,1.3200018099607052,1.399981045882095,-0.19998589581691473,1.7199735200587476,1.561665972538151e-06,1.6600005230806811,1.185556007143873e-06
12.921,1.320001792936199,1.39998760259681,-0.19998839609843788,1.7199375906437915,1.9357322260660226e-06,1.6600281570040138,-2.5282341118426643e-06
12.931000000000001,1.320001007690795,1.3999803496324432,-0.19998652106918158,1.719965619310054,1.6584641615580153e-06,1.660012379181346,1.7014520858893434e-06
12.941,1.3199999689332973,1.3999807060656284,-0.1999882399139823,1.7199750391804933,1.0033236632622788e-06,1.6599965441192817,1.490790833003075e-07
12.951,1.3199996910883414,1.399984133539573,-0.19998833550588024,1.7199676029028783,2.1937769973945365e-06,1.660001611711892,-3.8772274724152567e-07
12.961,1.3200014769268726,1.3999801062541932,-0.1999864498719104,1.7199714187021051,1.4013398379475461e-06,1.6600019355383164,8.190532110319282e-07
12.971,1.3200019184625482,1.3999810579433118,-0.1999875493890091,1.7200052240627937,-6.074773475361894e-07,1.6599654450602834,-2.153533142923436e-06
12.981,1.3200036663098587,1.399979716162262,-0.19998393335361886,1.7199630292291097,6.882930287943623e-07,1.6600096359926582,1.5153686732105598e-06
12.991,1.3199999582724127,1.3999816716022124,-0.1999889224322411,1.7199739319659066,9.79497436937038e-07,1.6599970778660742,-7.554233185658177e-07
13.001,1.3199997835990374,1.3999839756849495,-0.19998789950986318,1.719968641547581,2.1533547034380263e-06,1.6600017821755788,2.2307396285725645e-07
13.011,1.3200013030537683,1.3999804297967557,-0.19998667118077673,1.7199714058422124,1.3862075691761788e-06,1.6600029126731624,8.334312759927798e-07
13.021,1.3199994042475351,1.3999898057197129,-0.19999125068695456,1.7199449670129994,3.2263150018252418e-06,1.6600267879699606,-2.8260174431693486e-06
13.031,1.3200035607506022,1.399978598413652,-0.19998494020348723,1.7199703256335503,8.329960197173136e-07,1.6600056504994551,6.442131059714029e-07
13.041,1.3200000868841286,1.3999843462141834,-0.19998961898181555,1.7199690723736918,1.5261415970968528e-06,1.6599997582892199,-1.8429293371369226e-06
13.051,1.3200005326539532,1.3999824880083533,-0.19998696959175355,1.7199712577174555,1.9359756109338377e-06,1.660000253644741,8.542245977238849e-07
13.061,1.3200007954698503,1.3999805334729771,-0.19998738891826395,1.7199699088968998,1.2795504105156397e-06,1.6600043171211416,4.3026962082137743e-07
13.071,1.3200002305711491,1.3999945486761964,-0.19998938849286851,1.7198825820837538,4.493835008112512e-06,1.660080773186742,-2.280661112408211e-06
13.081,1.320003169480911,1.3999779670411812,-0.1999852547629306,1.7199730491918324,7.965495925077448e-07,1.6600036043100301,7.451268304592418e-07
13.091,1.3200001079893298,1.3999849360517844,-0.1999899058815897,1.7199674558428768,1.7370568823338317e-06,1.6600006846817674,-2.381540380902436e-06
13.101,1.3200009360014562,1.399981984563488,-0.19998653250506226,1.7199719545315233,1.9404211384355108e-06,1.6599998373337561,1.1029211526292215e-06
13.111,1.3200006162960118,1.3999806943474464,-0.1999876971614718,1.7199695582078505,1.2594987479630504e-06,1.6600046672012594,2.203732387684454e-07
13.121,1.3200012447162228,1.3999842586053184,-0.19998551124439246,1.719957534958624,4.998196097005803e-07,1.6600118991369603,1.605837969265167e-07
13.131,1.3200025671363633,1.3999776192843614,-0.199985599835113,1.7199757182618427,6.875429354735729e-07,1.6600013083248077,8.916389262481061e-07
13.141,1.320000062484418,1.3999855655148155,-0.1999899460946466,1.7199662239993714,1.9006002975885394e-06,1.6600017669721794,-2.5213459791118e-06
13.151,1.3200013660174381,1.3999814458773843,-0.1999860843164658,1.7199726041921455,1.6980770913832544e-06,1.6599996541170876,1.2418584889317685e-06
13.161,1.3200012369971743,1.3999882960726673,-0.1999880284565645,1.7199018216355135,3.127950337855623e-06,1.6600632230825285,-1.1890004500969553e-06
13.171,1.3200007606888127,1.3999769608899681,-0.1999879499660464,1.7200031521309747,9.302895964680147e-07,1.6599732964346154,-7.89840487236404e-07
13.181,1.3200031371878334,1.3999814504820156,-0.1999823516412933,1.7199301404841236,4.405799982620806e-07,1.6600311313246037,1.6041850514625366e-06
13.191,1.3200040046192152,1.3999891758794965,-0.19998625157130956,1.7198510412732197,3.839736173461006e-06,1.6600944033536873,-4.100962287090226e-06
13.201,1.320001864313162,1.3999703074000767,-0.19998267916768686,1.7199827871046018,-5.61634339035777e-07,1.659978654270284,1.2562467022192436e-06
13.211,1.319998843074739,1.3999696355458333,-0.19998459075931674,1.7199783891094604,1.275280335555351e-06,1.6599821571865334,2.4398654918655893e-06
13.221,1.3199987520956338,1.3999707852581196,-0.1999846514865915,1.7199625216816479,1.7550643143238176e-06,1.6599931628452316,-3.008166569173909e-07
13.231,1.3200039538774568,1.399994645424906,-0.19998210010899964,1.719776101035979,7.127847130306009e-06,1.6601491156873838,-4.876393871811047e-06
13.241,1.3200032478938093,1.400039802254759,-0.19999131204933818,1.719660830970664,1.5839627592661998e-05,1.6602507016326342,-1.6476714529645164e-05
13.251,1.3200450291322863,1.3999119738519603,-0.1999634199607474,1.720266611602753,-1.726300281834625e-05,1.659680202369815,-1.9310741793177044e-05
13.261,1.3199776796401848,1.4000003392481872,-0.19999071578244454,1.719889533585242,6.171228646323357e-06,1.6600299866223303,7.709186072624163e-06
13.271,1.3200080090717705,1.3999645496552198,-0.19997252759206763,1.7201027393272632,-6.325475370161371e-07,1.6598074253594195,-3.097137213359247e-07
13.281,1.3199954236174927,1.3998909631942436,-0.19996596553958934,1.7203183742738126,-1.719112528775213e-05,1.659697453609442,1.9985122281518386e-05
13.291,1.3199548162658656,1.3999357984063119,-0.19997587247009818,1.719981703255156,-1.182054766957208e-06,1.6600281764949711,3.694429228673357e-05
13.301,1.3199898032768687,1.3999675704819676,-0.19996726547902188,1.7198911109309094,5.807503552723858e-06,1.660049713718018,5.900367293421027e-06
13.311,1.3200081948875804,1.400012947596359,-0.19996785791211558,1.7195359688154088,1.5040215370021315e-05,1.6603768277583812,-1.3144932374586915e-05
13.321,1.3200283611099524,1.4000062156911728,-0.1999714059986184,1.7197328717692635,8.52677745122321e-06,1.6601512318093912,-3.612744469627671e-05
13.331,1.3200333484368194,1.3999706058869341,-0.1999637324475474,1.7200648515416859,-1.9546859713059916e-06,1.6598274211988038,-2.7032240775604066e-05
13.341,1.3199953011587873,1.3999265071072564,-0.19995890424024676,1.720214055534253,-9.890038615623098e-06,1.6597377801552522,1.819720471374353e-05
13.351,1.3199674080072992,1.399928560420486,-0.1999581003439861,1.7199351933470464,-4.887942238518406e-06,1.6600419388333911,3.6724792782827365e-05
13.361,1.3199955364321925,1.3999709609660789,-0.19997072898992752,1.719951623927269,2.0294377893748106e-06,1.6599402573573547,-1.2743236366574706e-05
13.371,1.320004908521831,1.399954935403894,-0.19994874087157033,1.7199199706628878,3.143688567242009e-06,1.660031218646572,9.416705088582944e-06
13.381,1.3200052954511028,1.399977818122352,-0.19996601120688684,1.7197882996145992,2.4460100087608794e-06,1.6601213578475198,-1.2883757597670353e-05
13.391,1.3200012124635725,1.3999636551681762,-0.1999560913030507,1.7199066523371584,8.003624785146712e-07,1.6600387790909066,1.0291400593942512e-06
13.401,1.3199964067934813,1.3999629373904101,-0.19995785094635465,1.7198552835229144,2.8454390550436415e-06,1.6600943323067687,8.695900207911222e-06
13.411,1.3200049522085449,1.3999583804023077,-0.1999681697324771,1.7199884182090592,-1.5005976674586918e-06,1.6599316172915,-1.4291927868725907e-05
13.421,1.3199990642794095,1.3999626098024747,-0.19995975905848162,1.7199577767218717,3.190500353689174e-06,1.6599734857381359,3.6606569251418364e-06
13.431000000000001,1.3200001685397131,1.3999439920395913,-0.1999560804960252,1.7199014928183836,-1.4598452366954007e-06,1.6600376728492776,8.44503364128002e-06
13.441,1.3199883953919764,1.3999684262226335,-0.19997162988228556,1.7198762155822749,3.634209770453367e-06,1.6600555448853838,-1.9564940449967594e-06
13.451,1.3200134044186083,1.3999487119889746,-0.19995233580387506,1.719954494934914,-1.6604072152759386e-06,1.659954686600682,-1.9170860907635756e-06
13.461,1.3199989527625418,1.399966757811046,-0.19996693738395876,1.719898208981963,2.597508479418309e-06,1.6600161125884032,-2.8062336232537177e-06
13.471,1.32000388999586,1.3999691185939032,-0.19996043652882722,1.719809050028955,3.0340008496665405e-06,1.6600974466142668,-2.1849676441476618e-06
13.481,1.3200064515298102,1.3999556413313803,-0.19996092524362385,1.7199136491453597,-5.883043003862554e-07,1.6600043913001423,-3.363223352259581e-06
13.491,1.3200009346819188,1.3999579354182599,-0.19996535616844469,1.7199465353151524,1.0188789651977004e-06,1.6599704178766483,-2.6643491999323032e-06
13.501,1.3199983569308023,1.3999670580884205,-0.19996508680405256,1.7199084365910817,3.4213199553434492e-06,1.6600127967967708,1.1770974497338216e-06
13.511,1.3200013021499073,1.3999616529047891,-0.1999654542798961,1.7199805388670146,-6.243040537867728e-07,1.6599599728451677,-1.1184515944506757e-06
13.521,1.319997224693549,1.3999829349486097,-0.19997252208375382,1.7199541873785869,3.517190761748168e-06,1.6600035110088012,-2.78479832793721e-06
13.531,1.3200017930484291,1.3999835437716595,-0.19997010535930926,1.7199593388047987,2.0094116548463603e-06,1.6600237489657594,4.188602558130583e-07
13.541,1.3200000987738685,1.3999893531863492,-0.19997599842420133,1.7199832885332533,-4.866127927272146e-07,1.6600123733611518,-2.0426588980271276e-06
13.551,1.3200000320660932,1.3999916426026537,-0.19997857862242352,1.71999203046893,1.140880514505227e-06,1.660011921491928,1.3217808980670043e-07
13.561,1.3200001321313923,1.3999937383498624,-0.19998230468475864,1.719962054860435,1.7342533817910066e-06,1.6600382723955507,4.348979327772895e-07
13.571,1.3200010799740998,1.3999867532163295,-0.19998480072824343,1.719989063940993,-4.995974416388549e-07,1.6600040229012114,-2.748073013592034e-07
13.581,1.3200003172608543,1.3999849490680845,-0.19998905954602986,1.7199809517909372,1.7293219540803761e-06,1.6600027087690696,5.318106586216231e-07
13.591,1.3200007386490142,1.3999835317555753,-0.19999222313049447,1.719951686388903,2.4019703559474692e-06,1.660018849387007,2.652753421372722e-07
13.601,1.3200016770359948,1.3999773611008557,-0.19999352859977026,1.719975120362978,8.195153746726191e-07,1.6599875580471348,4.7187178697782883e-07
13.611,1.320000820091229,1.399976863683282,-0.19999724567041177,1.7199718759691898,2.055465788686206e-06,1.659988863118392,6.768807052637271e-07
13.621,1.320001010734937,1.3999795349475885,-0.1999992523575127,1.7199459114826574,2.6419084049322805e-06,1.6600120755767644,4.913953191021392e-07
13.631,1.320002000684653,1.3999770291188822,-0.19999891724181573,1.7199749659469603,9.082145089323035e-07,1.6599865393951765,1.0562695331728378e-06
13.641,1.3200008719754672,1.3999795736405707,-0.20000148035710996,1.7199752768931695,1.9101332027204876e-06,1.659993645219104,9.484556446892611e-07
13.651,1.320001019588994,1.3999839531387632,-0.20000177996291235,1.7199519196211277,2.3900308043778296e-06,1.6600197197631488,8.096383146138919e-07
13.661,1.320001930760716,1.399981942591463,-0.19999985951852128,1.7199812663411507,6.638896197230792e-07,1.6599949088712043,1.3252167221367017e-06
13.671,1.3200007288186821,1.399983589865407,-0.20000093974330024,1.7199805866143016,1.5789785319242355e-06,1.6600005305594223,9.703112606729292e-07
13.681000000000001,1.3200008631564213,1.3999863789033524,-0.1999997267595237,1.7199550782930153,2.142438925822887e-06,1.6600239455249532,7.255359184554777e-07
13.691,1.3200017507470383,1.3999825657728957,-0.19999652561586156,1.7199820734824307,5.821814479389786e-07,1.6599959324971936,1.0578364735280843e-06
13.701,1.3200005173506533,1.3999826278680025,-0.19999653493824177,1.7199793025759007,1.6066598877984006e-06,1.659998861918388,5.27287137508381e-07
13.711,1.3200006452535762,1.3999843771640839,-0.1999944392849642,1.719952468183557,2.2708835549778428e-06,1.6600205205242817,2.1255011262155676e-07
13.721,1.3200015137090269,1.3999802313107432,-0.19999064896076924,1.719979006167197,7.090121352248957e-07,1.6599919036787405,4.473103771829301e-07
13.731,1.3200002620886444,1.3999805657456035,-0.19999030726107936,1.7199765948889372,1.7496638058389635e-06,1.659995292209591,-1.4939477122055678e-07
13.741,1.3200003836007692,1.3999830100668555,-0.19998809029997133,1.7199506647250136,2.3624544231992672e-06,1.660018154797445,-3.9346637947801355e-07
13.751,1.3200012453637555,1.3999797342984106,-0.19998445196712034,1.7199783446257477,7.280518437013939e-07,1.6599910254153691,-1.0418940998846438e-07
13.761,1.31999999834337,1.3999808740880502,-0.19998447647177997,1.7199769847670847,1.711479733046417e-06,1.659995800231978,-5.321089897591946e-07
13.771,1.3200001469257945,1.3999838866342138,-0.19998283348186963,1.7199517961633788,2.2813079043615403e-06,1.660019640226352,-7.385954798877492e-07
13.781,1.320001035163811,1.3999808534269986,-0.1999799278819605,1.7199798012260388,6.463608581697144e-07,1.6599929389669743,-3.58180279214082e-07
13.791,1.3199998370544241,1.399981930102257,-0.19998079646051714,1.719978359092039,1.6184789171092007e-06,1.6599976078428131,-7.506593391326533e-07
13.801,1.3200000264551228,1.3999846496286423,-0.1999800946484802,1.719952785716945,2.2092085476543843e-06,1.6600209437316558,-9.007910692915289e-07
13.811,1.3200009708863645,1.3999812034806194,-0.19997815765810945,1.7199802596292972,6.172349999999938e-07,1.6599935430032087,-4.506150697025646e-07
13.821,1.3199998248422853,1.3999818765235084,-0.19998001197012982,1.7199782895603253,1.6146868864197472e-06,1.659997517863216,-7.798958829852154e-07
13.831,1.3200000602922541,1.3999842908943254,-0.1999802731525646,1.7199523130353693,2.233298298293107e-06,1.6600203267086764,-8.695866489105697e-07
13.841,1.3200010487194787,1.3999806808529787,-0.19997923270416607,1.7199795824218995,6.499384301861255e-07,1.6599926521520807,-3.5402505726978006e-07
13.851,1.3199999359512695,1.3999813483984296,-0.1999818994803233,1.719977605340084,1.6628683559005708e-06,1.6599966173953007,-6.198796773659865e-07
13.861,1.3200001979870208,1.3999838819891037,-0.1999828564376802,1.7199517799488007,2.2781254163106723e-06,1.6600196277161885,-6.508248038272768e-07
13.871,1.3200012134852388,1.3999804559153572,-0.1999823770053908,1.7199792958206004,6.757615427233077e-07,1.6599922736630175,-1.1494900054032087e-07
13.881,1.3200001041109237,1.3999813209613974,-0.19998546498731962,1.7199775787749552,1.6803851607960496e-06,1.659996580574263,-3.261054279946052e-07
13.891,1.3200003693245765,1.3999840181721996,-0.19998668319848623,1.719951963024723,2.2840766593645867e-06,1.6600198684701013,-3.3606105098726857e-07
13.901,1.3200013801601926,1.399980683364122,-0.19998631008493106,1.7199796053623189,6.750627701279655e-07,1.6599926773589475,2.6563410582269853e-07
13.911,1.3200002778444464,1.399981570001012,-0.19998933584588308,1.7199779134302666,1.6783367451367326e-06,1.6599970210679276,1.0573894027032793e-07
13.921,1.32000052746766,1.3999842279259154,-0.19999038983915263,1.7199522393907039,2.279482655964671e-06,1.6600202326952767,-1.215304070711909e-07
13.931000000000001,1.3200015245133914,1.399980804198047,-0.19998967693985925,1.7199797740739964,6.772647740405091e-07,1.6599929006851974,5.136225382784687e-07
13.941,1.3200003987278146,1.399981598166919,-0.1999922944835557,1.7199779564764217,1.6848897432808485e-06,1.6599970758250961,2.3749077993073797e-07
13.951,1.3200006263269985,1.3999841745063728,-0.1999928171360983,1.7199521703199814,2.2942040933671137e-06,1.6600201458829797,1.6488278564708025e-07
13.961,1.3200016024879053,1.3999806955710499,-0.19999153311976858,1.7199796370878566,6.892649651035754e-07,1.6599927188243822,6.293374479326985e-07
13.971,1.320000443528306,1.399981472029351,-0.1999935392661083,1.7199777949059047,1.6979737544886575e-06,1.6599968631470947,3.021743122388898e-07
13.981,1.3200006446167887,1.399984066467698,-0.19999343633965694,1.719952025488503,2.30505208609344e-06,1.6600199575428816,1.8898513154397278e-07
13.991,1.3200015908977658,1.3999806225819427,-0.19999155460207696,1.7199795424437312,6.923608326658837e-07,1.6599925925003225,6.033860806553548e-07
14.001,1.3200004071783429,1.3999814454896988,-0.19999298696651024,1.719977760291858,1.6972473106946495e-06,1.6599968171302386,2.3867836596025427e-07
14.011,1.3200005844348714,1.3999840863530775,-0.19999236669133946,1.7199520446652627,2.300505549612808e-06,1.6600199845485664,1.2074065747214036e-07
14.021,1.3200015130721008,1.3999806706278743,-0.1999900416173972,1.7199796031433614,6.842659612260604e-07,1.6599926707018007,4.533664217376554e-07
14.031,1.320000311986834,1.399981505844326,-0.19999108633832563,1.71997783830796,1.6892299106174846e-06,1.65999691970588,1.2085658251947962e-07
14.041,1.3200004854168084,1.3999841496297094,-0.19999019575485644,1.7199521158897184,2.287003487033701e-06,1.6600200800782163,-1.7930578355418447e-07
14.051,1.3200013901662944,1.3999807117521712,-0.1999876758926762,1.7199796577058528,6.743128357911132e-07,1.6599927399523073,2.8775708393879995e-07
14.061,1.3200002090852978,1.3999815295943447,-0.19998863125484156,1.7199778628457238,1.676522198401642e-06,1.6599969530631107,-1.5647665030371627e-07
14.071,1.3200003621892185,1.399984152320613,-0.19998776360934123,1.7199521121251884,2.2746420693664504e-06,1.6600200751658827,-3.319927337486206e-07
14.081,1.3200013005163846,1.39998069707039,-0.1999853340966098,1.7199796332429038,6.676097399349601e-07,1.6599927094725606,1.3983159252717314e-07
14.091,1.3200001107875892,1.3999815055622786,-0.19998650038933619,1.7199778286780543,1.6674290836959926e-06,1.6599969059519344,-3.039585019237734e-07
14.101,1.3200002907138044,1.3999841300946931,-0.1999858766984648,1.7199520744175096,2.2701397783819743e-06,1.660020030055719,-4.7537251468554587e-07
14.111,1.320001237845795,1.3999806767252698,-0.19998375426221404,1.7199796066464241,6.657491997685838e-07,1.6599926732483956,-8.669822992857235e-08
14.121,1.3200000621962946,1.3999814950450702,-0.19998526164081376,1.719977814169841,1.6659862582812934e-06,1.6599968865754633,-3.768918412916378e-07
14.131,1.3200002554342056,1.3999841317626478,-0.19998501221134912,1.7199520717362198,2.268640843183789e-06,1.6600200277720596,-5.160410543325611e-07
14.141,1.3200012249473616,1.3999806843141798,-0.19998328331785498,1.7199796167425028,6.615776211305047e-07,1.6599926849659,-9.205221740415936e-08
14.151,1.3200000651942077,1.399981506311792,-0.1999851731054525,1.7199778307806035,1.6631236139375005e-06,1.6599969080586598,-3.7483256853931834e-07
14.161,1.3200002747572093,1.3999841459000706,-0.19998527686884593,1.7199520879456998,2.2717514083225865e-06,1.660020051309746,-4.739543069121055e-07
14.171,1.3200012552546747,1.399980693706584,-0.19998389451565135,1.7199796321916203,6.63054634308935e-07,1.6599927025321648,8.88557076805796e-08
14.181,1.3200001098560685,1.39998150987749,-0.199986078844419,1.7199778401365542,1.6654730643494986e-06,1.6599969199746383,-3.148471048319834e-07
14.191,1.3200003353249539,1.3999841471403798,-0.19998641068244272,1.7199520884046908,2.2771736336579806e-06,1.660020054978439,-3.8478302055722224e-07
14.201,1.3200013192659368,1.3999806875567211,-0.1999852033388807,1.7199796290630172,6.692099763228043e-07,1.65999269712409,1.6354753373803987e-07
14.211,1.320000176994962,1.3999815009206067,-0.19998750428130485,1.7199778329979232,1.6725167668596441e-06,1.6599969100405625,-1.8842737858904002e-07
14.221,1.3200004038495834,1.399984141366546,-0.1999879243524596,1.719952077796858,2.279639772950759e-06,1.6600200425821,-2.7544987180050384e-07
14.231,1.32000138415715,1.3999806771209924,-0.19998672054189104,1.7199796221263401,6.725423187248225e-07,1.6599926867048804,2.6707745526266535e-07
14.241,1.3200002477935522,1.3999814941532067,-0.19998896217827422,1.7199778279376883,1.6805910671990887e-06,1.6599969037650872,-1.1299801361275286e-07
14.251,1.3200004614153675,1.399984140040523,-0.19998929426964196,1.7199520744496404,2.2855876729011015e-06,1.6600200390969224,-1.9614140089885268e-07
14.261,1.3200014374310012,1.39998067443498,-0.1999879372272595,1.7199796237161618,6.77924495207094e-07,1.6599926889130234,3.458102542097663e-07
14.271,1.3200002838981266,1.399981494437867,-0.1999900128520542,1.7199778318736954,1.6831163582864406e-06,1.6599969062810596,1.0518499315992358e-07
14.281,1.3200004949370037,1.3999841433707392,-0.1999901233131398,1.719952076679725,2.289212706507726e-06,1.660020044763531,-1.7048980716083406e-07
14.291,1.3200014671009495,1.3999806759304043,-0.19998852643842024,1.719979627926275,6.794686031597053e-07,1.6599926939819785,3.676567441601719e-07
14.301,1.3200002919830336,1.3999814949797598,-0.19999036010364257,1.7199778351424957,1.6851888471336451e-06,1.6599969099398058,1.0653700588392212e-07
14.311,1.3200004952682987,1.3999841461174478,-0.19999022118313814,1.719952076507747,2.2904938568046873e-06,1.66002004666246,-1.6671715474814164e-07
14.321,1.3200014435685503,1.3999806740025091,-0.19998839916990008,1.7199796293176348,6.792454154691541e-07,1.6599926925724988,3.5889734739669166e-07
14.331,1.320000275525154,1.3999814951343383,-0.19999001811720252,1.719977833869363,1.6822798860616217e-06,1.6599969082634596,-1.0545041551068834e-07
14.341,1.3200004707757547,1.3999841481266158,-0.1999896819943805,1.719952072856497,2.2886157848844846e-06,1.6600200451578937,-1.9222299929566589e-07
14.351,1.3200014084784204,1.3999806729451594,-0.19998770570143254,1.7199796286661808,6.761063575666526e-07,1.659992689156427,3.1948675349724454e-07
14.361,1.3200002439832001,1.399981495064738,-0.19998918846952396,1.719977832561824,1.6794905421946282e-06,1.659996908462789,-1.1565518764911076e-07
14.371,1.3200004236612735,1.3999841515342126,-0.19998878358058203,1.7199520715874819,2.284016716203041e-06,1.660020043750766,-2.3050626563048127e-07
14.381,1.3200013726470727,1.3999806752752395,-0.1999867724033022,1.719979628759443,6.702061945418336e-07,1.6599926895594521,2.4921806751621034e-07
14.391,1.3200001984754977,1.399981496037352,-0.199988265068904,1.7199778345719068,1.6730437133460896e-06,1.6599969096591423,-1.726459810669212e-07
14.401,1.3200003835479883,1.3999841552667132,-0.19998788604318296,1.7199520714492387,2.2828058217072567e-06,1.660020046321807,-3.109101820442106e-07
14.411,1.3200013366516723,1.399980675364941,-0.1999859145491909,1.71997963083151,6.716889924263114e-07,1.6599926919216532,1.9211407309427386e-07
14.421,1.3200001635926117,1.3999814969332594,-0.19998748370127473,1.7199778358945252,1.6737317123372009e-06,1.6599969107032813,-2.020671825420095e-07
14.431000000000001,1.320000351417609,1.3999841584300734,-0.19998721965100152,1.7199520704383744,2.2769238086084442e-06,1.6600200455977285,-3.3998678272695315e-07
14.441,1.3200013191500295,1.399980676319089,-0.19998538478563077,1.7199796310098137,6.660678959491406e-07,1.6599926912799239,1.6251276502288192e-07
14.451,1.3200001485164137,1.3999814967631519,-0.19998710541302867,1.7199778361996998,1.6691425850368091e-06,1.6599969104106442,-2.3233408352751894e-07
14.461,1.3200003439199435,1.399984159660134,-0.19998698163187179,1.7199520689967045,2.2791752787298947e-06,1.6600200460259504,-3.53178566392387e-07
14.471,1.3200013183827215,1.3999806750353159,-0.19998529506070106,1.7199796315022766,6.68409163573358e-07,1.6599926904945699,1.598786099066274e-07
14.481,1.3200001530320682,1.3999814954298984,-0.19998715878667728,1.7199778364085994,1.670171813294985e-06,1.6599969101612855,-2.2586193360041307e-07
14.491,1.3200003545770365,1.3999841607285406,-0.19998716305838649,1.7199520673664122,2.2797377230432403e-06,1.6600200459248793,-3.3112303476912075e-07
14.501,1.320001335268394,1.3999806737939586,-0.19998559323381304,1.7199796318705989,6.684611424390141e-07,1.6599926897059856,1.8851221028626242e-07
14.511,1.3200001727062727,1.3999814940552513,-0.19998755631856824,1.7199778367940315,1.6711520700596338e-06,1.6599969101503316,-1.8905881660202795e-07
14.521,1.3200003798822912,1.399984163247491,-0.19998766112714428,1.7199520658374396,2.2798722563166507e-06,1.660020045921633,-3.096864134022326e-07
14.531,1.3200013568269018,1.3999806709430613,-0.19998615192012537,1.7199796330336916,6.69889320903394e-07,1.6599926897899904,2.065529143280287e-07
14.541,1.3200002041429428,1.3999814922961464,-0.1999881402729713,1.7199778372967316,1.6760595107356835e-06,1.659996911058383,-1.6788027856762255e-07
14.551,1.3200004054307346,1.3999841634289671,-0.19998823894974826,1.719952064558143,2.2867916298352498e-06,1.6600200462608408,-2.654336883622932e-07
14.561,1.320001383245824,1.399980669215556,-0.19998671035199056,1.7199796335414845,6.724041661243518e-07,1.6599926888990328,2.586980789587301e-07
14.571,1.320000226723491,1.3999814911458959,-0.19998867120149644,1.7199778372622703,1.6746028208558528e-06,1.6599969104451997,-1.3418814681642743e-07
14.581,1.3200004255327693,1.3999841643133646,-0.19998871526528017,1.719952062932224,2.286420089703256e-06,1.660020046132769,-2.2263951482415223e-07
14.591,1.3200014009529975,1.3999806677967275,-0.19998712112765205,1.7199796340238027,6.733915096646115e-07,1.6599926881634604,2.996412256095482e-07
14.601,1.3200002404932691,1.399981490100453,-0.19998900875982883,1.719977837681359,1.676223099877916e-06,1.6599969104954493,-1.1664765153795997e-07
14.611,1.3200004344384961,1.3999841654955558,-0.19998896799515276,1.7199520617530268,2.2883459473987955e-06,1.6600200466183361,-2.0005581546911344e-07
14.621,1.3200014067109054,1.3999806667605403,-0.19998728520000508,1.7199796348143828,6.739490210350141e-07,1.6599926879337037,3.168062461256227e-07
14.631,1.3200002422206314,1.3999814897032188,-0.19998908513634994,1.7199778381968258,1.675775940235269e-06,1.659996910669479,-1.135077187797151e-07
14.641,1.3200004317635043,1.3999841675028222,-0.199988958329965,1.7199520605497742,2.287882921336859e-06,1.6600200469431003,-2.0115293875022644e-07
14.651,1.320001401632541,1.399980666186849,-0.19998719420078626,1.7199796355566974,6.733770021583041e-07,1.6599926878666782,3.0631296965566435e-07
14.661,1.3200002326860698,1.3999814893763327,-0.1999889218539721,1.719977838793593,1.6751288169913892e-06,1.6599969108633896,-1.219786005535184e-07
14.671,1.3200004199113629,1.399984169745359,-0.19998873251955374,1.719952059309227,2.2873769891518236e-06,1.6600200472008355,-2.2344786554384655e-07
14.681000000000001,1.3200013888493807,1.3999806657878615,-0.1999869160702561,1.7199796362276523,6.725244574568023e-07,1.6599926878007247,2.759375625771554e-07
14.691,1.320000216886693,1.399981489180652,-0.19998860539757413,1.719977839332504,1.6738804271554386e-06,1.6599969109773856,-1.428381137813517e-07
14.701,1.3200004038644337,1.3999841721943778,-0.19998839148284997,1.7199520580060152,2.2862297850423374e-06,1.660020047391364,-2.5655076729691473e-07
14.711,1.3200013732585685,1.3999806654656224,-0.1999865628381663,1.719979636906654,6.713600670948949e-07,1.6599926876836504,2.4021693256770504e-07
14.721,1.3200002008103286,1.399981489082733,-0.19998825476541526,1.7199778398659706,1.6724601898943092e-06,1.659996911150734,-1.7002407393107433e-07
14.731,1.3200003890157772,1.399984174656904,-0.1999880563476557,1.7199520567502056,2.285178684502398e-06,1.6600200476684224,-2.888758130481506e-07
14.741,1.3200013601024718,1.399980665040089,-0.19998625318795327,1.7199796376565928,6.703912269756529e-07,1.6599926875780335,2.1059410304502535e-07
14.751,1.320000189267267,1.399981488907347,-0.1999879817320478,1.7199778404015937,1.6713110060351255e-06,1.65999691138141,-1.9310586019116727e-07
14.761,1.3200003795208177,1.399984176917994,-0.19998782797006864,1.7199520555138736,2.284541113617422e-06,1.6600200479493052,-3.1107331377455694e-07
14.771,1.3200013537449369,1.3999806634865166,-0.1999860575834811,1.7199796384052881,6.711166617989761e-07,1.6599926885184857,2.111492669598647e-07
14.781,1.3200001830613601,1.399981489318968,-0.1999878536394748,1.7199778409647397,1.6697114570973781e-06,1.6599969105213574,-1.960672326717372e-07
14.791,1.3200003833783187,1.3999841791034928,-0.1999877457775634,1.7199520533598474,2.283842954753368e-06,1.6600200491156745,-3.070219332101942e-07
14.801,1.320001353758351,1.3999806636054286,-0.1999860558451001,1.7199796395165876,6.68684316806889e-07,1.659992686724662,2.0164687164481165e-07
14.811,1.3200001751992723,1.399981485917742,-0.19998788941602186,1.7199778421507972,1.6715282633583683e-06,1.6599969120029447,-1.8545171798223237e-07
14.821,1.3200003837917542,1.3999841809175129,-0.19998783612843063,1.7199520527824337,2.286634380510577e-06,1.6600200481060163,-2.9285766256492707e-07
14.831,1.3200013602243992,1.3999806630204716,-0.19998619474130397,1.7199796393504805,6.684018059033292e-07,1.6599926863707983,2.0128807332042697e-07
14.841,1.3200001963157328,1.399981485891094,-0.19998805775273443,1.7199778419279905,1.6715827166891017e-06,1.6599969126827894,-1.818805799302936e-07
14.851,1.3200003905005637,1.3999841819868548,-0.19998803598903514,1.7199520516449205,2.2870158176147015e-06,1.6600200480349825,-2.843536881513842e-07
14.861,1.3200013710056133,1.3999806612978931,-0.1999863999348328,1.7199796401532623,6.705622697111835e-07,1.6599926861671834,2.247831796253763e-07
14.871,1.320000206076851,1.3999814852536376,-0.19998827760997262,1.7199778421310103,1.6722402271796e-06,1.6599969122900822,-1.650768197691832e-07
14.881,1.3200003992599116,1.3999841831920232,-0.19998825714493584,1.7199520503579588,2.286905895765301e-06,1.6600200479889002,-2.661339193466006e-07
14.891,1.320001381598141,1.399980659950569,-0.19998660943658653,1.7199796406922658,6.710111053465084e-07,1.6599926860400496,2.465002379992143e-07
14.901,1.3200002145948169,1.3999814846335603,-0.19998847523744434,1.719977842528781,1.6727367571078844e-06,1.6599969121138072,-1.503677768965872e-07
14.911,1.3200004058874697,1.3999841845657786,-0.19998843416122014,1.7199520491763618,2.287745248352735e-06,1.6600200481985485,-2.504067202480087e-07
14.921,1.320001388363579,1.399980658721793,-0.19998675852560854,1.7199796413989947,6.715955489511316e-07,1.6599926859983825,2.6132568820003144e-07
14.931000000000001,1.320000219371508,1.3999814840308984,-0.19998859538056468,1.7199778429854717,1.6730546352761166e-06,1.6599969121820282,-1.4209555754263192e-07
14.941,1.3200004085205572,1.3999841862157538,-0.19998852172684778,1.7199520479837282,2.288080089840605e-06,1.6600200483558485,-2.42643140246912e-07
14.951,1.3200013904815284,1.3999806577397527,-0.1999868109625682,1.7199796420509301,6.716039164800236e-07,1.6599926858515532,2.6637974404053466e-07
14.961,1.320000219449284,1.3999814834672781,-0.1999886144403522,1.7199778434270208,1.6729375040824834e-06,1.6599969122777463,-1.4106505208388853e-07
14.971,1.3200004067211886,1.3999841880091806,-0.1999885083003914,1.7199520467602483,2.2881764989435283e-06,1.660020048479515,-2.4430666201169515e-07
14.981,1.3200013882792723,1.3999806569193654,-0.1999867661926702,1.7199796426755682,6.714105520444491e-07,1.6599926856682004,2.6158911481388714e-07
14.991,1.3200002154916026,1.3999814829777328,-0.19998854299303748,1.7199778438784943,1.6725470652900754e-06,1.6599969123958074,-1.4640516177166774e-07
15.001,1.3200004015918,1.3999841899410859,-0.19998841422084457,1.719952045546835,2.287955598312408e-06,1.6600200486254604,-2.534952665556034e-07
15.011,1.3200013832433326,1.3999806562442236,-0.19998665296062423,1.7199796433138275,6.709810298488605e-07,1.6599926855053946,2.5017041860309064e-07
15.021,1.3200002093553227,1.3999814825747334,-0.19998841698809056,1.7199778443617095,1.671948415271629e-06,1.659996912558869,-1.559615201429665e-07
15.031,1.3200003950669927,1.3999841919426146,-0.19998828079305575,1.719952044367588,2.287613418694434e-06,1.6600200488235783,-2.6631566907298065e-07
15.041,1.320001377422729,1.3999806556121053,-0.1999865161369465,1.719979643974476,6.705105031201697e-07,1.6599926853649967,2.3678476335220466e-07
15.051,1.3200002032496405,1.3999814821861571,-0.19998828310443528,1.7199778448502023,1.6713362773757012e-06,1.6599969127392944,-1.6648698863974687e-07
15.061,1.3200003892007208,1.3999841939129762,-0.19998815462923059,1.71995204319348,2.287305224335512e-06,1.6600200490234185,-2.783539878592478e-07
15.071,1.3200013728170639,1.399980654927779,-0.19998640060579476,1.7199796446211923,6.701097756689478e-07,1.659992685197527,2.2578653791072156e-07
15.081,1.320000198988338,1.399981481731471,-0.19998818297146848,1.7199778453112415,1.6708545143018227e-06,1.6599969128951662,-1.745315225676336e-07
15.091,1.3200003855056828,1.3999841957698793,-0.19998807272488683,1.7199520420078986,2.2871725171569324e-06,1.6600200491857677,-2.8607507829292445e-07
15.101,1.3200013707642686,1.3999806541411042,-0.1999863376555302,1.7199796452402758,6.69877199044322e-07,1.6599926849932887,2.200042059641305e-07
15.111,1.3200001975163342,1.399981481171948,-0.1999881413417537,1.7199778457475041,1.6706032406332838e-06,1.659996913025962,-1.777699445426606e-07
15.121,1.320000384592677,1.39998419749105,-0.19998805275051357,1.7199520408201323,2.287268737077852e-06,1.6600200493115462,-2.877468334716582e-07
15.131,1.320001371615561,1.3999806532568781,-0.19998633765459495,1.7199796458396222,6.698280321515426e-07,1.6599926847710735,2.2028936097484575e-07
15.141,1.3200001987987742,1.3999814805168844,-0.19998816132423158,1.7199778461729522,1.6705825087726112e-06,1.6599969131478627,-1.7581824529599999e-07
15.151,1.3200003861449598,1.3999841990975135,-0.19998809085900326,1.7199520396416226,2.2875691358947847e-06,1.66002004941552,-2.837833648072774e-07
15.161,1.320001374761575,1.399980652301351,-0.19998639033796817,1.719979646428392,6.699275933996773e-07,1.6599926845430906,2.2558938095329495e-07
15.171,1.320000201997825,1.3999814797990826,-0.19998822697348562,1.719977846592343,1.6707276317973196e-06,1.6599969132672623,-1.701559186884083e-07
15.181,1.320000389162841,1.3999842006332948,-0.19998816633000072,1.7199520384710105,2.287996128558234e-06,1.6600200495086321,-2.7631697729901816e-07
15.191,1.320001378981405,1.3999806513108117,-0.19998647121614788,1.7199796470102875,6.701037138512334e-07,1.6599926843093318,2.3352844991109123e-07
15.201,1.3200002058400502,1.3999814790628395,-0.19998831113349436,1.7199778470056941,1.6709328161113035e-06,1.6599969133840835,-1.6323888729630198e-07
15.211,1.3200003923618508,1.399984202152588,-0.19998825048782898,1.7199520373063422,2.2884468950934433e-06,1.6600200496008668,-2.681993773734348e-07
15.221,1.32000138293128,1.399980650329928,-0.19998655120234687,1.7199796475902396,6.702732191499194e-07,1.6599926840744956,2.4130082909579187e-07
15.231,1.3200002090511695,1.399981478353265,-0.19998838538955788,1.7199778474184644,1.6710922539076023e-06,1.6599969135030719,-1.5739914616119677e-07
15.241,1.3200003946018493,1.3999842037053023,-0.19998831660308358,1.7199520361511738,2.28882451480672e-06,1.6600200497050297,-2.6196446967219345e-07
15.251,1.3200013855800758,1.3999806494006828,-0.19998660611862995,1.7199796481741743,6.703647432715343e-07,1.6599926838499552,2.4657293185015305e-07
15.261,1.3200002107378053,1.3999814777016448,-0.19998842885434875,1.7199778478385817,1.6711304189342968e-06,1.6599969136304171,-1.5412125442537672e-07
15.271,1.3200003952131052,1.399984205321295,-0.1999883476680946,1.719952035009097,2.2890679112208545e-06,1.6600200498291242,-2.59144144365564e-07
15.281,1.3200013864595306,1.399980648544612,-0.19998662322916605,1.7199796487640473,6.703419153097911e-07,1.6599926836430328,2.481191563319385e-07
15.291,1.320000210606925,1.399981477115647,-0.19998843328527194,1.7199778482688792,1.6710222130456032e-06,1.6599969137666974,-1.5386256890792538e-07
15.301,1.3200003941274723,1.3999842070023858,-0.19998833998224175,1.7199520338794017,2.28916756750408e-06,1.660020049971851,-2.6001341080217344e-07
15.311,1.3200013857014925,1.399980647756152,-0.19998660324966355,1.7199796493571888,6.702102455236059e-07,1.6599926834512857,2.4604779635950536e-07
15.321,1.3200002089689864,1.3999814765824459,-0.19998840353816671,1.719977848705673,1.6707902901202942e-06,1.6599969139075315,-1.5619607651728984e-07
15.331,1.320000391802953,1.399984208727803,-0.1999883021258988,1.7199520327586697,2.28915891220538e-06,1.6600200501264109,-2.63714736270515e-07
15.341,1.3200013839002098,1.3999806470101692,-0.19998655796728393,1.719979649949849,6.700077088694911e-07,1.6599926832668004,2.4157024647308845e-07
15.351,1.3200002065464478,1.3999814760775777,-0.19998835399912096,1.7199778491431719,1.6704895875463421e-06,1.6599969140485786,-1.6005560787846207e-07
15.361,1.3200003889992793,1.3999842104651883,-0.19998825040577461,1.7199520316443895,2.2891037643191225e-06,1.660020050285329,-2.6868138203184344e-07
15.371,1.3200013818676668,1.399980646274793,-0.19998650491743053,1.7199796505390772,6.697875942762721e-07,1.659992683082164,2.364344107164129e-07
15.381,1.320000204181361,1.399981475573112,-0.19998830272553558,1.7199778495767895,1.670187121938227e-06,1.6599969141870892,-1.6406520142453473e-07
15.391,1.3200003864982657,1.3999842121812334,-0.19998820270505213,1.7199520305354312,2.2890677318088137e-06,1.6600200504416076,-2.7320806061936764e-07
15.401,1.3200013803607105,1.3999806455222883,-0.19998646117729457,1.7199796511220207,6.695998875372311e-07,1.6599926828923142,2.3228860790425188e-07
15.411,1.3200002025576172,1.3999814750450748,-0.19998826541062176,1.7199778500035627,1.6699407963116641e-06,1.659996914320799,-1.669633622469746e-07
15.421,1.320000384863813,1.399984213850943,-0.19998817283196146,1.7199520294311093,2.2890996671520725e-06,1.660020050589079,-2.7598170682097134e-07
15.431000000000001,1.3200013798603578,1.3999806447360852,-0.1999864382812806,1.71997965169607,6.69476532877411e-07,1.659992682694564,2.3020648587390724e-07
15.441,1.3200002020227384,1.3999814744803478,-0.19998825102173168,1.7199778504221896,1.6697826241696134e-06,1.6599969144481594,-1.6799853064242143e-07
15.451,1.3200003843082708,1.3999842154644027,-0.1999881670020045,1.7199520283312566,2.2892193625168034e-06,1.66002005072471,-2.7642336419830826e-07
15.461,1.3200013804652517,1.399980643913599,-0.1999864396265032,1.7199796522605197,6.694248755323429e-07,1.6599926824889364,2.304716018031172e-07
15.471,1.3200002025417419,1.3999814738800165,-0.1999882601727787,1.7199778508333594,1.6697125921893985e-06,1.659996914569673,-1.6712371397886727e-07
15.481,1.3200003846862813,1.3999842170281225,-0.19998818318145872,1.719952027236653,2.289416716649839e-06,1.660020050850327,-2.747589169516118e-07
15.491,1.3200013819199405,1.3999806430645352,-0.19998646075440263,1.7199796528172264,6.694299283793725e-07,1.659992682277971,2.3262370429932844e-07
15.501,1.3200002037703573,1.3999814732570277,-0.19998828627969711,1.7199778512393422,1.669703908468989e-06,1.6599969146877749,-1.6491181931144183e-07
15.511,1.3200003855955327,1.399984218560311,-0.19998821302368253,1.7199520261486327,2.28965983417595e-06,1.6600200509712417,-2.718234615173287e-07
15.521,1.3200013837504283,1.3999806422060646,-0.19998649195387674,1.7199796533692613,6.694624330449983e-07,1.6599926820654343,2.3571117413467846e-07
15.531,1.3200002052060462,1.39998147262982,-0.1999883186976268,1.719977851642902,1.6697156182132744e-06,1.6599969148053004,-1.6225801058311617e-07
15.541,1.3200003865378713,1.3999842200830397,-0.19998824539537363,1.7199520250683733,2.2899078118143734e-06,1.6600200510932641,-2.6870137759260615e-07
15.551,1.320001385445721,1.3999806413568239,-0.199986522029449,1.7199796539192356,6.694895224867992e-07,1.6599926818550523,2.3864975862153415e-07
15.561,1.3200002063622263,1.3999814720154795,-0.19998834658039577,1.7199778520465099,1.669707338614046e-06,1.6599969149242817,-1.6002874936305034e-07
15.571,1.3200003870844048,1.3999842216148846,-0.19998827018044985,1.7199520239966013,2.290124194281873e-06,1.6600200512206529,-2.663525693336055e-07
15.581,1.3200013866190847,1.3999806405313304,-0.19998654191667864,1.7199796544686237,6.694850327448876e-07,1.6599926816497028,2.4056844605269134e-07
15.591,1.3200002069122911,1.3999814714248835,-0.19998836218622884,1.71997785245183,1.6696514233416337e-06,1.6599969150456735,-1.5880302939308422e-07
15.601,1.320000386994427,1.3999842231660944,-0.19998828117095702,1.7199520229335654,2.2902874237118453e-06,1.6600200513554215,-2.653462143342722e-07
15.611,1.320001387103117,1.3999806397360564,-0.199986547077442,1.7199796550177808,6.694365799475577e-07,1.6599926814506762,2.4104135576408225e-07
15.621,1.320000206764342,1.3999814708606717,-0.19998836271795728,1.7199778528592677,1.6695391851229147e-06,1.659996915169387,-1.5876401793235573e-07
15.631,1.3200003862586014,1.3999842247369694,-0.1999882773152155,1.7199520218789726,2.290395168635939e-06,1.6600200514973,-2.657576105846715e-07
15.641,1.3200013869631544,1.399980638968418,-0.19998653814460887,1.7199796555661209,6.6934725495571e-07,1.6599926812572336,2.4014992217047393e-07
15.651,1.3200002060527813,1.3999814703179103,-0.19998835037506968,1.7199778532678387,1.6693802908918087e-06,1.6599969152944256,-1.5972218569970664e-07
15.661,1.3200003850648239,1.3999842263193596,-0.19998826220919685,1.7199520208320358,2.290461948106781e-06,1.6600200516441408,-2.6722609103302375e-07
15.671,1.32000138644017,1.3999806382189561,-0.199986519902831,1.7199796561124092,6.692321985468652e-07,1.659992681067016,2.3837797336057065e-07
15.681000000000001,1.3200002050612367,1.3999814697867379,-0.19998833088988022,1.719977853675676,1.6691968687254644e-06,1.6599969154192884,-1.6122753443426063e-07
15.691,1.320000383709595,1.3999842279004264,-0.19998824226751832,1.7199520197918243,2.2905119845262334e-06,1.6600200517927783,-2.691311236091565e-07
15.701,1.3200013858512643,1.3999806374754877,-0.19998649918053957,1.7199796566551555,6.691120004731488e-07,1.6599926808772176,2.3639785418083648e-07
15.711,1.3200002041118681,1.3999814692559776,-0.1999883112326497,1.719977854080902,1.6690150150822092e-06,1.6599969155425178,-1.6273369940478233e-07
15.721,1.3200003824908215,1.3999842294672176,-0.19998822433700703,1.7199520187576365,2.2905703032094493e-06,1.6600200519400792,-2.7081828601893676e-07
15.731,1.3200013854827857,1.3999806367273706,-0.19998648246255968,1.7199796571930666,6.690055434077635e-07,1.6599926806856642,2.348346752611974e-07
15.741,1.320000203461392,1.3999814687166525,-0.1999882973102194,1.719977854482245,1.6688563571065629e-06,1.6599969156631236,-1.6377261857769554e-07
15.751,1.3200002190965172,1.3999822734626175,-0.19998672276862184,1.7199216204461223,2.7289978428157724e-06,1.660052839466318,1.429721076640078e-06
15.761,1.3200028072969614,1.3999683988576068,-0.19998358505337155,1.7199535316283434,5.231128437088728e-07,1.660016794664478,1.0728371364621125e-06
15.771,1.3199999496010921,1.3999710596418415,-0.1999864459828382,1.7199345806468038,3.713160432461393e-06,1.6600193761617765,-6.466198172461191e-07
15.781,1.3200014341187254,1.3999679099708162,-0.19998298466620135,1.7199065148399413,4.4671535635032456e-06,1.6600334209247611,8.025476834205847e-07
15.791,1.32000198745886,1.39996008292957,-0.19998093215026636,1.719926859353361,1.8850916045920485e-06,1.6600061560399757,9.877498463595202e-08
15.801,1.3200007889746024,1.3999601227055933,-0.19998104691262153,1.719924134204149,3.091668977717177e-06,1.660005914671264,-4.913923925542463e-07
15.811,1.3200010587136948,1.3999636974001506,-0.19997885936659898,1.7198970659901391,4.162145751607227e-06,1.6600300947989437,1.3759973516158652e-07
15.821,1.3200018340797675,1.3999605408095173,-0.19997608830233204,1.7199271202939777,2.148955700498334e-06,1.6600053701085944,-2.667601464168001e-07
15.831,1.3200005330409645,1.3999635155365873,-0.19997624112686463,1.7199274959119286,3.2312321947003397e-06,1.6600134098875703,-5.582442543783372e-07
15.841,1.3200007090368633,1.399968626712754,-0.19997451619262474,1.7199044819562683,3.827572266246193e-06,1.6600395757583737,-4.210324098252727e-07
15.851,1.320001547658772,1.3999664881076885,-0.1999716868715673,1.7199341645428383,1.8215298611679032e-06,1.6600152386355278,-2.342795584198143e-07
15.861,1.320000346295882,1.3999680934691447,-0.19997222996228814,1.7199336781083563,2.7679214964493326e-06,1.66002099999994,-5.176228361492008e-07
15.871,1.320000483988589,1.3999711264139014,-0.19997121041074717,1.719907996481222,3.468064667444537e-06,1.6600441753902704,-6.561772707414093e-07
15.881,1.3200014460873781,1.3999669558478516,-0.19996882945358685,1.7199350852231632,1.8107342176776342e-06,1.6600158161185927,-3.5085093852416094e-07
15.891,1.320000279244713,1.3999668001408265,-0.19997012856979524,1.7199322051979067,2.9379474062452005e-06,1.6600184697278815,-7.162841582086799e-07
15.901,1.3200004609067113,1.3999686007390189,-0.19996985023874725,1.7199051801339316,3.6519174955174094e-06,1.6600397196504373,-8.953083971974252e-07
15.911,1.3200014868047392,1.3999641506801659,-0.19996814931509377,1.7199318628823566,1.99481838158988e-06,1.6600107548101386,-4.657945513741879e-07
15.921,1.3200003382366337,1.3999644163937415,-0.1999702063971709,1.7199295445737555,3.086970782106846e-06,1.6600139723483043,-7.771920422783296e-07
15.931000000000001,1.3200005331734745,1.3999670343450674,-0.19997062498412532,1.719903678999943,3.7488487025783e-06,1.6600366945218497,-8.759437397642955e-07
15.941,1.32000157165196,1.399963595603217,-0.19996954697659586,1.7199317607510949,2.046155033852415e-06,1.6600094552329594,-3.497422493836666e-07
15.951,1.3200004209810086,1.3999647987986945,-0.19997215971560323,1.7199306894703668,3.0894905824752072e-06,1.6600142058953287,-5.909685105720541e-07
15.961,1.320000625329671,1.3999680335496176,-0.19997300530221995,1.7199056928156757,3.701744430983922e-06,1.6600379738679116,-6.227779314471604e-07
15.971,1.3200016720317391,1.3999648319601263,-0.1999722547888192,1.7199341440454958,1.969149664660108e-06,1.6600111292614192,-1.0442111442188207e-07
15.981,1.3200005333788445,1.3999659280929047,-0.19997506690458167,1.7199329727456867,3.017698456453388e-06,1.6600156474552357,-3.1916990650415755e-07
15.991,1.3200007395178357,1.3999687914582228,-0.1999759862301289,1.7199075408302633,3.6581752240749665e-06,1.660038746437893,-3.602461271512425e-07
16.001,1.3200017919534908,1.3999650941554336,-0.19997517385214802,1.7199354037277708,1.965646901247453e-06,1.660011033420182,2.2349910988594957e-07
16.011,1.3200006469868475,1.3999657229448284,-0.19997785620643338,1.7199336668777043,3.0423301851101314e-06,1.660014708987812,-1.3595303371971568e-07
16.021,1.3200008506380598,1.3999682425847642,-0.1999785262711331,1.719907826595236,3.7075774326211786e-06,1.6600371818311874,-1.9429324638053913e-07
16.031,1.3200018898348551,1.3999643742813364,-0.19997741433821048,1.7199355175762356,2.0222479983900143e-06,1.6600091435385256,3.453215748905336e-07
16.041,1.3200007198832209,1.3999650109857908,-0.19997972571889466,1.7199338383180969,3.098714469906838e-06,1.6600128040843378,-1.046435107454613e-07
16.051,1.3200009181936903,1.3999676814093611,-0.19997996269269702,1.7199082327235793,3.7572220543680146e-06,1.6600355002683358,-1.5529821695281498e-07
16.061,1.3200019243212342,1.399964031106376,-0.19997840106524833,1.7199362591050011,2.05264122943305e-06,1.6600078125848174,3.662436194318275e-07
16.071,1.320000724143032,1.3999648940946479,-0.19998022898544843,1.7199349200329408,3.116468987762744e-06,1.6600118378884874,1.0626453317286177e-07
16.081,1.3200008922462496,1.3999677472829823,-0.19998002494840872,1.7199095884926479,3.7557196979065566e-06,1.6600348132283154,-1.6673944891465453e-07
16.091,1.3200018731988594,1.3999641921423214,-0.19997802125602782,1.7199377836034824,2.045181003218488e-06,1.6600072709048321,3.3434053303693645e-07
16.101,1.3200006770322918,1.39996506931179,-0.19997943566746113,1.7199364949523694,3.1065092302995367e-06,1.6600112925014452,-1.0861029586806126e-07
16.111,1.3200008106912016,1.3999678618612306,-0.19997889489698562,1.719911119655606,3.7465236486511344e-06,1.6600341386582143,-2.2298111623797467e-07
16.121,1.3200018001291287,1.3999642013130984,-0.19997659728670758,1.7199392113201064,2.0418503385855047e-06,1.660006395461191,2.491503163781772e-07
16.131,1.320000589779303,1.3999649637803842,-0.19997782933608654,1.7199378042646067,3.1065795518259165e-06,1.6600101974271855,-1.9778288873339989e-07
16.141,1.3200007247968557,1.3999676588770305,-0.19997713636891046,1.7199123288817777,3.7590884467419983e-06,1.6600328584612392,-3.509511161681189e-07
16.151,1.320001711734772,1.3999639353234228,-0.19997478304668714,1.7199403698019182,2.0590454825608617e-06,1.660004989782978,1.1955562762011596e-07
16.161,1.3200004955948543,1.3999646774798356,-0.19997602737824405,1.719938962266312,3.125468996501013e-06,1.6600087428107475,-3.364927216864544e-07
16.171,1.3200006322529925,1.3999673919677509,-0.19997541653006223,1.7199135325981487,3.7773013925601617e-06,1.6600314199961863,-4.932533741452971e-07
16.181,1.3200016385935411,1.3999637103906428,-0.19997318733995062,1.7199416500730873,2.074922794470524e-06,1.6600036129326483,-9.834300840338983e-08
16.191,1.3200004275104007,1.3999645047356308,-0.19997461695302565,1.7199403298575326,3.138304464300745e-06,1.6600074438140524,-4.3621647005664954e-07
16.201,1.320000578465196,1.399967268795752,-0.19997424121419716,1.7199149756171472,3.7856253971568776e-06,1.6600301927528536,-5.820902346798107e-07
16.211,1.320001588751838,1.3999636151300372,-0.1999722837134552,1.7199431505705096,2.081064928383114e-06,1.6600024319964524,-1.5094188654529717e-07
16.221,1.3200003934871294,1.3999644213069278,-0.19997398671787714,1.7199418562671465,3.1485639979678126e-06,1.6600062787552243,-4.814417291498785e-07
16.231,1.3200005569760576,1.3999671809878453,-0.19997389910803065,1.7199165004098482,3.7980144815819017e-06,1.6600290108365439,-6.035046666852395e-07
16.241,1.3200015800012697,1.3999635047369416,-0.1999722263020871,1.7199446560157305,2.0937816511690244e-06,1.660001212807284,-1.512914851176106e-07
16.251,1.3200003975043142,1.3999642846503662,-0.19997419601999944,1.7199433305154859,3.1635578823241417e-06,1.6600050140022304,-4.5565243667056166e-07
16.261,1.3200005720220105,1.3999670219118228,-0.199974356835658,1.7199179410026026,3.815440585697161e-06,1.660027703353638,-5.578218615909236e-07
16.271,1.3200016049550687,1.3999633251929522,-0.19997290142756619,1.7199460720503321,2.112833213274712e-06,1.6599998758964771,-1.0531776961641981e-07
16.281,1.32000042950631,1.399964096347702,-0.19997505143571814,1.7199447303788045,3.1844564682970145e-06,1.6600036665894873,-3.77855596589427e-07
16.291,1.3200006078982955,1.3999668366983027,-0.19997535281924161,1.7199193335159109,3.837717888366399e-06,1.6600263629213803,-4.6685824539594023e-07
16.301,1.320001643594317,1.3999631472965115,-0.1999740060990831,1.7199474670482147,2.1321526073592167e-06,1.6599985561204997,8.982499899445884e-08
16.311,1.320000470704846,1.399963930754443,-0.1999762139892134,1.7199461292499016,3.203487433545149e-06,1.660002378780514,-3.035737350387535e-07
16.321,1.3200006537966331,1.3999666868679252,-0.1999765145418655,1.7199207333137725,3.857818748898012e-06,1.6600251088044358,-3.863452597840933e-07
16.331,1.3200016831059989,1.3999630065711886,-0.19997512302924925,1.7199488649633352,2.1529988023516466e-06,1.6599973320635968,1.4565918604603212e-07
16.341,1.320000505903237,1.3999637981541744,-0.1999772502051691,1.7199475159859539,3.221653622098586e-06,1.6600011799351089,-2.1734355026836738e-07
16.351,1.3200006808745286,1.3999665593855646,-0.19997744666173478,1.7199220994888833,3.871953830447694e-06,1.6600239291114152,-3.100314041049046e-07
16.361,1.320001706763434,1.3999628774371198,-0.19997593115212364,1.7199502062904735,2.165350724503412e-06,1.6599961663453904,1.9053756172837666e-07
16.371,1.3200005324929993,1.3999636669960758,-0.1999778984497702,1.7199488252239306,3.236372723591785e-06,1.660000028760435,-1.8990531369666996e-07
16.381,1.320000690683342,1.399966426471746,-0.19997793903138117,1.7199233752872374,3.887847143779766e-06,1.6600227908415173,-3.050238985835563e-07
16.391,1.320001702901628,1.3999627383578286,-0.19997622977481555,1.7199514487906384,2.183319017134977e-06,1.6599950454092705,1.9679156348928473e-07
16.401,1.3200005182968777,1.3999635295251265,-0.19997802048375668,1.7199500339805809,3.251979596718968e-06,1.6599989276841631,-1.9562000996842244e-07
16.411,1.3200006845442598,1.399966295209997,-0.19997786371848036,1.7199245474431564,3.902902621533144e-06,1.660021718315802,-3.095056193558321e-07
16.421,1.3200016809419202,1.399962609167197,-0.19997599499677765,1.719952592525079,2.1927500570839698e-06,1.6599940022378483,1.890019447614577e-07
16.431,1.320000486841833,1.3999634066987694,-0.199977637803868,1.7199511449936935,3.261382893526843e-06,1.6599979208159361,-2.0285856994206597e-07
16.441,1.3200006414407337,1.3999661809423474,-0.19997738042443736,1.7199256258275923,3.908843847710841e-06,1.6600207468482404,-3.412459621543462e-07
16.451,1.3200016496692735,1.3999625006742358,-0.19997541763565163,1.7199536363388823,2.201179242433682e-06,1.659993071411666,1.4426024907976398e-07
16.461,1.3200004489426211,1.3999633034005647,-0.19997700294043952,1.7199521536777063,3.2701749965724503e-06,1.659997027447405,-2.6010968579015525e-07
16.471,1.3200006020111585,1.3999660843629718,-0.1999767070218308,1.7199265937730122,3.918573349359633e-06,1.6600198912251258,-4.0486726327060296e-07
16.481,1.3200016112325734,1.399962406247643,-0.19997473109714559,1.7199545641113456,2.2097235135021265e-06,1.659992251091718,1.0002700445710389e-07
16.491,1.320001772510003,1.3999186013873626,-0.19999839985099133,1.7209184841626186,-1.551906889574184e-05,1.6590923634429986,-1.7769244940346596e-05
16.501,1.3199147755548868,1.4005054269511419,-0.20010142575854495,1.7192202705036195,0.00010889724032203674,1.660824204758378,-4.127808868759075e-05
16.511,1.3201134495589093,1.3998721847654707,-0.19990905742357157,1.7204567066781742,-6.133262077412382e-05,1.6602455502398792,6.246100195106408e-05
16.521,1.3199659938155008,1.4000709688620994,-0.20013897987504592,1.7207915351997904,-4.7644216503606174e-05,1.659560421818063,-8.832489479537742e-05
16.531,1.3199518552026408,1.400209322980313,-0.1999932549241512,1.7196185993158064,5.5776547771557716e-05,1.6606087270022796,0.0001201439421647521
16.541,1.3200540315865785,1.3999117348323908,-0.20004881519587325,1.7204813754313868,-3.7169048433760565e-05,1.6596099464188425,-2.2516028970187563e-05
16.551,1.319951786595066,1.399934915543188,-0.20009425369539358,1.719879514262562,-3.469915899501075e-06,1.6601509810447173,-6.805724514613587e-06
16.561,1.3200314822231949,1.3999389654455632,-0.20002686236423806,1.7200702874882712,2.3868375500057937e-05,1.659653289124254,2.0881131130856545e-05
16.571,1.3200160761645456,1.399892558206167,-0.20006101170973345,1.71992557982799,5.253939556304488e-06,1.6598365577519,-1.4657893716574222e-06
16.581,1.3200037718613649,1.3998314814008221,-0.20005870608325527,1.7200910380690857,-1.3560229156439618e-05,1.659689366666636,-7.183394496124151e-06
16.591,1.3200018927438784,1.3999132665595653,-0.2000398719144858,1.7200949228351945,1.0435314832690779e-05,1.6596895645859409,2.038417419747418e-05
16.601,1.3199933467101301,1.3998565640891778,-0.20002094492022948,1.7201920079596107,-7.76828105841787e-06,1.6597717060978345,3.9769342779827355e-05
16.611,1.3199828915658838,1.3999362826129067,-0.20004132442296374,1.7200110127719075,-1.928962984898419e-06,1.6599761605344892,5.824222117922773e-07
16.621,1.320005980543752,1.3999478880100211,-0.20000826225614254,1.7202432001092287,-1.7950494681784335e-06,1.6597900350245913,1.1378172534826092e-05
16.631,1.3199826385609912,1.3999575272852622,-0.19999920664309645,1.7201438714589905,-2.0807277705259253e-06,1.6599731855094646,2.7821126609595126e-05
16.641,1.3199881534191542,1.400039535995071,-0.19999095620809726,1.719491405991926,1.3509234557673722e-05,1.6605594712507372,3.841330125098352e-06
16.651,1.320032533156085,1.4000232068680853,-0.19998442044100528,1.7199019671550246,1.6953223260784966e-06,1.6600395159977852,-4.368902732210245e-05
16.661,1.3199928344789802,1.3999952978817518,-0.19996172431720893,1.719902120481672,7.971387221417103e-06,1.6600912322560255,1.3915907549844064e-05
16.671,1.3199987838566116,1.399952083961062,-0.19995620650929435,1.7200522820160824,-7.251069025215884e-07,1.6599068474352965,-3.663032983602932e-06
16.681,1.3199951255093723,1.3999469662996784,-0.19994417086344818,1.7199329472708271,2.2282648810545425e-06,1.660019990548241,9.209374676188986e-07
16.691,1.3199988932102285,1.3999591144444876,-0.1999385183692608,1.7199359276582058,6.389220837732523e-06,1.659961707573122,-7.330163334096085e-06
16.701,1.3200038750504062,1.3999739757914682,-0.19993344141753866,1.7198757658951997,8.479410460893178e-06,1.6600058908647704,-1.2362512310737372e-05
16.711,1.3200048092381849,1.399943912616096,-0.19991833641651802,1.7198891953776183,-5.083521070758934e-07,1.6600222173804413,-2.9093220064169145e-06
16.721,1.3199989786352493,1.3999887609286814,-0.19993081541022484,1.7197639829998526,9.829032882713307e-06,1.6601195158758308,-1.5585914824534086e-05
16.731,1.319999419742869,1.40001970100319,-0.19992741757558186,1.7196449286179547,1.7361618183997507e-05,1.6602545544263076,-1.0504443867631608e-05
16.741,1.3200193523525918,1.3999959251366887,-0.19993361179004054,1.7198609227654593,4.521255324796414e-06,1.660038936379908,-3.1074319046808796e-05
16.751,1.320007319320105,1.3999801247787946,-0.1999353688189185,1.7200019036096137,1.4979268252446332e-06,1.6599278784829465,-1.4922212405288349e-05
16.761,1.320002035974884,1.3999514054500741,-0.19993002626904577,1.720112916679179,-1.7297332739474314e-06,1.6598465640156563,5.237055956897052e-06
16.771,1.3199963386506273,1.399912118406771,-0.19993890624382082,1.7202104213388658,-9.1400124979657e-06,1.6597917544872711,7.844083985908412e-06
16.781,1.3199887347399395,1.3998978934457638,-0.19995385692164724,1.7202976003287702,-8.208721173907918e-06,1.6597252600503918,6.903287174786499e-06
16.791,1.3199789939852486,1.399868713415863,-0.19993978800218315,1.7198167452162316,-9.703854439990778e-07,1.6602627105007066,4.181020673765801e-05
16.801,1.3200086534249902,1.3998684947437567,-0.20000645970371167,1.720144804932314,-5.7969096722843005e-06,1.659779214666325,-5.189328562504869e-05
16.811,1.3199877387639773,1.3998033847561349,-0.19998833242088043,1.7199695588632142,3.008246156177563e-06,1.6600484211081774,1.750793269827966e-05
16.821,1.319989484932524,1.3996813592438881,-0.200034166827586,1.7202232128325647,-1.1928436452812718e-05,1.6598336946339058,-3.911535029210711e-06
16.831,1.3199723569891804,1.3995886138374853,-0.20006867138799933,1.7199622198469342,-9.142173713172497e-06,1.6601499857914437,4.242140086319068e-06
16.841,1.319980945715268,1.3995404704412175,-0.20012641218193217,1.7196306407353603,8.36568225803802e-06,1.6603683299191339,-2.1117402862813606e-05
16.851,1.3200001331304394,1.3993797634429113,-0.20020489544341658,1.7198282257971886,8.201443995048407e-07,1.6601590607287298,-5.402611131444246e-05
16.861,1.3199882787776147,1.3991572357255864,-0.20028815514592857,1.7199375617316601,-6.45728740966689e-06,1.660082919142079,-4.3177274883454686e-05
16.871,1.31996727754452,1.3989075610547745,-0.2003979603827517,1.7201181390351437,-9.749227503519364e-06,1.6599684574438571,-2.950692104608521e-05
16.881,1.319965226670453,1.3986517488256487,-0.2005345278652495,1.7200052634959668,-1.0285787772623678e-05,1.6600812432361636,-3.9370400197746847e-05
16.891,1.319966617317733,1.3983962648339672,-0.2007212817987032,1.7199945415271465,-5.6742802243547885e-06,1.6600514733100624,-7.20788746155776e-05
16.901,1.3199665704718386,1.3980156038965648,-0.20091023562929777,1.7201491850852957,-1.4868040334903299e-05,1.6599583879742,-5.7528971414200214e-05
16.911,1.3199466991829611,1.3976502725777697,-0.20116672399018753,1.7200501743035979,-1.3626737184857518e-05,1.660063702732029,-6.615202018522837e-05
16.921,1.3199533628261353,1.3972330184735844,-0.20145284285863418,1.720078202597703,-1.5505494953771404e-05,1.6600186219607327,-8.128219068304077e-05
16.931,1.3199407160820025,1.3967530252223233,-0.20179877208592423,1.7202870478332457,-1.7650748373121417e-05,1.659862692371414,-8.223475158164462e-05
16.941,1.319927194087322,1.3962503986165737,-0.20216453969323034,1.7197080331751842,-1.15948326770976e-05,1.6604757289842818,-5.887993155617721e-05
16.951,1.3199527906369628,1.3957353102702283,-0.20264414832259625,1.7197692073197004,-1.055616863254727e-05,1.660278474735108,-0.0001408560368583167
16.961,1.3199428207585902,1.3951467207853527,-0.20313750427258093,1.719692416022756,2.3112869813601833e-06,1.6603594917626507,-0.00011886347145217968
16.971,1.3199425268287408,1.3943448413456432,-0.20369141638150623,1.7203474432397527,-2.9841969301891424e-05,1.659800898009565,-0.00010967774506553951
16.981,1.3198985576342812,1.3936914979216075,-0.20431966627548093,1.719677723979892,-8.864750181025727e-06,1.6604891772097936,-9.073186460284433e-05
16.991,1.3199441950687056,1.3929515486809239,-0.20501795871420292,1.7196515265916261,-3.530848905697326e-06,1.6604056074261369,-0.00015051290114875826
17.001,1.3199446524343381,1.392097645453604,-0.20577853203030116,1.7198248392382762,-9.90427406488692e-06,1.6602483093675584,-0.00015180863473762685
17.011,1.3199256411616362,1.391144581985352,-0.20658458484435727,1.719919101618725,-1.9003907200776382e-05,1.6602137066514349,-0.00011881117582834833
17.021,1.3199161430571413,1.3901664807207483,-0.2074843844170271,1.7200028383099095,-2.0097254876283444e-05,1.6601679994359433,-0.00012203644371133748
17.031,1.319924461748089,1.3891297884428502,-0.2084502606464973,1.7201276037366995,-2.315209938785756e-05,1.6600376022059447,-0.0001359123450779265
17.041,1.3199273758667154,1.388072103700389,-0.20948809839558002,1.7201142295275496,-1.6431082864087898e-05,1.6600250659194655,-0.00014559919478340788
17.051,1.3199266019882199,1.3867797763530403,-0.21054269312087825,1.72021098388106,-4.0762049868803274e-05,1.6600651544809377,-8.689312922083303e-05
17.061,1.3198978775163521,1.3856720934097764,-0.21178960708136607,1.720017060090509,-2.3601877098045065e-05,1.6601206222763993,-0.00016367525197047428
17.071,1.319942785126555,1.3843419955541476,-0.21296822840649376,1.720087445320683,-1.628568365941163e-05,1.6600743489503547,-0.00012027937735847871
17.081,1.3199276158682585,1.3829724236038734,-0.21430808370945975,1.719978807532918,-2.140395145744378e-05,1.660189548904449,-0.00013941829345043288
17.091,1.3199327905512215,1.381482347643039,-0.21569042799394822,1.7202887670100093,-3.491396375210343e-05,1.659899952410493,-0.000149479866707658
17.101,1.3199123192257165,1.3799377792892438,-0.21710438951618194,1.7200582895908152,-2.9893943777281606e-05,1.660175900113166,-8.185310168506987e-05
17.111,1.3199107523578677,1.3784031993095782,-0.21867188257213677,1.7200427357249204,-2.5515697109845803e-05,1.660103002220568,-0.00014535967205020484
17.121,1.3199272534093458,1.3766797221150986,-0.22023930974333084,1.7202421722294154,-3.0506411150099666e-05,1.6599916828638976,-0.00011930062139242636
17.131,1.3199130167664803,1.3749187519873916,-0.2219182271908089,1.7203061957814878,-3.7807875227002796e-05,1.659950883350878,-0.00012271209529757243
17.141,1.319895790583547,1.3730652795699525,-0.2236502518050809,1.7202360145397257,-4.722109050447898e-05,1.6600838474113342,-0.00010338131327625177
17.151,1.3199060512863525,1.3712320581494373,-0.22546382270796705,1.7199884876401885,-2.3604382161757087e-05,1.6602330152745672,-0.0001209486974591556
17.161,1.319934543771553,1.3692265125969927,-0.2273508752322666,1.720161655175886,-3.4073219114638675e-05,1.6600197014362186,-0.00015291577191778316
17.171,1.3199039496851546,1.3671675461119532,-0.22931636322773663,1.7200122807235267,-3.3010019627077725e-05,1.6602018972609836,-0.00013282112768742138
17.181,1.3199198563785766,1.364995205424175,-0.23133820908020475,1.720182016534519,-3.3645754347055856e-05,1.660050857748919,-0.00012945092712257633
17.191,1.3199145081979866,1.362782945865189,-0.23347873470512504,1.7202844679523501,-3.694649600927136e-05,1.659939274915157,-0.00015775381046800874
17.201,1.3198924462589163,1.3603631726500938,-0.23561812779822588,1.720312261423432,-5.666272387028215e-05,1.6600643515541886,-7.458275681493376e-05
17.211,1.3198849591638417,1.358058087713096,-0.23794101628370967,1.7200853399619653,-3.51454656613015e-05,1.6601676041588087,-0.00013853945391506528
17.221,1.319908157890116,1.3555919027255152,-0.24029579723245753,1.7199929954150281,-3.6827496908919954e-05,1.6602251557740235,-0.0001635006522322513
17.231,1.3199244178200447,1.3530000690597772,-0.24271480963392555,1.7200845801257039,-3.5937432673271985e-05,1.6601156076542871,-0.00015240617478973206
17.241,1.31989817518242,1.3503460072258742,-0.2452594445743248,1.7200704234454633,-4.336137104754556e-05,1.6601468401326303,-0.00016009603061029054
17.251,1.319906155247165,1.34760694935773,-0.2478483255423516,1.7200648216562122,-3.607792776527674e-05,1.6601455173570923,-0.00015021700694806128
17.261,1.3199082613111628,1.34479050959784,-0.25056491567120176,1.72008624439691,-4.348406708132302e-05,1.6601283067681463,-0.00017479192166725
17.271,1.3199112950977359,1.3418465382631561,-0.2533156630012403,1.7200799106734905,-4.6840489713595446e-05,1.6601589131416885,-0.00014473688318172861
17.281,1.3198983488091907,1.3389067656029932,-0.25622311295009936,1.7198592436486688,-3.5127577368676555e-05,1.6603229361006475,-0.00017851262342105656
17.291,1.3199087881923726,1.3358471842852095,-0.2591768771644034,1.719781847220922,-2.035525094612467e-05,1.6603974468429268,-0.0001797113409232054
17.301,1.3199411287614389,1.332540975760888,-0.2622067321393473,1.7201694915743175,-6.456888954886608e-05,1.6600516146068802,-0.00017575695181371032
17.311,1.319865069846852,1.32933353041041,-0.2653803092723397,1.7199952506615581,-3.9420043333571186e-05,1.6602148616789227,-0.00015157067157200999
17.321,1.3199084092334816,1.3259207799236998,-0.2685888765246318,1.7202289725697746,-5.3808204950378524e-05,1.6600031703158944,-0.00015940806912961847
17.331,1.3198959507773216,1.3224927730314535,-0.2719181718732191,1.7199797097445355,-4.9893834803249604e-05,1.660259871702035,-0.00015085208384846283
17.341,1.3198882503628973,1.3189504577162419,-0.2753459524325965,1.7201577023866879,-5.281684923374996e-05,1.6600799932868835,-0.00016420993583743382
17.351,1.3198959253781402,1.3152884049139635,-0.2788471945003028,1.720326069676716,-6.724294233251271e-05,1.6599583396831532,-0.00015058625010500037
17.361,1.3198750635533676,1.3115861556500628,-0.28242043726245925,1.7200358431452063,-5.50514887152076e-05,1.6602605110281177,-0.00011001256619902477
17.371,1.3199129164373717,1.3078248616184984,-0.2861462547538647,1.7200714051696036,-5.46301510331304e-05,1.6600954617146746,-0.00019819496537643033
17.381,1.319906168352512,1.3039079759685768,-0.28990970038739583,1.720129208070638,-5.755744355173675e-05,1.6600888962044946,-0.00015946228630259185
17.391,1.319907503107057,1.2999122320705103,-0.2937616358410384,1.7200572334440807,-5.835384002761401e-05,1.6601554899544597,-0.0001476647332800951
17.401,1.319900867164793,1.2958290221220095,-0.2977249526085668,1.720126441445224,-6.244381613207395e-05,1.660095966447689,-0.00015204453214145985
17.411,1.3198985846277136,1.2916793062275174,-0.30176914549995537,1.7200767770299912,-6.135090119929743e-05,1.6601263020316566,-0.00014860785590808945
17.421,1.3199105833429297,1.2874328451363235,-0.3059014530340196,1.7200072266434372,-5.751542307752544e-05,1.6601994139961551,-0.00015381097214817174
17.431,1.319903187414674,1.2830653187458294,-0.3101176628319511,1.7201099618224163,-6.543220305132991e-05,1.6601147899672375,-0.00014588937256831969
17.441,1.3198862413388932,1.278665814793496,-0.31441833782722384,1.7198884337877587,-5.529202074594508e-05,1.6603197355548662,-0.00012447852283692384
17.451,1.3199301141281605,1.2740657968751679,-0.318838219784487,1.720385615344835,-8.645280891883544e-05,1.659848838285825,-0.00018563849018526923
17.461,1.3198651203620146,1.2694704657439706,-0.3232618030633141,1.7200142453174436,-6.847678153132364e-05,1.660260473955634,-6.095641622305692e-05
17.471,1.3199052519491117,1.264873914886084,-0.3278566746302616,1.7196684886056133,-3.9571127924631355e-05,1.6604449267656207,-0.00015834631840405677
17.481,1.319947867163945,1.26010257486391,-0.3325371436309208,1.719750821583995,-4.2915657691544595e-05,1.6603255499811267,-0.00021728849433877429
17.491,1.319925287202964,1.2552263794272873,-0.33726218981991885,1.7197149237369516,-3.6728239924066486e-05,1.6603782436161305,-0.00017527165031516745
17.501,1.319973725979997,1.2501671951644733,-0.34206178920334196,1.720170886584393,-6.52993632863641e-05,1.6599614259651734,-0.00018572750902823287
17.511,1.3198978453317158,1.245076621467505,-0.34696703762894643,1.7202118491008243,-8.64008953378459e-05,1.6599864485677847,-0.00011022724760589853
17.521,1.3198971612850885,1.2399072786349885,-0.35195443516819935,1.7203143257920068,-0.00010080968702830262,1.659908685138535,-0.00011575667179641869
17.531,1.3199017507188788,1.2346640782140925,-0.357016658589858,1.7203540316986583,-0.00010385274319091309,1.6599067437084365,-0.00010354925413924576
17.541,1.319875514228234,1.2293628055486012,-0.36216591371972484,1.72027863100082,-9.97352133165208e-05,1.6599852637977737,-8.075437731136503e-05
17.551,1.3198811597496016,1.2239960829482355,-0.36741899105970965,1.7201652455657577,-9.808912629338806e-05,1.660069383573484,-0.00010836292476135156
17.561,1.319907499453243,1.2185733705064488,-0.3727382446971106,1.7199537021983602,-7.36841892283735e-05,1.6602112610896276,-0.00013327173729571484
17.571,1.319925337209301,1.213082602289549,-0.3781532839463466,1.7197076406529241,-4.761965823885106e-05,1.6603689661545182,-0.00016346783560017286
17.581,1.3199388476537308,1.2074663677054884,-0.3836482076588421,1.7196346604696657,-3.56559433329906e-05,1.6604008736289417,-0.00017680589710877825
17.591,1.3199508032828566,1.2015655022418192,-0.38921016786811435,1.7202753863420206,-0.00010532607648094938,1.6598830586632065,-0.00015432173700791196
17.601,1.3198694442563728,1.195793678397762,-0.3948620776398961,1.7199826369494886,-9.068842720427739e-05,1.6601671077354725,-9.01403341098117e-05
17.611,1.31994201339384,1.1898942418154101,-0.400598810380977,1.7201172185328844,-8.427086251661109e-05,1.660010439431665,-0.0001636099860444773
17.621,1.3199189775161546,1.1839087977396057,-0.40640006046538346,1.7201116871572601,-8.973931655464895e-05,1.6600395536288355,-0.00010853139253708122
17.631,1.3198998107372484,1.1778574060166127,-0.4123048389559685,1.7200709824263676,-9.955696921970514e-05,1.6600701398615554,-0.00011001965392409829
17.641,1.3199337701611125,1.1717482592308501,-0.41828241691392165,1.7200230250393478,-8.706144058834298e-05,1.660087717787838,-0.00013895183858458893
17.651,1.3199216943118692,1.16553669035524,-0.42433817496876536,1.7200035344266578,-8.66881347789672e-05,1.6601107430612645,-0.0001245000143379471
17.661,1.3199309370500032,1.159212161848612,-0.430472649538455,1.7201285925093224,-0.00010498834737582285,1.659993524599142,-0.00012775145086241224
17.671,1.3199188319430322,1.1528886760584376,-0.4366728962080373,1.7199295192343023,-8.272269733478055e-05,1.6601500714487347,-0.00010527778302638069
17.681,1.3199447758978797,1.1464452568540997,-0.44296777916429697,1.7199838390642164,-7.898571530517984e-05,1.6600776331050788,-0.00013641491133231654
17.691,1.3199265748611753,1.139868403826413,-0.4493302448201497,1.7201415516844918,-0.00011281490408787676,1.6599784758101714,-0.0001032043113653458
17.701,1.3199202762188422,1.1332993979084955,-0.4557408122202897,1.7200113514766446,-9.772402890728671e-05,1.6600656265737879,-7.639968501393923e-05
17.711,1.3199400372364076,1.126673142971252,-0.4622809094425957,1.7199251282009733,-8.826316853571825e-05,1.6601048024269822,-0.00013386609826238072
17.721,1.3199397562068826,1.1199199625928236,-0.46885697304010243,1.7199721207156529,-8.960887913200821e-05,1.6600812093964796,-0.0001135659651190224
17.731,1.319947361805803,1.1130795545507501,-0.4755065514802368,1.720084248081445,-0.00010717011007166377,1.6599795521884397,-0.00011025132778996749
17.741,1.3199414021828613,1.1062673630172695,-0.4822298523129209,1.7198522198465973,-7.519818643508813e-05,1.6601487558537933,-0.00011006119030643191
17.751,1.3199638475961244,1.0993118227835224,-0.4890252436784781,1.7199122242315248,-8.019187056707011e-05,1.6600829213173807,-0.00013086178853072283
17.761,1.3199675905953798,1.092352989201669,-0.49592571773970917,1.7197638449181607,-5.269839004551358e-05,1.6602010058222083,-0.00017576205132119327
17.771,1.3199830774547232,1.0850800239478344,-0.5027279039240415,1.7203388272361089,-0.00013008801939129455,1.659746967967151,-2.32317964421469e-06
17.781,1.319862433006933,1.0780532145767898,-0.5097769117456252,1.7197127858522236,-0.00010894295714791724,1.6602666172434652,-5.9879243289984174e-05
17.791,1.3200411836889998,1.0708945698183632,-0.5168566725498014,1.7198687121966199,-4.586751756985308e-05,1.6600443727147631,-0.00021203990985085852
17.801,1.319938256303831,1.0636711000608559,-0.5239595363667817,1.7195420126132106,-2.239204710630105e-05,1.6603552224410603,-9.045631388637787e-05
17.811,1.3200302412238694,1.0561477357073352,-0.5310951596266094,1.7202451558343448,-0.00010603495557237608,1.6597458089403698,-0.00010274634494145118
17.821,1.3198779456936052,1.0488003621352187,-0.5383444681922764,1.7197533387415191,-0.00012139621823692437,1.660214157740671,-3.058935941613328e-05
17.831,1.3200071952659602,1.0412846814500734,-0.5456438129912478,1.72016879053667,-0.00011444201180488278,1.659829754186183,-0.00013132381233749157
17.841,1.3199383990593292,1.033828105260965,-0.5529756733723765,1.7198585601048926,-8.034249750643596e-05,1.660104702452692,-2.1724034913184198e-05
17.851,1.3200012903641065,1.0262939020160404,-0.5604518184157143,1.7198385921204355,-6.575667542829677e-05,1.6600572848747275,-0.00017682749438474588
17.861,1.3199812378221747,1.0185640020453386,-0.5678485902681008,1.7200673934062216,-0.00011291075739094936,1.659904684455178,-3.5115014270559186e-05
17.871,1.319933256960077,1.0108612359756188,-0.5753654148845975,1.7199696296741322,-0.0001269229898746005,1.6600000343625219,-3.4049290462689896e-05
17.881,1.3199857529561125,1.0031209140730466,-0.5829699366898993,1.7200686640717624,-0.00011453807894667989,1.6598990681256662,-8.711781740977642e-05
17.891,1.3199572028005822,0.9952980297157881,-0.5905626479113586,1.7200732094554017,-0.00012595893280842319,1.6599045366972254,-9.515222446410121e-06
17.901,1.319961511606059,0.9875157934759455,-0.5982333181818689,1.719876874731213,-8.820763703720758e-05,1.6600277116132514,-2.939325786677216e-05
17.911,1.3199639143508062,0.9796005049965695,-0.6059921583213814,1.7199077142494499,-0.00011062672730144385,1.6600082304073283,-7.460142570003825e-05
17.921,1.3200009646221806,0.9716566605007335,-0.61375315617064,1.7199801405953465,-9.261666920057365e-05,1.6599126788988725,-4.959851080954536e-05
17.931,1.3199691145091208,0.9636835268171522,-0.6215823553408057,1.719820763550734,-8.92739799711606e-05,1.6600458020898259,-4.70087411521547e-05
17.941,1.319994234324473,0.9556210470413289,-0.6294735399672629,1.7199363617477736,-9.8201649488594e-05,1.659945870532086,-7.739455869071321e-05
17.951,1.3199897396617422,0.9474996152980912,-0.6373792185658829,1.7200078027944912,-0.0001144625675522093,1.659892125988141,-3.7255935778190974e-05
17.961,1.31997643330996,0.9393851270015565,-0.6453487470350012,1.7199234183995475,-0.00010513962538016841,1.659967627506533,-3.5963981020792346e-05
17.971,1.3200338850091358,0.931209942789585,-0.6534358973796781,1.7200448267658537,-0.00010168216797357132,1.6598458099955335,-0.00013816465555382962
17.981,1.3199340337195666,0.9228853322474917,-0.6612783599985494,1.7201735149609156,-0.0001556017808237442,1.6598046832887157,0.0002147066909437001
17.991,1.319982842562145,0.9146691481986631,-0.6695125250291447,1.7200299236056473,-0.0001789107817451452,1.6598719766176373,-0.00010313845408571609
18.001,1.320004733858319,0.9063357531421277,-0.6776049708339134,1.7202411124654997,-0.00017656141005772952,1.6597216827137133,2.2775604828773055e-05
18.011,1.3198968723210296,0.8980510517068927,-0.6856134248852701,1.7199345550819807,-0.00013931314526338667,1.6599575807010227,0.00020990042852275792
18.021,1.3200793879178452,0.8897527228660982,-0.6940990116980128,1.7200461436601273,-0.00013174596170006936,1.6597828055858992,-0.00027489601824104426
18.031,1.3199717301551228,0.8814019592918632,-0.7020942006963402,1.7198307998714064,-5.93279978104988e-05,1.65998548541456,0.00016789982597398279
18.041,1.3199986499970722,0.8729861628846196,-0.7104352009308474,1.7197780399157843,-7.700770754226482e-05,1.6599801401889707,-6.827283297905495e-05
18.051,1.320043187321474,0.8645211117277691,-0.7188011830792558,1.7198971367919782,-8.220675202164074e-05,1.6599033243979555,-0.0001006885204537511
18.061,1.3200083896088204,0.8560369048236778,-0.7270335780761759,1.7198481660228104,-6.217383610618299e-05,1.6599236329133724,3.7615376526467514e-05
18.071,1.3200286524304117,0.8475618179543423,-0.7354440803784907,1.7197684772213986,-4.899460202167916e-05,1.6599821240960368,-6.518270806399329e-05
18.081,1.3200264202817324,0.8389670584978086,-0.7438074152676446,1.7198873439776676,-8.728675004299191e-05,1.6598946665404224,-2.4002681921153624e-05
18.091,1.3200256269188966,0.8304013498359017,-0.752198707894717,1.719876455142483,-8.083738847997068e-05,1.6598979557304885,-6.102627390092152e-07
18.101,1.3200234546173881,0.8217969497898503,-0.7606290330049035,1.7198769550416024,-9.450044775949351e-05,1.659893999521576,-1.0601458885872717e-05
18.111,1.3200323298467422,0.8131884366080007,-0.7690641730547174,1.71989812165085,-8.623203857816009e-05,1.6598559526068586,1.1159341713806725e-05
18.121,1.320019839894349,0.8046005043280475,-0.777531050801775,1.7197612105626447,-5.8236562398228386e-05,1.6599588177908036,5.418405289780992e-06
18.131,1.3200307269296099,0.795895986988234,-0.7860291521631364,1.7198952545547304,-9.237556250241141e-05,1.6598573709827278,-6.192629831147656e-07
18.141,1.3200484604140934,0.7872782226656918,-0.7945523901791312,1.719841942521752,-5.715213024792831e-05,1.6598748722194534,-6.993458364412675e-06
18.151,1.320026337909586,0.7785360139872042,-0.8030514623590843,1.7198772379208123,-0.0001053580297529777,1.6598739356115395,2.3077897527201685e-05
18.161,1.32004500470548,0.7698647363214688,-0.8116040738161345,1.7198860672555263,-8.321955682255577e-05,1.659841361600214,4.36322880936757e-07
18.171,1.3200452229273871,0.7612035509218513,-0.8201545995635904,1.719782687532204,-4.595281111452465e-05,1.6599060279011129,3.4369348558271895e-06
18.181,1.320054266917687,0.7525023141187885,-0.8287051345591916,1.7197931293103004,-3.0113431392031487e-05,1.6598872367693982,1.9309241140241795e-05
18.191,1.3200365668667233,0.7437288900762811,-0.8372662115343665,1.7197921565320744,-6.780547579143814e-05,1.6599093912398892,2.2565519108397325e-05
18.201,1.3200568580562777,0.7349988954159494,-0.8458720906805297,1.719843318301768,-5.9414567260773765e-05,1.6598471304479618,-8.12837531416477e-06
18.211,1.3200657131369153,0.7262387485070159,-0.8544868164059682,1.7198828442947267,-7.297639631964614e-05,1.6598255751067263,-9.09168241935987e-06
18.221,1.3200733221098089,0.717486611440866,-0.8631546684127027,1.7198730665089368,-7.532534966525617e-05,1.6598554417528888,-6.938355342711588e-05
18.231,1.3200106872343564,0.7085308749193571,-0.8715138633246102,1.720204601396535,-0.0002122129659580807,1.659649103157256,0.00031366309036151563
18.241,1.3199519575095007,0.699706089246507,-0.8800398206502553,1.720029133362079,-0.0003015673842261535,1.6598064348691084,0.0002491939744935223
18.251,1.3200503716084846,0.6912007725257956,-0.8887745147935711,1.7198663085257024,-0.00010209274671257873,1.6597953591624846,1.1133197248547333e-05
18.261,1.3201030249412469,0.6825173394068527,-0.8974819719927716,1.7198947477387634,-5.0595429501143485e-05,1.6597413806298436,-3.970921790852344e-05
18.271,1.3200490174530133,0.6737194585607353,-0.9059920138430577,1.7198037140269342,-8.605036154651913e-05,1.6598746809512948,8.228601715476458e-05
18.281,1.3200600770729256,0.6650475278182713,-0.9145797734260181,1.7197604992058793,-4.470460166494661e-06,1.65987175432877,4.0624204892480975e-05
18.291,1.3200909893956911,0.6563848774128003,-0.9232462877534555,1.719723346897581,4.732234628512799e-05,1.65987427085798,-3.622666249736284e-05
18.301,1.3200567554364833,0.6474566545437623,-0.9317700539789318,1.7199179147344168,-0.00011293426399205941,1.6597979351860568,6.849816755316596e-05
18.311,1.320028283933909,0.6385871037176143,-0.9402829320107653,1.7200916911367088,-0.00022860397702917368,1.6597088585395223,0.00017046833592448962
18.321,1.3199971657711673,0.6302480106238546,-0.9486729911387748,1.7195051682479772,0.00010173311659755768,1.6600376599536402,0.00028163754224674875
18.331,1.320185301152586,0.6217479540998747,-0.9576791050065019,1.7196018527470134,0.00020083672186999024,1.6598458922197858,-0.00030769558897159044
18.341,1.3201184768423504,0.6130785041194828,-0.9661428149156794,1.719379454876039,0.00021789866596133578,1.6601025400938134,-7.819994653956996e-05
18.351,1.3201766654019966,0.604342616011901,-0.974763172687771,1.7197356586746508,0.0001635237354049579,1.6597903109549668,-0.00015638793348671243
18.361,1.3201013445498475,0.5954963067532839,-0.9831701260522596,1.7197440329642415,-1.23131092033546e-05,1.6599025994796381,2.72001301082625e-05
18.371,1.3200877071217585,0.5867022000831499,-0.9915745631021124,1.719948561405591,-0.00012197507939770702,1.6597696772232675,8.72793785324788e-05
18.381,1.3200467572474297,0.5779857329010207,-0.9999523399727437,1.720012279877075,-0.00019237357452617232,1.6597420530305191,0.00022882601928220225
18.391,1.3200080860401124,0.5694568774864193,-1.0082039897381385,1.7198602068371578,-0.00012542450267893912,1.6598098756276025,0.00036596288531853816
18.401,1.3201166319488742,0.5610384220209825,-1.0170045498833247,1.7198194990763014,-4.426514804034554e-05,1.6597725267962398,-0.00017160943390415184
18.411,1.320106433843458,0.552581891475266,-1.0253618074278315,1.7197576445634422,5.922984975814671e-05,1.6598522397812951,4.045994142387599e-05
18.421,1.3200722634646551,0.5439813611960522,-1.033621792355472,1.719817964193762,1.7154964684351626e-06,1.6598185384567685,0.00017082943325608113
18.431,1.320089046352999,0.5355805402827629,-1.0420949164737099,1.719686870578979,5.643571904290212e-05,1.6598917259463084,-3.324727299958141e-05
18.441,1.3200898507636856,0.5270670898684804,-1.0503776138556393,1.7197913674596528,4.28272454131573e-05,1.6598164624496317,6.980758454844249e-05
18.451,1.3200760809071648,0.5185980177703149,-1.0586133916355216,1.719806170792335,1.1595886854287585e-05,1.6598105390865685,0.00015895126479748
18.461,1.3200966051673282,0.510522460188489,-1.0669809863203454,1.7194481393605159,0.0002910407740195353,1.6600120479891443,-4.303447245579406e-05
18.471,1.320192327888913,0.5022826951852215,-1.0755411041031522,1.7195711186999318,0.00036032122674711786,1.6598809755250867,-0.0003250202853806172
18.481,1.320110283257172,0.4935445547955952,-1.0833263090012526,1.7198920315950357,-1.8629157802152463e-05,1.6597456807866298,0.0003102371100140999
18.491,1.320047194192428,0.4850433711733251,-1.0913576378332035,1.7197882613417335,-0.0001743946684724662,1.6599006161207512,0.00025465656467371645
18.501,1.320097137152679,0.4769366136821658,-1.0996486911447505,1.7198964304006807,7.14429683235096e-06,1.659722368225899,0.0001105650244141998
18.511,1.3201010727552358,0.4688267542254314,-1.107856737902578,1.7197949795169727,6.375521780288551e-05,1.6598015288648336,5.4974581299660485e-05
18.521,1.3200989814279582,0.4604872267369329,-1.1159221063800153,1.7199158271372141,-0.00010478189595630738,1.6597746537456306,4.2246178746374596e-05
18.531,1.3200713698535544,0.45242130180721407,-1.1237573842588642,1.7198062139834143,4.118488217130789e-06,1.659855096536334,0.00025159862061041594
18.541,1.3200981942860226,0.44439171486465856,-1.1318330278977502,1.7198458526382225,3.0307949108632215e-05,1.6597751634011706,0.00010428950410101834
18.551,1.32009280807159,0.4363372382682913,-1.1398326946518385,1.7197697471042215,6.845432881874558e-06,1.6598644524272093,-1.580473311335595e-06
18.561,1.3201098092212753,0.4283899042151367,-1.147656513297287,1.7198384931348727,8.547333753483599e-05,1.6597905406254743,0.00012183813789512499
18.571,1.3201023948324107,0.42047847478738465,-1.1555453348689557,1.7197372308187262,9.814794165841079e-05,1.6598716087156333,4.274244956192774e-05
18.581,1.32011290463406,0.4125712794092786,-1.1633707099993842,1.7197938897603429,8.361876990914396e-05,1.659821135624708,8.533525248211049e-06
18.591,1.3201031656417692,0.4047109699817115,-1.1710620115647536,1.7197803368430247,8.350702909076801e-05,1.6598471035299074,8.896926295332008e-05
18.601,1.3200916273117738,0.39675483826812563,-1.1786983246291989,1.7198895166865178,-5.0142650388274035e-05,1.6597901476372092,0.00015039388223048178
18.611,1.3201012922793165,0.38902291761498287,-1.1864561903465614,1.7198784560389058,-5.1205455649849796e-05,1.6598024696590832,2.317792267003682e-05
18.621,1.3200643229442708,0.3812812429777077,-1.1937097128608158,1.719917584415576,-5.0865047752424175e-05,1.6597717785110184,0.0004560208522255138
18.631,1.3200872545255384,0.3737271645548903,-1.2014436050401205,1.719799006279434,-1.1275979282743265e-05,1.6598443882879366,6.384144930304814e-05
18.641,1.3201164512637948,0.3662670910755539,-1.2090482496973411,1.7198046672657163,0.00012050473507763115,1.6598301327306366,-2.6241692611783662e-05
18.651,1.3200798654287604,0.35851981129100974,-1.2162820833730787,1.7199415200397254,-5.173628686794274e-05,1.659775588272911,0.000290284829822518
18.661,1.320051221164717,0.3513181971577213,-1.2235420450255408,1.7196340693911232,0.0002386303270434098,1.6599684310409302,0.0002713613823610572
18.671,1.3201497805137965,0.3440142111876261,-1.2312444518782115,1.7198815123789757,0.00021093197830079902,1.6597354560772644,-9.597271296524212e-05
18.681,1.3201065029717665,0.33655770224891324,-1.2383562057413666,1.719730124767894,6.551054437142767e-05,1.6599464044694567,5.785770397270795e-05
18.691,1.320114543028268,0.32939971403334223,-1.2455711418495383,1.7197302037412925,0.0002519528326203613,1.6598999875528548,-1.3333757461708728e-05
18.701,1.3201040024409405,0.3221667767811658,-1.2526494118753941,1.719809091136975,0.00022849123792045845,1.6598184923455266,0.00015405244698918352
18.711,1.3200899517509823,0.3148658452970947,-1.259725059606854,1.7197805359644462,4.948124349457572e-05,1.6598893880645225,1.6086574805562748e-05
18.721,1.3200766725343565,0.30764786241440323,-1.2665285384087763,1.7198576745542056,4.094611562521777e-05,1.6598547188763577,0.0002522396079509548
18.731,1.3200831017680272,0.3009275096443682,-1.2735168173498668,1.7197252559753196,0.00036158825362342384,1.6599013208498752,0.00020154194219479393
18.741,1.3201231927753811,0.2938944791219944,-1.2807068356292088,1.7198887183981295,0.00012291887987370131,1.6597912341479093,-0.00011559511934677857
18.751,1.3200767449846085,0.2868698858003542,-1.287188537691156,1.7197967893730723,9.255161498522568e-06,1.6599252001770344,0.00020345476031558007
18.761,1.3200949514628464,0.2800984268873039,-1.2939499322850665,1.7198872337733526,9.14700973204674e-05,1.6598188977941772,0.00016907003936506015
18.771,1.3200932441791702,0.2734607743357751,-1.3008145820702985,1.71979564047502,0.00016783274916232216,1.6598932018514168,-5.420723491145196e-05
18.781,1.320106974701143,0.2668574805778592,-1.307557382671309,1.7198219107240469,0.00021240034936731433,1.6598720931704003,-0.00017227702177002868
18.791,1.3200565845133472,0.2599164773370104,-1.3135351182878185,1.719946661391429,-7.11605105703228e-05,1.6597999181711822,0.0005235483522669782
18.801,1.320066961362703,0.25343115289386464,-1.3200406581151203,1.719903191424276,-7.677951295370633e-05,1.6598447463839774,0.000331911158403031
18.811,1.3200924920494996,0.24716164836015242,-1.326604196234431,1.7198615569497768,6.409196401957473e-05,1.6598608024271657,6.24449896449164e-05
