marzuk-umich/fetch_joint_controls/test/actual_all_joints_accln.csv
Time,Joint_0,Joint_1,Joint_2,Joint_3,Joint_4,Joint_5,Joint_6
12.151,0.014317749607721615,-0.05064668494382146,0.018444011752675488,0.09540800342455898,-0.011807364080020958,-0.06349039389996768,0.01308362365288877
12.161,-0.008637671137121572,0.07089009871755293,-0.033601621270995564,-0.21849166347489332,0.012632847941470512,0.17136763247831985,-0.03186811353753073
12.171,0.024135612611541776,-0.11122136301692473,0.07502460626748862,0.42058435855677967,-0.037268650420163967,-0.37237483221405726,0.052062713835176806
12.181,-0.020434545510947574,0.0413144199608521,-0.060021930855511975,-0.11937885958485642,0.019924038133313598,0.08267550913423517,-0.040449858503231975
12.191,-0.013059779247537382,0.055019916309146676,0.0005845958725897272,-0.17843005713937443,0.018754783099424948,0.16929518014353206,0.009762025585166296
12.201,0.022454530668511167,-0.061007621148812134,0.021757020771662746,0.10072244172020584,-0.014542869511569249,-0.04866899186610145,0.01167272674910056
12.211,-0.001110381918919285,0.0847885077435922,-0.02303387764348616,-0.3730689679535179,0.007357058914176617,0.27209653164169095,-0.03849465934846158
12.221,-0.02151023701465766,-0.09857377739655758,0.011239703456716741,0.4714949999410372,0.002874592844944454,-0.29452476021099017,0.051961113240629915
12.231,0.013667988040446482,0.0025283569324563585,0.004229979915337782,0.37135308767491876,-0.03469275835988625,-0.47856773049159657,-0.02853726674574321
12.241,0.008492731052154633,-0.038955831167639586,0.02036970142973642,-0.31369510540703915,0.013916104819155485,0.374411127320989,0.02642200924874126
12.251,-0.0313794737854764,0.13775387850030035,-0.05533766169701846,-0.343345939846348,0.027632134218993284,0.22344526730445893,-0.03806624832837032
12.261,0.03891824911506089,-0.09391245109711578,0.04860167116625926,0.25727973905688467,-0.01556055875651354,-0.16242643751757796,0.023175303485614942
12.271,-0.025322771725993738,0.08867015580618093,-0.022586504635980196,-0.5605933717468153,0.009533890043595235,0.5058061069811783,-0.007809384917978999
12.281,0.038340089740873926,-0.10014757660427662,0.009524652285329682,0.7149560223087917,-0.02031676587672554,-0.6964640104972486,-0.021723229798629142
12.291,-0.050926951638179965,0.1019022885562384,-0.017321405964276764,-0.4103722042522924,0.02739301619413421,0.39577457327510696,0.03106162313197129
12.301,0.03121123837080616,-0.09600699621055103,0.02327655296449288,0.2399966784364895,-0.023656959998831363,-0.18693614217438925,-0.0008827379358723269
12.311,-0.02789924857190511,0.07524637936399288,-0.01952317126913147,-0.46094342223289575,0.01629936073256408,0.4334160186454324,-0.006281928427725869
12.321,0.044362444830722415,-0.055621785679540424,0.010381133571941628,0.549247363797851,-0.011512808539766047,-0.5934020832711001,-0.023514008825158788
12.331,-0.03831470120768659,0.05247414117978688,-0.008823253429714347,-0.2739000262163299,0.015336196940488196,0.3038959388318199,0.027907167088956443
12.341,0.027304009173741938,-0.05863903420877209,0.018961350065034,0.29513529991756426,-0.02707768007432504,-0.2910377733947881,-0.009937586151423749
12.351,-0.004096812787172833,-0.04438287401549833,-0.0014600681448456063,0.01117882625274114,-0.0006339946373922445,0.043177256534667606,0.009366320583112618
12.361,-0.03950441148680708,0.13364729379717483,-0.03555512994132191,-0.3560677291552703,0.03297533455456334,0.2497811949930495,-0.00837082213061073
12.371,0.04388794674461034,-0.09938421319270868,0.04396083627635365,0.24361961249727368,-0.02022097270887482,-0.15784359452282293,0.015008149990008084
12.381,-0.009311679121942038,0.09582026001045395,-0.031795863831428704,-0.4821573247899998,0.007414821080027801,0.3800871902256202,-0.038392699300203635
12.391,-0.016972388202803054,-0.10340602926509365,0.011909146629154146,0.5297375543415523,0.0021233337084932634,-0.3558747369766031,0.04538079955453488
12.401,-0.004351505539956959,0.04118769543223566,-0.012161994571106942,-0.1470371193098734,-0.006867413962447817,0.037658832422508504,-0.018038236989409977
12.411,0.01222031493894183,0.02319768258530547,0.003690281573043232,-0.0027767171072419104,0.008111734114673325,-0.019591499043365424,-0.012649861834314925
12.421,0.01041548691837552,-0.037431347152005245,0.019720639971011884,0.007518845845956904,-0.0077125472335243155,0.04826041340924877,0.0217258982200926
12.431000000000001,-0.024256254930581114,0.009031974671230764,-0.04736761555272705,0.2912255690639927,0.002335079506092276,-0.26297294760359946,-0.027786796745189423
12.441,0.0206953615305766,0.08255146122517917,0.049221903048506585,-1.0843926098552485,0.021385794441570218,0.9719014753841008,0.02867485728952933
12.451,-0.0010473057290365268,-0.10724393357962995,-0.013651184727372926,0.8473287547651424,-0.031255453308345324,-0.776479782867058,-0.013499829495873526
12.461,-0.011893370412532035,0.0761696751545191,-0.01896890277638644,-0.10738912821544258,0.01875784784196996,0.044266374333374645,-0.017228157678689134
12.471,0.01949178138757031,-0.06504099145246602,0.038552271642797974,0.0781695792881108,-0.010209120489743729,-0.0036487977252825593,0.037017636810721746
12.481,-0.018316522835054742,0.08762065491642501,-0.0289330103256043,-0.657068180609102,0.01242969236557512,0.5927663412428884,-0.027691599524702
12.491,0.018649472473381227,-0.14087410261832303,0.03465577368812931,0.7680441986618648,-0.02695230641158356,-0.6691546602013793,0.028890876455785194
12.501,-0.02877344809413828,0.14713390470394438,-0.055793521431582394,-0.2609120771146144,0.02899168333141944,0.12027709419665468,-0.04074705090951434
12.511,0.033658607430186074,-0.10398206716618684,0.05279727511122176,0.2034422555740225,-0.016987438172788617,-0.0911289938188729,0.03489165753242467
12.521,-0.06546594859269371,0.017982164673474882,-0.0754268438625998,0.16255465217713055,0.01606555724716259,-0.04514151805899139,-0.009527217596550789
12.531,0.06111342198305101,-0.0735188883043881,0.07117878161101508,0.0420250493108828,-0.03359410443835137,-0.14292675503937152,0.006604142555652215
12.541,-0.041355297979043325,0.17698313407331082,-0.047384603817670304,-0.4789584958662456,0.04207938731139922,0.3540434010634196,-0.019122766541391285
12.551,0.05241868302764041,-0.1423061536676676,0.05626805329908277,0.31426897068750864,-0.02985079465861088,-0.19148588938972444,0.022598270722704684
12.561,-0.01899371310677437,0.11648540615500437,-0.04246676220826849,-0.5402297359832744,0.012263071667463552,0.4262249894353317,-0.042375716840208646
12.571,-0.01405583274784179,-0.11959229126389112,0.016635024044014207,0.7025060106111818,-0.0004943623054229568,-0.5234417699427817,0.05133564300264644
12.581,0.0021865586343542067,0.07156788834526542,-0.019333289142071847,-0.26306896058052015,-0.0045846254045889615,0.1109798850170888,-0.03478931335076487
12.591,0.003944771105018131,-0.01072770783679644,0.019846138733192093,-0.023621806322044726,0.0040193975813616,0.06784145694540467,0.015762406980020644
12.601,0.013995723992795818,-0.05281779379640601,0.036494447209688294,0.1972429053908236,-0.027081088277301046,-0.1642772914983054,0.022653202243819302
12.611,-0.00862636458660246,0.02458716741499378,-0.04886991348418653,-0.2581146836211703,0.022327798746010565,0.26399989174851923,-0.03830226419163757
12.621,-0.037757692133221096,0.06100593765855296,-0.018338539254326228,0.0010839916978178852,0.023185215234289642,-0.015143577901182063,0.017292209967704048
12.631,0.06436548286513251,-0.12310616080841673,0.06632970605824692,0.6957355892334881,-0.057959425108093245,-0.7034048930860656,0.0038749006054410247
12.641,-0.028898421993809483,0.013949622657147963,-0.026820350830843182,-0.5067693087682248,0.02085788356466249,0.5517842158948422,0.004046393896759558
12.651,-0.01952820984121024,0.13406053796176653,-0.036587026174132564,-0.23744243013083788,0.031479047007904125,0.10271331858338004,-0.028815040828595404
12.661,0.03769280170814448,-0.09119122220283489,0.049737231439533604,0.19511279963072592,-0.01610983594188282,-0.08699151371151023,0.031067895755563072
12.671,-0.020563619452860366,-0.009974274590483362,-0.008639840117248209,0.16736812912271493,-0.028397239663229195,-0.15574613570521365,-0.006766197892144201
12.681000000000001,0.03794196053659764,0.011707600421367653,0.01068596392031573,-0.2595402864320382,0.013786874916224752,0.17711922288409213,-0.017770352889511492
12.691,-0.040645788612782015,0.06992051273777071,-0.03891849135195898,-0.01701961460287045,0.02281495559158682,-0.0010285585800677,0.0011656191205959272
12.701,0.021692111338505685,0.005915494491867951,0.02531597808610837,-0.35050758867977894,-4.202410178294006e-05,0.3302121799893197,0.0037707531055476743
12.711,-0.008470743446073336,-0.0983653984118668,-0.0017165604156569516,0.31590961331832,-0.0157264237401315,-0.17927441151055185,0.017750132423269917
12.721,-0.022098588659908627,0.07040225768425405,-0.0343163299254677,0.09461173561370124,0.010636695272356214,-0.210845331915057,-0.030352822647880914
12.731,0.01245031093222903,-0.006113352354189771,0.03463163779901435,-0.052051538061740385,0.007018221485277078,0.09171385188838603,0.03390903121662474
12.741,0.006153798430244947,-0.04460874050514353,-0.010368409829682896,0.026483358028833573,-0.01902203659273979,0.01993415322145427,-0.01735805980909034
12.751,-0.018021870819629457,0.1023097640314404,-0.02991648366976348,-0.33860938735534174,0.02640446661259969,0.2919448590527183,-0.020346304483784234
12.761,0.04107858553546694,-0.14034481956056752,0.05796574549544269,0.5661625804417296,-0.03059813760688904,-0.5238662861577945,0.03511688436829343
12.771,-0.054892607126503686,0.12592550838485123,-0.06047021765383559,-0.3877178783020218,0.02445861244483691,0.31596429246977026,-0.02834773696847162
12.781,0.04281748518009949,-0.09476454815370794,0.05303481370317986,0.24486726196346903,-0.015603105027528546,-0.17541994529657384,0.026440359883190427
12.791,-0.008153023063725498,0.03274234407422516,-0.02019709783678561,0.16376779743079342,-0.011875293879172195,-0.19728637078987324,-0.024780091974246878
12.801,0.027595837969204083,-0.07871420319367639,0.03842854130432352,0.14258194927435883,-0.013614377579110302,-0.11219968321030012,0.021970426099441734
12.811,-0.045222631996720886,0.07218152304206688,-0.035546121442321964,-0.13607082131357875,0.015327970237877452,0.10402954910768143,-0.0007712687216464506
12.821,0.020946851892958546,0.004105362031920138,-0.002344033147182703,-0.31243091646262927,0.01805505061622781,0.3180039561550285,-0.011290724113476414
12.831,0.005209386739943734,-0.02101931417375227,0.029980098907031242,0.12040494821824183,-0.02592662575238606,-0.1564086244310565,0.00990400292067945
12.841,-0.020130794913383813,0.009284211258906163,-0.028946415181967257,-0.06393821021150861,0.01904301765032193,0.11060681392351095,-0.0017098533776746196
12.851,0.005235023938878346,0.03918398257240415,-0.011473663994046613,-0.024589332040359846,0.009624169871653905,-0.012860617941013066,-0.018764098054820082
12.861,0.005087734220042325,-0.03138721436789459,0.016468535588344227,0.03336413552554909,-0.00583490104419441,0.02063320360438305,0.01806799660729069
12.871,-0.004677740141540012,-0.039863597948552945,-0.005548288784563371,0.48817103353154223,-0.02201697090663781,-0.4556075801834163,-0.004397978755328484
12.881,-0.024755254784446398,0.049361498883569985,-0.0007359234914438531,-0.7106696902487007,0.029513986506158198,0.7430996155426317,0.029703976673045442
12.891,0.019054054373672535,-0.029336511511092112,-0.0036283962372101203,0.2956315340486263,-0.017177693832906814,-0.3707743141727139,-0.028167811326665747
12.901,-0.0027848386532585813,0.06610492036235262,-0.010036169637356372,-0.14354143009203707,0.018751785996091366,0.0948390385516843,-0.013726686075856098
12.911,0.019570198370895034,-0.05897825215262671,0.02775843397531179,0.08261411651900889,-0.010963028007624897,-0.027945765428674527,0.02231520646322641
12.921,-0.002108243435807494,0.0806394365981315,-0.023659739551011277,-0.4214313646027612,0.007088377861913354,0.31977125370395243,-0.03658097628436654
12.931000000000001,0.0011764611258956478,-0.08413048654663878,0.02392135590140983,0.35956002513585406,-0.0063098683290956055,-0.2512242276086463,0.041912471825223424
12.941,-0.023234107048107393,0.030433976844202175,-0.030726616437937036,0.06358619702805786,-0.0006686365040810693,-0.12256403393898892,-0.020846175705493023
12.951,0.004877702851957361,0.005956820570630086,0.014535278330936405,-0.046136068510915215,0.007138774550581753,0.0668989269088203,0.0089359106923159
12.961,0.013082689149007277,-0.0300741251478974,0.007403432127317517,0.02394307658103696,-0.009015523896340211,0.010888054432727574,0.0017001847974423398
12.971,0.004842242060147413,0.01052450262237535,-0.004150038686921337,0.32209862110065207,-0.01519885075792638,-0.3566552414621924,-0.02331482537992906
12.981,0.025666641292293995,-0.02020724026004721,0.036502067720235,-0.3824973764536279,0.006620491982841152,0.37471691140351415,0.02899731480603692
12.991,-0.047672249973900245,0.04436419839530422,-0.059649701391084005,0.06831888163078366,0.01107703401517262,-0.083648395255545,-0.024682901654852242
13.001,0.005993059116706,-0.008307828251635722,0.02531215233051844,-0.020548046830019713,0.006321226533297302,0.052904629927376996,0.023259367358186622
13.011,0.008587437408394632,-0.02415236928386099,-0.0011528994206878218,0.008534477447153835,-0.008780330211595147,0.018377955690641344,-0.005441102644185225
13.021,-0.016449975600936917,0.09074328587783954,-0.03386639859594876,-0.3245193894770624,0.021191270371107004,0.2886277570852822,-0.02582025672814647
13.031,0.04165407600280943,-0.10879595611397791,0.05317240742819339,0.34566458137815925,-0.025590713572317247,-0.3247807095896116,0.022983677865024088
13.041,-0.03658118935903537,0.07078755168857773,-0.04608292923823131,-0.05974714015566112,0.012623015074042941,-0.0003587353578700728,-0.022892376185297422
13.051,0.010677048154476518,-0.04492272144406738,0.03563145999977633,0.054870606675305106,-0.0028070512726268773,0.004024957562571174,0.03494345567152647
13.061,-0.0047214964390909775,-0.0029658373252048086,-0.015981244414208486,-0.03063671525319103,-0.005740845310546748,0.04260694148287437,-0.01372075803282428
13.071,-0.0012901603845843948,0.12616780180364218,-0.004317617324772398,-0.9009378954652849,0.032533860608956126,0.7898729483426931,-0.012868164389862803
13.081,0.024824847763846344,-0.15190216857902822,0.024679226683124056,0.9631876981360105,-0.03686280396530366,-0.8526036185134951,0.014485600888730108
13.091,-0.028511885063242877,0.07752709252838863,-0.04028970940674919,-0.09844522133193548,0.014606444611856952,0.028595287790298348,-0.025853973830951806
13.101,0.0135506223189142,-0.05233486016146649,0.03921040022719177,0.07291732716136383,-0.0051098081309604824,-0.010224185683052481,0.0393604242461801
13.111,-0.0103087672265613,0.003281732989828953,-0.022346878534272155,-0.03890372182942586,-0.005588357901706981,0.04618149377662989,-0.017702988806110074
13.121,0.010964202068799691,0.008998370962853336,0.03842786268239969,-0.057207305881161546,-0.011022163756630345,0.01651219034983643,0.01511701958592533
13.131,0.006132984043858227,-0.03746418000735016,-0.020261630494624552,0.14267728820607176,0.006613987885123712,-0.10108776432117784,-0.009566060558450159
13.141,-0.02016654577404475,0.07910848527631473,-0.03336839915077234,-0.12762503976220854,0.01646904250507645,0.05941248378848428,-0.02632519580914477
13.151,0.01691622348990634,-0.05851425408707846,0.040018663965352336,0.08439765341030023,-0.008399377621789272,-0.021724782386497176,0.03829724989400614
13.161,-0.006381540217299653,0.08576592292484152,-0.0272479720575986,-0.7414472508521541,0.017596929086097304,0.6501696726704368,-0.03159513827617164
13.171,-0.003230758642488325,-0.10929003150957557,0.004536042025589973,1.0714131592425777,-0.022525394250480432,-0.9572108980234221,0.011041769664744124
13.181,0.023480758683750592,0.03530849476074789,0.051416861187739346,-0.6323224176994665,-0.008538558432413175,0.5083966925205244,0.019785212987786936
13.191,0.0026632872730320543,0.12264002230862067,-0.04942566304500597,-0.9051269039204034,0.04433831217402154,0.7568248870418443,-0.06081393654908333
13.201,-0.013194122104173894,-0.1935211551697391,0.03606104948613186,1.518010977140015,-0.04811462977686278,-1.2883515071652885,0.05820124619337451
13.211,-0.033131247286866713,0.02354796402050053,-0.033712125543344684,-0.10092973910170243,0.014618161906738333,0.13038200420662907,0.00697623072791373
13.221,-0.007689533910163467,0.018771684495171123,-0.008758896496297387,-0.07527778841435831,0.004748701644712631,0.09115685917185164,-0.017630953371988316
13.231,0.05360335571238954,0.243267257980579,0.023134096364188502,-1.964378212602883,0.053574083183706905,1.6821517472585847,-0.03965386129390516
13.241,-0.016744797765152954,0.36668263301660625,-0.06852479117759151,-1.4671672155045148,0.07762257908141432,1.3766384730637955,-0.07474581696582643
13.251,0.4454995778602157,-0.9437752339252281,0.1433625585490876,5.932125200915384,-0.2705012358240097,-5.9994027172506,-0.21262658057901454
13.261,-0.6040419449965346,0.6589380093734778,-0.1451612426941622,-3.105866385033569,0.19518033037582683,3.2003994515994667,0.41134616284276115
13.271,0.19807428304558028,-0.261247878030663,0.06932019723304855,1.2390945880721893,-0.0659243473964009,-1.2748761058621128,-0.09861671731169235
13.281,-0.0365035147513703,-0.8014360304015301,0.0641122800406618,3.435170190402113,-0.1909982979846412,-2.4755838626394056,0.1289219655152183
13.291,-0.48199491747354933,0.44329662069173364,-0.09388919808530047,-3.045199793598805,0.17235187046323058,3.1535042135575617,0.3069810833433218
13.301,0.28452866809720967,0.2764284323419352,0.04302348236452361,-1.306002646406007,0.05448777991556615,0.7889921684939344,-0.28913617872583813
13.311,0.23354501468243202,0.37713990256214397,0.007720249030316431,-3.6242169222609797,0.07918611471409015,3.355231143630356,-0.2192794050268967
13.321,0.1788263625812418,0.18960393392064676,-0.09262505054213745,1.0966457108772745,0.0025085636200993674,-1.642809686093299,-0.26534563870240935
13.331,0.15180726826163018,-0.34465948441253136,0.08546534668497363,3.430067989838926,-0.10858885518805299,-3.4342921897578575,0.022490423436890727
13.341,-0.35030695774594367,-0.4996737631805882,0.030137867731977904,1.9901368647404578,-0.11087870840675275,-1.3256494095647007,0.43613585879845346
13.351,-0.3433921279939292,-0.062352666070616056,-0.0014222675368040884,-2.11122132929781,0.030565490999671617,2.518231752415644,0.2654774781006994
13.361,0.19286082367854612,0.5938681851724131,-0.1627955039057638,-0.7483668852416816,0.11439712057628054,-0.037429202875014306,-0.44594441291321335
13.371,0.20435075494642196,-0.43161399926184424,0.273564196613069,0.5168192036266446,-0.05653513200943268,0.19766188008841462,0.1911198304555377
13.381,-0.08132465500439057,0.4894416157731124,-0.2629902174439829,-2.142637311464224,0.0514928199591895,1.5141055795761043,-0.26093605060593095
13.391,0.03506699355330131,-0.3407230377410357,0.19229495999702328,1.9119176350083789,-0.04516669963441431,-1.5131071851815165,0.19383283986313873
13.401,-0.10352901870976987,0.06787473718259956,-0.09460888032542553,-0.7861122425130024,0.028870393603975378,0.7759995250859928,0.02999948148240695
13.411,0.0964169007057905,0.046113208746696895,-0.0862691919414852,1.043990654524318,-0.015307837780283877,-1.3713837048933377,-0.22718593520356906
13.421,-0.019553395284912106,-0.07083137216134748,0.12556230059616086,-0.007195358174080337,0.016644687353527986,0.2794903899761084,0.20546382661988752
13.431000000000001,-0.01993417035211278,-0.11263681538863102,-0.018636117019348978,-0.5666322932334383,-0.04598561353824556,0.5703317399954305,-0.005678077428701645
13.441,-0.12043621583118524,0.22642296988994254,-0.10079968710270573,-0.2239310618157801,0.0587784972474565,0.21956533306626927,-0.033483561000665865
13.451,0.24560126548185518,-0.13959094185920257,0.15759939905550646,0.6524913434422827,-0.04899736977108753,-0.9045801474088649,-0.04418706311428913
13.461,-0.11959138072819264,0.14226837742354198,-0.12008897122734381,-0.5414253167643079,0.03327877380731006,0.6487887293833963,-0.011136061791125694
13.471,0.03256274779402165,0.02598222407464914,0.06966053729369769,-0.9148163622659515,0.007240554624109263,0.8362661012877582,0.02794262349323281
13.481,0.021848695975860748,-0.09448228503589744,-0.023941745829135573,1.1008522997049952,-0.026281582168685216,-1.0464052467603497,-0.03933020290526757
13.491,-0.04203230556348215,0.014409337669426314,-0.026328145706708,0.30846426499555685,0.012457496464724375,-0.28685679774730244,0.01804617401244283
13.501,-0.026048406657966153,0.037221971036940915,0.014744275625822763,-0.44373451560131194,0.011973022178325889,0.5292873857442444,0.05108449348290388
13.511,0.023215482124268712,-0.07322036788365285,-0.0030110503258027185,0.6249201777710688,-0.03834236596619574,-0.5223214493224271,-0.02902104805625449
13.521,-0.03253875590864182,0.1282825404166383,-0.03167972895755293,-0.40354114055804646,0.03709993994478343,0.45717115225844784,0.006712945864193293
13.531,0.043981511608895116,-0.06491366151292308,0.03298654724332383,-0.05828698790918811,-0.017886597498359833,0.09567000650091956,0.013141289190104285
13.541,-0.017294400463015096,0.005696297375287178,-0.028889871318636746,0.14931484922237687,-0.013072873356907003,-0.22603834516688645,-0.02616672416762174
13.551,0.002326128830115899,-0.03183463837994161,0.009691504926786842,0.01899898419327834,0.016472224777564746,-0.06174051283867935,0.023992430784051635
13.561,-0.003628040332855076,0.00014795906915255404,-0.012489478135488853,-0.34128237781479986,0.005526977613376468,0.24714814567173662,-0.008830142337356022
13.571,0.009748830617857617,-0.0639263476509609,0.01407447131658968,0.2940081611913737,-0.018202482978154202,-0.35681046262253496,-0.004027178825558159
13.581,-0.00992106409330302,0.005820665731632657,-0.010521319631924951,-0.06508536435257174,0.017904731297836395,0.04223038293074811,0.006613942180030985
13.591,0.0018512187735521617,0.016197992052801157,-0.0010559039724362688,-0.25811380767694947,0.0026958035206693003,0.22388976852220827,-0.0070130397551742525
13.601,0.008481843999274772,-0.030561256759127912,0.01965363193630293,0.29296373199146425,-0.018464529203053682,-0.2755565155271235,0.004051952763647949
13.611,-0.011053609540752886,0.021012445655472327,-0.012311224734911483,-0.011382741763149924,0.012377055730064253,0.06568336865574442,0.00023504557932609106
13.621,0.0009452220456864496,0.03909606117534217,0.0030265278212761983,-0.2512803205085981,0.0045177779736182595,0.2615175335643563,-0.003912132659499962
13.631,0.009737129913170264,-0.02638698521311895,0.023237776732486816,0.30992937736483617,-0.01852055153555113,-0.27219288752624826,0.005628355017591534
13.641,-0.012565029837423936,0.018255472813364534,-0.013755465849268131,-0.01981039581797836,0.011808716316940294,0.06675936468004855,-0.0031186889569126065
13.651,0.002004444781647693,0.02936249463600983,0.006233039939307109,-0.2605166128124784,0.005395637201405591,0.24198652265089468,-0.002435517473906179
13.661,0.009692583056813288,-0.03778308279772995,0.023118913440482676,0.291555731478797,-0.01792110928542468,-0.29249833108548284,0.0049714616491544255
13.671,-0.012417101325784333,0.005380080354909094,-0.014175346521483072,-0.03424802085273195,0.011956767998927347,0.0455417555081088,-0.004277441190612154
13.681000000000001,0.0023998930023631224,0.020772437350644463,0.00613727281262073,-0.27282289473244015,0.006413299489469064,0.2274201540603631,-0.0019703458100998115
13.691,0.009728989521588897,-0.04194146650526583,0.02147921428745367,0.28639453664979336,-0.017285367461735222,-0.30062231314775617,0.004545974425638446
13.701,-0.012415441006176635,0.005554461318656367,-0.01603170688981722,-0.0340804434061772,0.012156805719209221,0.04648081882534957,-0.00427777042789945
13.711,0.002536846427981692,0.024559837592133617,0.004187298112647749,-0.26762897869625096,0.0062147022963574775,0.23398751171427512,-0.001419806230304548
13.721,0.009695553643523107,-0.03602223675531711,0.018881804366422072,0.29387484710965683,-0.017795054008374948,-0.2907825579430865,0.004792397462572354
13.731,-0.012406068523770524,0.011457055971755052,-0.018463802409409466,-0.026234368338551736,0.01164281027124348,0.05670165743621415,-0.003695232469028096
13.741,0.002613445026482102,0.029269794171302887,0.0018146869031179815,-0.26153852849121345,0.005802442497574344,0.24217240549199884,-0.0007912952707685428
13.751,0.009710373931237607,-0.033395626129654764,0.016296776214884297,0.29736917266598295,-0.018025889341261744,-0.28632781939866925,0.004986772701958522
13.761,-0.01231868204264068,0.011819946637349055,-0.02071520460190419,-0.025754835475280437,0.011613657588556849,0.0574041601082543,-0.0034675412770662118
13.771,0.0027758862026541755,0.027796463796737277,-0.0003400848035683436,-0.26348669501364663,0.005926806299106909,0.23962178041019142,-0.0008600671392671015
13.781,0.009793183506865822,-0.03605083522118927,0.014566397483086965,0.2939526788326733,-0.017822769378594894,-0.29082052217120696,0.004981651412643287
13.791,-0.012148460810700057,0.008925116028816038,-0.02204335792655725,-0.02955838748270243,0.01184426614118728,0.05240816924749005,-0.0034562766152084535
13.801,0.0027687441073797345,0.025357077447842727,-0.0014091322197162589,-0.2667132566225602,0.006118477909289061,0.2353868196318649,-0.0009112360845756664
13.811,0.009887811610185579,-0.0376167038675442,0.014033770576870061,0.29196846297143203,-0.017683544335538023,-0.29345662414700874,0.0050420817065560085
13.821,-0.012144717112964555,0.008494741841061726,-0.022331615844165428,-0.030146661185225337,0.011886903576105015,0.05163056950528454,-0.0034796257232326336
13.831,0.0027315597402318005,0.025899240417922798,-0.0013333137515088023,-0.26606243112805866,0.00609215019106693,0.23627629912536938,-0.0009344962869167892
13.841,0.00986102682524549,-0.03649624248438169,0.014508404220959576,0.29351300244526735,-0.017759244228933553,-0.29147542844723456,0.0050727244755512015
13.851,-0.012226981031412251,0.009901337652268982,-0.02160466019012325,-0.028326861298961913,0.011781485687764721,0.054027337053093295,-0.0035014635924586553
13.861,0.0026610561481225444,0.027188105392067893,-0.0003050409998768826,-0.26444063136960066,0.005985108074997228,0.23844660337280574,-0.0009638675950411787
13.871,0.009852011628993329,-0.03565965952595833,0.015736872090376844,0.2946597647832583,-0.017850529931866067,-0.29000297676824527,0.004945641536936259
13.881,-0.012366141743857192,0.010243060360071023,-0.020226225890527184,-0.027874969062787032,0.011739326930570539,0.054631008933535376,-0.0036016678822746594
13.891,0.0025506659805907424,0.02706947871865037,0.0011967980680221302,-0.26464244558412436,0.005988522901825179,0.23819695128049526,-0.001057579860098618
13.901,0.009744675537115681,-0.036190237000317683,0.017275411439681698,0.2940374097300568,-0.017810482839972712,-0.29085581128949684,0.004803192027537913
13.911,-0.012274926409548064,0.00960728573136437,-0.01859473754294686,-0.02875041707507958,0.01178923406665768,0.05351594535419225,-0.0037295822031279333
13.921,0.0024290111549025257,0.026469472452774118,0.0024204797734281736,-0.26548312707371985,0.00599717311170173,0.2370935241056325,-0.0014192289835813336
13.931000000000001,0.009767750346417645,-0.03670465544883674,0.018871832217403624,0.2934419493131477,-0.01774278227979902,-0.2916327010067726,0.0049393423057251815
13.941,-0.012443470314829359,0.00940202667664662,-0.0176868109846411,-0.029042702195337684,0.011773742929835957,0.05308252749405334,-0.003974190361295433
13.951,0.0024736781053819245,0.026502051552673333,0.0035932765223642645,-0.26549906091198316,0.006037594015531848,0.23714623277680424,-0.0013253822049511086
13.961,0.009749445768980796,-0.036522865472559514,0.019478169829917086,0.29374177441176674,-0.017790162925967183,-0.2913103949149194,0.004816520813473218
13.971,-0.01248128744062484,0.009706395033168128,-0.017175904110576228,-0.02865308783962305,0.01175347795602693,0.05362266150436059,-0.003960253511402433
13.981,0.0024634165070515843,0.026845777598699994,0.0038103523653302764,-0.26510454399471006,0.006017277480594375,0.23768309700106519,-0.001286779340756266
13.991,0.009726858542302097,-0.03630641783621673,0.019377033914152516,0.29409090880716626,-0.017824416796950206,-0.29088805973703447,0.004726197793366719
14.001,-0.012448658264411789,0.009843864220200404,-0.01737351334217706,-0.0284727333397046,0.01175836914521325,0.05387562010685006,-0.0038910689443567383
14.011,0.002470821965380242,0.026898324890394072,0.0033505691642487065,-0.265098351770991,0.006023294526593573,0.23771292258473625,-0.0012481595951707876
14.021,0.009775338548382848,-0.03641693611360981,0.018734785354961567,0.29401184649020246,-0.017831229259651887,-0.29102638256771124,0.004712060006048297
14.031,-0.012408221869472326,0.009699346724244025,-0.01795689904688434,-0.02865682412604553,0.01180945361484159,0.05365087337137919,-0.0036216810772874983
14.041,0.0025484470334770984,0.026796277993494457,0.0023410616338471134,-0.26532272838460663,0.0059856080061472675,0.23743106270401043,-0.0013647371430186188
14.051,0.009680667145828223,-0.03662046263445195,0.017949956022736285,0.2938760126093516,-0.017791472140272456,-0.2912413211635657,0.005017863722540151
14.061,-0.01218754301836551,0.009659314429993265,-0.01898858232761615,-0.02877998952348254,0.01179324607213665,0.053512705883690885,-0.003700629764954956
14.071,0.002380216510451692,0.026768176283661314,0.0013168873803253765,-0.2653609005974998,0.00599898571567281,0.23738349857066338,-0.001272376680002302
14.081,0.00998238354516254,-0.036601435429321545,0.017109849045636786,0.29391867641177777,-0.01777174834342154,-0.29118021183971526,0.005026042943228487
14.091,-0.012350275088790375,0.00970881202343931,-0.020025844454742325,-0.02868933385949478,0.011774544022221613,0.053601135947356715,-0.0037617331858001294
14.101,0.00257163926621777,0.026873112170795722,0.0007405753345804961,-0.2652974930739738,0.0060301929922154385,0.23753226339859335,-0.001136722018636224
14.111,0.009943522960877442,-0.03656951740823095,0.016513092213152676,0.2940359158171412,-0.01778211237571514,-0.29108513415905324,0.005135694976616205
14.121,-0.012361312607807104,0.009759570008284433,-0.02046384774248142,-0.02863530576006381,0.011759537742309228,0.05368204073881786,-0.003649952565031239
14.131,0.002536781704832027,0.026913364458271055,0.00037674082769376745,-0.2652906743729223,0.006031027316549351,0.237559640379065,-0.0011259700670571981
14.141,0.009980657609267845,-0.036603108964476,0.016256740406400363,0.29404799945514576,-0.017808431998873,-0.2911019390863863,0.0050155722728549255
14.151,-0.012350449893454029,0.009730085466204387,-0.02043724093877704,-0.02867234524958876,0.01179163487819974,0.0536522545284326,-0.0036235178291661066
14.161,0.0025300860472427062,0.026909282676354375,0.0005602708821757815,-0.2653545252092534,0.006061592772301296,0.23749666746425072,-0.0010373502087219965
14.171,0.009906913751694111,-0.03666444559926826,0.016357976440239473,0.294030215149532,-0.017847254113554686,-0.2911761167164602,0.004848964219521525
14.181,-0.012319117090205372,0.009699384154749434,-0.020015448099208206,-0.028710900400203576,0.011799036499858362,0.05363215026363372,-0.003651417288822766
14.191,0.002564457839117736,0.026938673700460956,0.0011130552802842706,-0.2653939839587121,0.006066335526771268,0.23747175666912654,-0.0009689179338227693
14.201,0.009861109977385244,-0.036692701408761005,0.016925461928015202,0.2940539249013219,-0.017847897514375693,-0.2911845339926398,0.0048584437222956925
14.211,-0.012372279031778599,0.009711217696271325,-0.019463179653954762,-0.028696875559073572,0.011778798817062182,0.053656838030074656,-0.0036700944809027075
14.221,0.002509841519586272,0.026990496602246023,0.0014766387001409113,-0.265392590188264,0.006038540496337384,0.2374958533925341,-0.0012759164673418423
14.231,0.009834525973769579,-0.03672872706237439,0.017644383628609192,0.29410166400251886,-0.017805087724184532,-0.2911491654429196,0.004923686077610037
14.241,-0.012311920207853388,0.009749888081739488,-0.018837701017435857,-0.028688574870900107,0.011794091828150624,0.05367901834787689,-0.0036756661502954516
14.251,0.0024128295825412965,0.027021329427457993,0.0019038349248926589,-0.26539856196355344,0.006003623733161871,0.23750047268226324,-0.0014127219944745912
14.261,0.009859420491539426,-0.036763112236212266,0.01820173415663734,0.29412357445924053,-0.017794083678431778,-0.2911314770308007,0.004971745978429799
14.271,-0.012459696641774376,0.009752163556830751,-0.01859770712323959,-0.02868906880959076,0.01176777720965203,0.053645527346092854,-0.003800297553550405
14.281,0.0025284971506684753,0.02703891886472155,0.00239959164531742,-0.26543910160482836,0.006037738408123929,0.23751122544321585,-0.0013541451256276194
14.291,0.009902069472015995,-0.036789584832813575,0.01845028514519702,0.29413739618296464,-0.017825536549641162,-0.29115594241302645,0.004984136007152981
14.301,-0.012544258219281115,0.009739957038595858,-0.018455146290302708,-0.028699533492485087,0.011778351777019776,0.05363983253386274,-0.0037595516665048755
14.311,0.002538638842609368,0.027064275716052775,0.0024439992532774048,-0.2654621068785138,0.006035115164981608,0.23750141571002098,-0.001309684857262966
14.321,0.009774199331432008,-0.03683592726888549,0.01832870058989672,0.29416649077210366,-0.017815990231798116,-0.29116768856269043,0.00498768234693613
14.331,-0.012399151047655863,0.009764695324382521,-0.018617201248008423,-0.028711376300341807,0.011764420128021305,0.05365034494371023,-0.00384803929255407
14.341,0.0025851776233943107,0.02709300433329326,0.0023074257250142644,-0.2654822893435127,0.006052856344453157,0.237516517022161,-0.0012430583492657448
14.351,0.009720938826213818,-0.036872207632309466,0.017993973317440983,0.29420538715574823,-0.017835204220074986,-0.29118351916595314,0.004998762069912401
14.361,-0.012247844494579826,0.009780955682402682,-0.018814470352604664,-0.028724134132311275,0.011778246717312344,0.053688106953213265,-0.0037731024008305285
14.371,0.002424358554848361,0.02711584042617069,0.0017493384918821917,-0.2654811312412536,0.006037593473328159,0.2374932883320845,-0.001288230139920941
14.381,0.009874874068883583,-0.036894603740442,0.017598862345305437,0.2942133212095321,-0.017837801072982204,-0.29116858822997865,0.004856638425708063
14.391,-0.01234129999747383,0.009764118425968403,-0.019236121940634513,-0.02871267435074867,0.011799925469877976,0.05368487329436781,-0.003726744512291184
14.401,0.002484500446723337,0.027147815313273843,0.001492714221622963,-0.2655107064968113,0.006075072064891235,0.2374959007921598,-0.0011738530425992437
14.411,0.009923560247192435,-0.03692606037914227,0.017437690082454337,0.29423107967190737,-0.017843911850589193,-0.29117543560775405,0.005058807524538046
14.421,-0.012391068739392892,0.009771690050452291,-0.019566481317216906,-0.028716643452615237,0.011764198181236203,0.053672422258183534,-0.003663040984491243
14.431000000000001,0.002463389704635156,0.027165697704942714,0.0011516613804926894,-0.2655297361781749,0.006036999587537899,0.2374887913372458,-0.0012630535551952618
14.441,0.010000076672558573,-0.03694953038294474,0.017155109366645202,0.2942506687061954,-0.017825104835211908,-0.29117056263993785,0.004945125060235387
14.451,-0.012407538354286414,0.009767199927350754,-0.019722241208988273,-0.02871639062124629,0.011800558073683461,0.05368227076394476,-0.003675316045366895
14.461,0.002478261411145031,0.027191071879008176,0.0011566215520658347,-0.26554689234606,0.006073809352515274,0.23749261983219402,-0.001132812597280666
14.471,0.009993653084831494,-0.03697185776430901,0.017103282243058907,0.2942715298734243,-0.017855831875041944,-0.29118197999558965,0.004920774483628912
14.481,-0.01241357058995675,0.009769317977606426,-0.019692104604345406,-0.028719279840738608,0.011775486432492103,0.05369080468093459,-0.0036755531068164006
14.491,0.0024754850827212217,0.02721889357669511,0.0012587395316993391,-0.26556548049061923,0.0060757841783411135,0.2374925047146702,-0.0011013109248918119
14.501,0.009997201062000052,-0.03699792590447914,0.017216384048688475,0.29429328217423645,-0.017855982052392114,-0.29118802745257566,0.004886452373171456
14.511,-0.012432338917110807,0.009768690565604404,-0.019533679690179512,-0.02872067580685041,0.011784634688010394,0.05369950307299085,-0.0036831963639535966
14.521,0.002467928379374945,0.027254775655602474,0.0012793010578045253,-0.2655844424192434,0.006067271683217858,0.23749152518812225,-0.0013145785284426209
14.531,0.009948283272051649,-0.03705004303494024,0.01752618637071675,0.2943177726956944,-0.017831777172720973,-0.2911883471097505,0.004963569419224809
14.541,-0.012358196410110335,0.00978901904427098,-0.01921959794254683,-0.028729528378111716,0.01179074609085634,0.053699455354998274,-0.003633037275098817
14.551,0.002422852568832001,0.027278941307209908,0.0016158819701229009,-0.2656046677025001,0.006061214554890656,0.237488638913903,-0.0011889797225769598
14.561,0.009937187640937418,-0.0370754249513348,0.017701604377978603,0.29434185744887004,-0.017874794971135637,-0.29119825693830115,0.004912635678288895
14.571,-0.012384851362055867,0.009790898774727792,-0.01909004739785563,-0.02873375241972286,0.011776126621741084,0.053709018061659744,-0.0037465018868920964
14.581,0.0024202314146725516,0.0273004761436409,0.0018321223366895185,-0.26562019962934436,0.006095651149335351,0.23749227033683584,-0.0011648238863026588
14.591,0.009933913274788925,-0.037101411110920725,0.017842441760404337,0.2943637525276496,-0.01786267350981977,-0.2912055597903026,0.004874587628339897
14.601,-0.012387834398195246,0.009793732770049208,-0.018986227487024797,-0.028736520626059997,0.011771678642063856,0.05371728541217013,-0.0037912259774059306
14.611,0.002409257578483528,0.02732451505373946,0.0019377657900631875,-0.26563850825493684,0.006094115632382995,0.23749293659144027,-0.0011498367805622728
14.621,0.00993898633681363,-0.03712723771556013,0.01790269388464088,0.294384128606846,-0.017872909754011262,-0.2912144829868591,0.00486079992510821
14.631,-0.012387551929677398,0.009797595096387094,-0.01897107517827985,-0.028740188803909637,0.011768253185216404,0.05372278662934401,-0.003805744873164622
14.641,0.0024042620039296135,0.027347820829776354,0.0019270565096214316,-0.2656563231045357,0.0061016817409367515,0.23749361576640535,-0.001146362575708089
14.651,0.009953107427353046,-0.037155754354816335,0.017868536318727184,0.29440472165685283,-0.01787247753081985,-0.2912190011524363,0.004856634069623253
14.661,-0.012397589623194467,0.009799879012963848,-0.019041694116536098,-0.02874236514638753,0.011769816579014776,0.05372605643761696,-0.003792769302376233
14.671,0.0024122926090381514,0.027373856171183184,0.0018345267297538975,-0.2656751755794862,0.006103977643866915,0.2374939363034969,-0.0011403742142835698
14.681000000000001,0.009971295797953892,-0.03718421925758907,0.01777085581603034,0.2944252076594538,-0.017877125639624066,-0.2912222263483409,0.004868572788380701
14.691,-0.012408889827922168,0.009802082803445638,-0.019166319226525366,-0.0287441174810081,0.011770324653247566,0.05372852526769727,-0.0037668332397421947
14.701,0.002424751774860267,0.027400553655252773,0.00169808059642058,-0.2656939877611056,0.006107491223704737,0.23749473148772735,-0.0011334095308988845
14.711,0.009984920727427429,-0.03721397776698715,0.01764466764551338,0.29444629964533264,-0.017879339285030455,-0.2912253770742248,0.0048851230135113066
14.721,-0.012413024631873321,0.009805085765947512,-0.019305463984187154,-0.028746365558614886,0.01177107004787392,0.053731525685651566,-0.0037485156529539383
14.731,0.0024341948547851083,0.02742698366275967,0.0015631424247219774,-0.26571261820913333,0.006111279050324418,0.23749548894730332,-0.0011277381879900169
14.741,0.009992563758099347,-0.037244509134008306,0.01753550223356049,0.29446753398530434,-0.017881801319999415,-0.29122950339533055,0.004901236995253165
14.751,-0.012411811902285715,0.009809032324508625,-0.019414264248063418,-0.028749346079489275,0.01177065373634776,0.0537349757803725,-0.003739498484767125
14.761,0.002437610285706057,0.02745278745585319,0.00147116054638508,-0.2657309363884567,0.006115266119835521,0.23749593955271386,-0.0011229801206559553
14.771,0.010036222963181471,-0.037277334459111036,0.01761156330912707,0.29448588848364093,-0.01787375952224506,-0.2912232936931033,0.005043154053215615
14.781,-0.01248792918328336,0.009821478491507113,-0.019661191822566818,-0.02874608824833545,0.011738872726311725,0.0537170645907074,-0.003885414922023752
14.791,0.0025589943863156433,0.027475878316052433,0.0015712262170194623,-0.2657624360038075,0.006139414725481627,0.2375202255264116,-0.0010949288151813788
14.801,0.009905489805713442,-0.03730708810750621,0.01736278526002603,0.2945255954238641,-0.017895809395324713,-0.29125702474627496,0.004880171784560113
14.811,-0.012503192799203804,0.009798660425827204,-0.019371476502711957,-0.028754697111635218,0.011794522363877461,0.05375591470335693,-0.0036093325231594427
14.821,0.0025264895604429245,0.027525831013299785,0.0014353259537524825,-0.26577279330535514,0.0061112157943669235,0.23748315560898134,-0.0011932031280915297
14.831,0.009999210489321713,-0.03733439531108665,0.017444422736957843,0.2945256144179214,-0.017915732532303615,-0.2912373186018317,0.004747440931531093
14.841,-0.01239699995044003,0.009810175566166283,-0.019267432651524963,-0.02875287793015721,0.011799396908529894,0.05375679810910407,-0.0035966128303423876
14.851,0.0023992996872191025,0.027539818716553182,0.0015163794598906915,-0.26578611867699703,0.00611960244646659,0.23748135616348498,-0.0011415927235642173
14.861,0.010016861734604476,-0.03736420887065888,0.017607567969673006,0.2945501305440655,-0.01790554202328189,-0.29124147219056074,0.004851082617036514
14.871,-0.012423496291986854,0.009820359165408713,-0.019271021720691138,-0.028760089657792073,0.011774828423555535,0.05375791747865106,-0.0037046736795241044
14.881,0.0023969511686952084,0.027558120923503654,0.0016129919317554604,-0.26580095782614616,0.006124248796410151,0.2374856198698634,-0.0011446855088758452
14.891,0.010033993923297006,-0.037389531208223484,0.017717467488418393,0.29456894396262107,-0.017897022896491033,-0.2912448093555686,0.0048685144626387155
14.901,-0.012441463781603582,0.009826377464975057,-0.019229389602752202,-0.028762115246973488,0.011771987910483792,0.05375845837387167,-0.0037435883694934124
14.911,0.0023891003894221953,0.027578119744123435,0.0016846637181454614,-0.2658180021746862,0.006127682542430113,0.23748952185255753,-0.0011432821965860706
14.921,0.010045218697768962,-0.03741602633159467,0.017788056450795307,0.2945885348094336,-0.017899606866327206,-0.29124990207714413,0.004868654188097897
14.931000000000001,-0.012449148051573699,0.009832367438127139,-0.019197420814333812,-0.028765499533520842,0.011768443315285563,0.05376040766251054,-0.003758120643586405
14.941,0.002382549246567386,0.027600211476585177,0.0017169663487222966,-0.26583484494711423,0.006130574875373567,0.2374907969930667,-0.001141523703311542
14.951,0.010054910617055853,-0.037443912010502955,0.01781610238866813,0.2946081884826289,-0.01790116614692225,-0.2912536726401995,0.004866619679829196
14.961,-0.012454477280872204,0.009836963999434574,-0.019198789016371277,-0.028768212519009503,0.011768417904929124,0.05376340574559957,-0.0037615841237565095
14.971,0.002379228356583612,0.0276238526825395,0.0017075896498092537,-0.265851884327155,0.0061338777742092065,0.23749127855352495,-0.0011396063469353626
14.981,0.010065556281127937,-0.03747189598941863,0.017806467982718132,0.29462790080565293,-0.017903966997970335,-0.2912570803816478,0.004868013492028235
14.991,-0.0124595163143914,0.00984085894852953,-0.01923226790835064,-0.028770670404402364,0.011767976535137092,0.0537666928239172,-0.0037573513698784962
15.001,0.002379115571771169,0.02764822792438411,0.0016665415201220282,-0.2658690499912948,0.006136948928893273,0.2374914630318069,-0.001136883183720097
15.011,0.010076320809329568,-0.03750000241209708,0.017771095472631372,0.2946475433317553,-0.017906435473693545,-0.2912604353004502,0.004872713321257058
15.021,-0.012464062197243813,0.009844280603782386,-0.019285621387959,-0.028773036413928366,0.011768049465846456,0.053770030463871514,-0.0037501498920479827
15.031,0.00238037089201256,0.02767272654272739,0.001610391407206009,-0.2658862832358795,0.006140188524682102,0.23749157891333714,-0.0011338775952188273
15.041,0.010086151912952474,-0.037528171552203504,0.01772730873803668,0.29466708217907794,-0.017908941069957964,-0.2912640281789753,0.004879064592704958
15.051,-0.012467560172574955,0.009847710785234587,-0.019341343651507952,-0.028775502183173287,0.011767852439435471,0.05377340837263656,-0.0037434490881076395
15.061,0.0023809655422051,0.027697104229557203,0.0015574833945451287,-0.2659034149353237,0.006143375653911343,0.23749167747848282,-0.0011311725520877578
15.071,0.01009482172575276,-0.037556273082167795,0.017692201287885338,0.2946865546547462,-0.01791136458663411,-0.2912677406510062,0.004884762451415859
15.081,-0.012470653485401067,0.0098512888029542,-0.019383615824583467,-0.028778006616483092,0.011767576020965198,0.05377696084657216,-0.0037390174449165045
15.091,0.0023795519794658775,0.027721243005918775,0.001522226471908641,-0.2659203158060106,0.006146488283428182,0.23749173779361404,-0.001129384692534896
15.101,0.010103032891018514,-0.037584076892883914,0.017677612690179867,0.2947058914233327,-0.01791385529981252,-0.29127140483812314,0.004887846769996429
15.111,-0.012474504748908391,0.009854962850778486,-0.019403078736384104,-0.028780484427790635,0.011767197488556433,0.05378064459929246,-0.0037370822577027043
15.121,0.002375729831593523,0.027745093513131473,0.0015112771613982586,-0.2659369912258296,0.006149372166956318,0.2374916357441548,-0.0011289859428047552
15.131,0.010111539546149942,-0.0376114715512303,0.017687130090975212,0.29472499798809476,-0.017916428977341504,-0.29127492438091074,0.0048872631129569435
15.141,-0.012479719508952875,0.009858624588859865,-0.019398922896029226,-0.028782914687000047,0.011766852292426976,0.05378437831459669,-0.003737384544141293
15.151,0.0023698935825175495,0.027768655476066117,0.0015227900657883446,-0.26595348711480443,0.006152050454608349,0.23749134236087077,-0.0011300737921036356
15.161,0.010120454627664754,-0.03763849718561786,0.017716474608277497,0.2947438651636731,-0.017919037396719417,-0.291278326388376,0.004883496897844789
15.171,-0.012485863555987681,0.009862265475757883,-0.019377549250773958,-0.02878531422465909,0.011766533351199522,0.053788128790102564,-0.003739367821635442
15.181,0.002362883772531399,0.02779199705543781,0.001548516928502012,-0.2659698390319371,0.0061545955441839086,0.23749094123429212,-0.0011320970455743738
15.191,0.010129435528546595,-0.03766528490910359,0.017756184262941514,0.294762569831868,-0.017921629292192372,-0.29128168248132136,0.004878241804930462
15.201,-0.012492017970087777,0.009865926499871894,-0.01934946230354976,-0.028787707504631707,0.011766205874582204,0.05379190793252969,-0.003742182072027884
15.211,0.00235565912318097,0.0278152015892966,0.0015772919395149105,-0.26598607432956634,0.006157127676662169,0.23749054602262526,-0.0011341803150374454
15.221,0.010138262244146287,-0.03769196255009173,0.017795162840930565,0.2947811788382642,-0.017924166521877484,-0.29128506104108187,0.004873294226578739
15.231,-0.012497568614589637,0.009869598023308517,-0.019325516112178694,-0.0287900993109347,0.0117658484886375,0.05379569138239316,-0.0037447464625543843
15.241,0.002349098369404731,0.027838332440664918,0.0015987649206506015,-0.2660022323129603,0.00615972232581049,0.23749022566397177,-0.001135648257398759
15.251,0.01014705851686628,-0.03771859116514021,0.017824228990074346,0.29479970894895663,-0.017926637609796542,-0.29128849056776174,0.004869815842534924
15.261,-0.012502496680260463,0.009873206796973245,-0.019313604370655785,-0.028792469642934738,0.011765499289073217,0.053799420421521436,-0.0037460346001704898
15.271,0.0023438471354585,0.027861435651407758,0.0016064311885213305,-0.26601835309217625,0.0061624086155487225,0.23749000405321566,-0.0011362326384713136
15.281,0.010156029810176333,-0.03774517802781842,0.017838658144842767,0.29481815110300047,-0.01792905096332708,-0.29129195771888605,0.004868281689164267
15.291,-0.012507063801030683,0.00987669077987713,-0.019316699540503305,-0.028794791469021815,0.011765197095945788,0.05380304853216125,-0.003745480396482627
15.301,0.002340115584733854,0.027884538028579244,0.001599033941724823,-0.26603445427246153,0.0061651713165271635,0.237489887943882,-0.0011359734552240206
15.311,0.010165165027195382,-0.03777171197138788,0.01783891936095189,0.29483650293863845,-0.017931421932165438,-0.29129544678809705,0.004868623275843387
15.321,-0.012511422660555336,0.009880054776459975,-0.01933276042401018,-0.028797058782828993,0.011764938579702594,0.053806578905899044,-0.0037432815446141908
15.331,0.0023375863288737815,0.027907627319350516,0.001580073658591935,-0.26605052080891467,0.0061679819474846015,0.23748986967417496,-0.0011351105766737
15.341,0.01017424223567704,-0.03779818029985879,0.017829661905884087,0.29485476925348536,-0.017933760274010304,-0.2912989594595631,0.004870307238009368
15.351,-0.012515576609500019,0.009883355846997961,-0.019356180241647373,-0.02879929197302258,0.011764687794032759,0.053810054464800534,-0.0037402586817588965
15.361,0.0023355775082472296,0.027930654591989238,0.0015559689189081575,-0.2660665184032691,0.006170809918200949,0.23748991764708377,-0.0011339977790155848
15.371,0.010183051730954473,-0.037824557418108425,0.017817641370734546,0.2948729441930418,-0.017936076526174582,-0.29130250022356313,0.004872484595249406
15.381,-0.012519582647100345,0.009886650310524206,-0.01938002118851544,-0.028801514318493152,0.011764410437472474,0.05381352141336596,-0.003737349596701284
15.391,0.0023333601507178007,0.027953560752767344,0.0015336738704789861,-0.26608241255982085,0.00617361757482264,0.23748998282656414,-0.0011330024413910877
15.401,0.010191568414993937,-0.03785079509893206,0.017809364692135534,0.29489100693427484,-0.01793838766266998,-0.29130605471873344,0.00487424993422841
15.411,-0.012523648907034921,0.00988996195320669,-0.019398304375731312,-0.0288037317673718,0.011764096875171456,0.05381700757877654,-0.003735199620366878
15.421,0.0023304230808415447,0.027976302787620907,0.0015184972082263502,-0.2660981791627136,0.006176364587685649,0.23749001897852132,-0.0011324179248728835
15.431000000000001,0.010199925923175182,-0.03787683893223884,0.017809156551520215,0.29490893340708735,-0.01794070910053634,-0.2913095918698696,0.004874918674894712
15.441,-0.012528008460275637,0.00989328672311154,-0.019407682080537194,-0.02880593549329887,0.011763759069884288,0.05382052106929037,-0.0037340652561243947
15.451,0.00232658617558158,0.027998864261955796,0.0015127493081661997,-0.26611380911598437,0.006179026672204295,0.23749000130055184,-0.0011323942519319808
15.461,0.010208266380381982,-0.0379026599027947,0.017818194041535774,0.2949267109125295,-0.017943042840015546,-0.29131308844520387,0.004874242589168197
15.471,-0.012532735110907111,0.009896612805237775,-0.019408036370353297,-0.028808117556583943,0.01176341231441145,0.05382405729226717,-0.0037338901264357635
15.481,0.0023219761760738433,0.028021252813327773,0.0015155290607391067,-0.2661293083642087,0.006181608274173445,0.23748993262748294,-0.001132888514150192
15.491,0.010216638826226707,-0.03792826970035475,0.017834667298414077,0.294944343779246,-0.017945377193167886,-0.2913165464847929,0.004872463237954536
15.501,-0.012537696245309487,0.009899932126563095,-0.019401985704409742,-0.028810278638134807,0.011763062534947136,0.05382760550459049,-0.003734395533128784
15.511,0.002316921260216501,0.028043491739932213,0.0015235193174964522,-0.266144692603459,0.00618413758884969,0.2374898368982285,-0.0011336844476701612
15.521,0.01022502211747154,-0.03795370716546341,0.01785480870767502,0.294961847703993,-0.017947695585766376,-0.29131998628367345,0.004870150818019535
15.531,-0.012542668597342406,0.009903236737422452,-0.01939365234138947,-0.02881242215072519,0.011762709844092452,0.05383115165219865,-0.0037351631320893374
15.541,0.0023118239585172,0.02806561088401502,0.0015323703180448863,-0.26615998061859825,0.0061866503862858645,0.23748974595458158,-0.0011344961715535258
15.551,0.010233400815307698,-0.037979012747528317,0.01787433458003862,0.2949792393426501,-0.0179499853036764,-0.2913234279087556,0.004867932374903032
15.561,-0.01254748645396088,0.00990651217009576,-0.019387182632131794,-0.028814546641562327,0.011762357661496043,0.05383467896127701,-0.003735740725959543
15.571,0.0023070466209975772,0.028087638613172997,0.0015381712782601695,-0.2661751895756004,0.0061891745689138175,0.23748968717945176,-0.001135088776374487
15.581,0.010241790244884615,-0.03800421275378814,0.01788981650440895,0.29499652936480203,-0.017952240908357984,-0.29132688105708704,0.004866276109013293
15.591,-0.012552098656168876,0.00990974030037312,-0.019385493101388613,-0.028816646029501004,0.011762013759865231,0.05383817105584561,-0.0037357741304409903
15.601,0.0023028186867810967,0.02810959491570929,0.0015385628779343422,-0.26619033157750854,0.006191722805899051,0.23748967672921933,-0.0011353449685793165
15.611,0.010250200853048896,-0.03802931801969698,0.01789958393007025,0.29501372211265753,-0.01795446332067067,-0.2913303474238711,0.004865398668576032
15.621,-0.012556529104442223,0.009912910541045126,-0.019389585594938242,-0.02881871568940877,0.011761682920021188,0.053841618720723204,-0.0037351231553346565
15.631,0.0022991806874528616,0.028131486256937593,0.001533204137880854,-0.2662054103760082,0.006194293663285401,0.23748971831542334,-0.0011352696804379407
15.641,0.0102586040294685,-0.038054328318892876,0.01790394891970968,0.2950308182393493,-0.01795665695301846,-0.29133382625323434,0.004865262982264826
15.651,-0.012560820759703507,0.009916027211184343,-0.019398553065761562,-0.028820756522763752,0.011761361690978222,0.053845024781509036,-0.003733897624625526
15.661,0.002295989702616469,0.02815330461037999,0.0015235505684321388,-0.26622042040958815,0.006196876376729189,0.23748980480452356,-0.0011349604384379153
15.671,0.010266943277906015,-0.038079235041495935,0.017904792523442424,0.29504781590804546,-0.017958827689723712,-0.291337315970606,0.004865629527167038
15.681000000000001,-0.012565020854114857,0.009919105817693766,-0.019410159450334526,-0.02882277367573603,0.011761040765173555,0.05384840197646896,-0.0037323839906445223
15.691,0.0022929897702263866,0.028175031852789783,0.001512126123004911,-0.26623534986300945,0.006199455307628963,0.2374899210302688,-0.0011345639937046037
15.701,0.01027517504532463,-0.03810402235647902,0.01790474584921171,0.2950647101994744,-0.01796098212453432,-0.29134081222768266,0.0048661477668990585
15.711,-0.012569192514587024,0.009922162746466467,-0.019421724742002558,-0.028824772138239144,0.011760711545802294,0.0538517654001313,-0.0037309089246908922
15.721,0.002289914254703899,0.028196647583892172,0.0015015913110092312,-0.2662501861424665,0.006202013423238798,0.23749004847151717,-0.0011342298091772964
15.731,0.010283296028424954,-0.038128670771099285,0.017906276882720024,0.29508149380957305,-0.017963126511782123,-0.29134430716461424,0.004866470162016682
15.741,-0.012573410206374524,0.009925207865698801,-0.01943100407568314,-0.028826754059237153,0.011760370618288774,0.05385512611178102,-0.003729721253660618
15.751,-0.00017938152642850148,0.004782177960118369,0.013099762833433535,-0.4453117911540184,0.008328328192517952,0.4415854440579973,0.013502658364093558
15.761,0.020408418763351456,-0.08599474458933119,0.016008242054845117,0.4494363937233676,-0.022774831994939546,-0.5009045247330233,-0.013341947642248093
15.771,-0.028068765295341854,0.06797550736310817,-0.029739577099190267,-0.1255973747051786,0.02886969769974536,0.050454756908652,-0.007097873044484096
15.781,0.016219460748669992,-0.005206026589810693,0.023622827801707817,-0.19668592101137172,-0.004122591972548037,0.1836119811969998,0.012749604476225864
15.791,0.0025793125718280847,-0.03231861544545268,0.004894574174676911,0.2802479235350024,-0.0259970177406549,-0.24755106589477516,-0.008675281672166489
15.801,-0.010949407842075619,0.032664670024866706,-0.012362228406442608,0.011261383686417423,0.01578755236654157,0.036089904802038705,0.000944282557933348
15.811,0.002530667256545969,0.04524735787249657,0.004266070272590934,-0.25671336646892573,0.008586317363936407,0.2718958029543209,0.0037483596505170696
15.821,0.008560689852695915,-0.03417980479707939,0.012665082713253825,0.32334639197943027,-0.021681493441743995,-0.2725553222864048,-0.0024203922955289654
15.831,-0.012214324554365394,0.022830059584465417,-0.016636077589527273,-0.02222559075066772,0.012846953217250058,0.0682218129335855,0.00010577288280275477
15.841,0.0029189698518282394,0.03277646751096826,0.0014735297346411575,-0.2592348336936229,0.005787780120205018,0.2367523199597331,0.0004804034289943027
15.851,0.009560376097620346,-0.04239619804180659,0.014695750565467895,0.2916434524113423,-0.01957937804603987,-0.2914017733568703,0.0023076745784602853
15.861,-0.01181376558983646,0.004180162459758602,-0.01926630846702307,-0.03459964590775836,0.012502504965382374,0.04310950630180324,-0.002246856705140805
15.871,0.002230452230623896,0.022842824196589895,-0.0009668154450256812,-0.27601289065882734,0.007579647681083689,0.22454714569662057,-0.0014388892793182361
15.881,0.010416707914151188,-0.04556191755474851,0.015338152473465769,0.28742478529791127,-0.01762638139569472,-0.30238569891392425,0.004008735091211759
15.891,-0.012202814506824713,0.004986732001539818,-0.021170545982060508,-0.03483398934856302,0.011959271165478739,0.046352330567890315,-0.0031167117816606102
15.901,0.0022947949569340274,0.026822373627590518,-0.001241713124428327,-0.2688395888094765,0.006392803282206952,0.23311603372454545,-0.001190866077814883
15.911,0.010449157448621106,-0.03790403387329758,0.015465103518154485,0.2958471652668686,-0.018088358704987022,-0.2906425581179591,0.0050230956274718505
15.921,-0.01245378971653261,0.01196468179532523,-0.021590247101727397,-0.02557510195609125,0.011518315599683486,0.0578742720611725,-0.003244183669091371
15.931000000000001,0.002196581594435603,0.03174769542721686,-0.0009307832123127422,-0.262024070236903,0.006170982486096007,0.2428319334690035,-0.0010145610366485865
15.941,0.010397576790463077,-0.03506165384746809,0.016028979302487756,0.29961283351313667,-0.018122687807187305,-0.2859917745509363,0.005153287695853043
15.951,-0.012560495041134467,0.012301698989156224,-0.020919982390186696,-0.025448623171225655,0.01147163796827203,0.05808845657272595,-0.003377663087523363
15.961,0.002243177714382445,0.029701142158013057,0.0001520444216228042,-0.26452198583608755,0.006162684559118813,0.23957688193318646,-0.001074372196823276
15.971,0.01038093756358219,-0.038244875691316724,0.017043663663135082,0.29545469970718236,-0.017988772035185174,-0.29139804113297657,0.004836729187980119
15.981,-0.012517691145245596,0.008976792974451663,-0.019733213001480128,-0.029897723870064806,0.011758830830475242,0.05218709776503239,-0.0036496960628241183
15.991,0.0021946205769883126,0.026894710942290505,0.0013955795567106696,-0.2681730152544481,0.006401366500274057,0.2348094213442773,-0.0012259856690255888
16.001,0.010391699179954467,-0.03994762954078935,0.01835154781933754,0.29329619701837406,-0.01783998285157058,-0.2942356709989974,0.004822772734128983
16.011,-0.012627068416855009,0.008625048360818437,-0.018830884737968998,-0.030408389874941398,0.011730622079313276,0.05149178102405804,-0.0039331949670132664
16.021,0.0022037584752198297,0.027632973552950052,0.002473339951916256,-0.2672764312178144,0.0063693565974808275,0.23605724355281488,-0.0011933335189323706
16.031,0.010287695518028543,-0.03855460193820965,0.01900465590844383,0.2951693381482711,-0.017959928319725472,-0.29182055183395905,0.004636948060691819
16.041,-0.012727961889673577,0.010257567743238495,-0.01811377356082863,-0.028272487241703854,0.011640188969196082,0.054330190258638444,-0.003886668609204882
16.051,0.0023285059452009143,0.029116703239650033,0.003080980482841137,-0.26542955934140144,0.006286128152088696,0.23854405608753024,-0.0011616867232821498
16.061,0.010216423278374458,-0.03764122957883944,0.019383332767829144,0.29641867057018306,-0.018071915863923094,-0.29018238540819924,0.004681661648699186
16.071,-0.012774610471438914,0.010586056598613823,-0.01777533684771882,-0.02784164541911358,0.011644349468332649,0.054929158608461925,-0.003625550781743136
16.081,0.002240657072469567,0.02892054264601309,0.002900900363948084,-0.26574216892437813,0.006255603017030093,0.2381533511564487,-0.001315599434550152
16.091,0.010213964999116962,-0.03829257780653787,0.01932265488766742,0.2956111693485129,-0.017982022764998926,-0.2912096934771949,0.0048006935916755904
16.101,-0.01254141093450442,0.009841712061926485,-0.018037998327777967,-0.028894889688172713,0.011683952964737093,0.0536042615865642,-0.003679708746646687
16.111,0.0020898371268705017,0.028188928835745516,0.0023567515642059964,-0.26670932631277466,0.006290181538157105,0.23690623595707758,-0.0013076062612353415
16.121,0.010407903020092323,-0.038824037886067864,0.018809183112139166,0.29491473347136044,-0.01794212882781666,-0.29209257120745513,0.00479235387922808
16.131,-0.012587486688980931,0.009610179614673434,-0.01891820630680304,-0.029214354795119527,0.01168230386537453,0.0532120673645895,-0.003878230459328493
16.141,0.002189589311126589,0.028245086246727998,0.001855473254744899,-0.2666876981536753,0.006352250450470122,0.23701383171236945,-0.0010590424335441863
16.151,0.01039889734044203,-0.0385785779558917,0.017985114590704537,0.2952550528158978,-0.017980262001928607,-0.29165455884307895,0.004791504143297496
16.161,-0.012626406591392005,0.009965210435654731,-0.019620935165672843,-0.02876149775694905,0.011657478748696073,0.05386507381215348,-0.003760270226698995
16.171,0.0021675815798200626,0.02862639388623938,0.0011292463695075606,-0.2662396661863662,0.006333659648264129,0.23765422595764488,-0.0009821422125702668
16.181,0.010567429894333043,-0.03830159710596707,0.017469994875628374,0.2955973979177486,-0.017997941461098475,-0.2911492263850021,0.004870076971404633
16.191,-0.012644082682197749,0.010115468853662922,-0.020195606115710023,-0.028581502879750482,0.011636583273872021,0.05413514936939937,-0.003690548026174736
16.201,0.0022175970947869487,0.028661317536805557,0.0006083588851589844,-0.26626655374842817,0.006320224692226514,0.23769574437671293,-0.0010457265595748381
16.211,0.010510304366687215,-0.03844007857140991,0.017079815808022356,0.29546805392887404,-0.017981270617808617,-0.2913076456255089,0.004885678350019738
16.221,-0.01259716267509594,0.009958005919954193,-0.02034821365789518,-0.02882856885709441,0.01168056940714366,0.05387777937783934,-0.0035847897723647708
16.231,0.002209166427614546,0.02851022224608275,0.00045420674503282473,-0.2665358667937244,0.006319952221610322,0.2373984804100623,-0.0010596828272244248
16.241,0.010515597115816152,-0.038611438234285526,0.01706812761563052,0.2952661606540912,-0.0179896154686693,-0.2915385515331647,0.004871393530749977
16.251,-0.012598652071782714,0.009875234441088307,-0.020234785526395148,-0.028967982247730933,0.01168770022914261,0.053749738609346974,-0.003557285165814884
16.261,0.002195335892051158,0.028516974075499246,0.0006136480751912304,-0.26660058053325547,0.006323910227007017,0.2373800864514891,-0.0010983788512073055
16.271,0.01050775578463335,-0.0385971953367489,0.017334892176105537,0.29530779528549633,-0.017991569063577375,-0.2914547207977411,0.004841204872345114
16.281,-0.012622038832454937,0.009953333211710286,-0.019897962048994536,-0.028894801742009223,0.011684451138674175,0.05390275309540185,-0.0035705253978183062
16.291,0.0021594332930797077,0.028627328952061278,0.0009896013882581595,-0.2665231372178637,0.006322778803657051,0.23754715821878253,-0.001124880594555783
16.301,0.010459557211745893,-0.03853951450222892,0.017659759547120686,0.29540120432987144,-0.018019079313528644,-0.2913128573028991,0.004707311819952904
16.311,-0.01260913390872219,0.010002493920699644,-0.01942107734356724,-0.028856597111697996,0.011695379060654909,0.054024826783841316,-0.0036156353601369483
16.321,0.0021923625213796263,0.02867614745117231,0.00151734358404863,-0.2665360945712986,0.006323177543269928,0.23759648726496055,-0.0010826841608982392
16.331,0.010419553825060544,-0.038570079164785304,0.01815123644385019,0.295376860493377,-0.018016580900978674,-0.2913181934359562,0.004750244852075887
16.341,-0.012644134118943716,0.009977541009340575,-0.019046457487191158,-0.028919142804472397,0.01167122751671453,0.05398706460887956,-0.0036405141598772465
16.351,0.0021502586433688273,0.028654438316059704,0.0018081356074734474,-0.2666252283098462,0.006313553450045655,0.23754621185762587,-0.0011838145856584241
16.361,0.010413062156664382,-0.03862557751933648,0.018352850236022098,0.29532337779140755,-0.018004944485770905,-0.29137389695037924,0.004607972432868883
16.371,-0.01252681670281383,0.009963459877122958,-0.018731989304404596,-0.028989560876009852,0.01169961450181376,0.053976472453854375,-0.003676604791328402
16.381,0.002055415828748805,0.028655529115480843,0.0018961944539410852,-0.26665800633337106,0.006314407957555039,0.23753823547132472,-0.0012262459163533746
16.391,0.010380663522397601,-0.03865971297759819,0.0186608831621345,0.2953184060663918,-0.017990279223859196,-0.29134822125524157,0.004842172352015927
16.401,-0.01258703126499194,0.009990382583208876,-0.018773920279426173,-0.028985972850819795,0.011665200478195446,0.05399811126980084,-0.0036956515388227415
16.411,0.002242362728475172,0.028715809745934563,0.0020178041254560095,-0.26669034341894676,0.006318103217583717,0.23760665629717598,-0.0011749281775042105
16.421,0.010289947615589635,-0.03867349574242743,0.018467210925943788,0.29536395346607514,-0.01802409201538211,-0.2913173288353336,0.004820490567401204
16.431,-0.012625171755871656,0.010004431120332651,-0.018934087663761822,-0.02898895939133458,0.011691223978384341,0.05404863817197875,-0.0036419406993979807
16.441,0.002149646457701248,0.0287344398951423,0.001638068600139435,-0.2666959235617962,0.006306710793713816,0.23761534391556335,-0.0013046707429117809
16.451,0.010473431737168226,-0.0386781122114713,0.01828619975426188,0.2953458264605498,-0.017990985817894194,-0.29128300003149854,0.004778929863703667
16.461,-0.012649853989522323,0.009996407049281177,-0.019217186270849635,-0.028999714769987313,0.011688079806893093,0.054045461244272314,-0.003622887185966479
16.471,0.002160805940407881,0.02874582261771967,0.0014168489383408497,-0.26673532826745755,0.006309509714840027,0.23761469551456274,-0.0012160824803640563
16.481,0.010485355329805221,-0.038705979204749115,0.018036326604232905,0.29533591145979904,-0.018003108953646648,-0.2912995936840826,0.004832261378921574
16.491,0.0018091809603494333,-0.34821424646142074,-0.2273792243435664,8.47003013842389,-0.1472475644791881,-7.931823535673422,-0.17207982672913666
16.501,-0.7624290680757763,3.718666913484252,-0.2496978734919413,-19.650147904490606,0.9152913941960574,20.55816201557069,0.46720878760987666
16.511,1.9299700843062417,-5.881645609109003,1.228475363982027,14.979519462236054,-1.5821902042184148,-12.830651892358546,-0.12688453942881045
16.521,-1.6424040706721512,3.4639403183969093,-2.040830727289048,0.1960630875211428,0.7557595830874414,-5.34968133377252,-1.162889893064042
16.531,0.2680991456972265,-1.0242610471480025,2.1846473285346044,-7.483152771815026,0.45666952510221626,8.862871096079537,2.523284108352046
16.541,0.4359506727531338,-1.1191970729985716,-1.4223443224517176,5.7590331419444185,-0.7291512951081252,-7.01642978369398,-2.26179525875121
16.551,-0.5795471184826725,0.49945282605038127,0.31874722518563037,-2.546050735153424,0.37215067618610764,3.2731346895331073,0.7679502329581914
16.561,0.5433129791601824,0.6238988860480352,0.46061097606394114,0.2314800547923673,0.1856329659818429,-1.558230686610952,0.22261440297790672
16.571,-0.04422348150521926,-0.4336457015811799,-0.3766056147262274,0.4947945895529612,-0.3308737877786968,1.0508211710966018,-0.5063801465433904
16.581,-0.16100558077959745,0.03691557810570377,0.11056313807727897,1.1611732731370952,-0.025708483363130488,-0.7765007088605201,0.18048339109769732
16.591,0.0005485563265557855,0.6366452955571434,0.14289565159887263,0.33534107700976773,0.1892038933045994,-0.09481440228684665,0.25730751235483124
16.601,-0.09997183682360995,-0.9044902348946228,0.05495277662500801,1.647807326022097,-0.24934756697512994,-0.11985854587903193,0.09751170189661836
16.611,-0.1392904414085844,0.7534288465146709,-0.21723714925726695,-2.5432939426661823,0.1484224371045569,2.099831147147242,-0.2501581156340735
16.621,0.2820301111842402,-0.0976532582534626,0.2054435480502498,2.029143555810444,0.004727371302960757,-2.296822557662459,0.048507128101991426
16.631,-0.23026704688977373,-0.2630936177688034,-0.03259495912946691,-0.8593417843888999,-0.041757090545625306,1.3140450340385863,0.15399468213258594
16.641,0.034443665575500874,0.6386578152668345,0.016920041260808556,-6.701555634034002,0.17221048679079884,5.679436033551938,-0.1438679424549103
16.651,0.41239689705763477,0.2548215790347661,-0.18263603976130607,2.9956200920325,-0.015404035450394272,-4.484131442406343,-0.580088893234251
16.661,-0.2573837086642964,-0.5761552129830039,0.21822015640839182,1.0744971035876985,-0.028634142296700114,-0.11734859869261169,0.6132195200689473
16.671,-0.05600878861369802,-0.18290228502096678,-0.1501244422099188,0.8452984804968943,-0.0651336854124861,-0.9090265550605854,-0.1663439165783978
16.681,0.042712936614290146,-0.0062908849458024,0.07327921552311996,-0.45027961076814527,0.009829251764131307,0.5873167673930106,0.06796417844075116
16.691,-0.014474492277972291,0.29268082078263136,-0.07215036437504058,-0.4146585812947699,0.05639671742262715,0.14039826291148869,-0.052963519530002945
16.701,0.09047805957974142,0.10847171166855243,-0.010249903285020526,-0.4369662816318084,-0.00558227359848549,0.4619884050426355,-0.0680874419653706
16.711,-0.0032522330040561033,-0.24436694893558608,0.06538532395842457,0.3778434681268747,-0.0770697068266392,-0.08991100164421185,0.0876657790671613
16.721,-0.06778907353076273,0.47054519028533887,-0.14764391353138728,-1.5073236763629507,0.12088789274530147,1.1982110814781435,-0.09199706409588412
16.731,0.020702680625238206,0.10306132573563323,0.050113301817142936,-1.1434432360535425,0.038288925126574204,1.3151537637525883,0.07551499132816591
16.741,0.16724314005248003,-0.041750053574708484,-0.1442181279091352,1.5376940803147883,-0.07722360029622372,-1.9306142672350413,-0.29793441020227746
16.751,-0.05572479768936525,-0.19461508244307382,0.052991756915179856,1.5775347040836987,-0.02357640016441447,-1.425291754085193,0.175149125259431
16.761,-0.06887131737396238,-0.3568050032240505,0.07375552816085904,1.1224349234380615,-0.05118888793679716,-0.801808390429989,0.19622124780916744
16.771,-0.06266737356297025,-0.3615210024039455,-0.046647414650651975,1.23626584066586,-0.07415714334076663,-0.8621854791587952,0.008663807044268543
16.781,-0.07616640942766029,-0.06355522188169185,-0.038136523492260925,0.7830686859541334,0.021168387648620272,-0.5732882422202704,0.04841983265899439
16.791,-0.08775564452891665,-0.4131637634899643,0.25003165914716,-3.365019320088024,0.005803768973525889,4.033798516910955,0.3622157016150918
16.801,0.1750934264211312,0.9060813591173016,-0.6548495290670573,1.170989560539062,0.10638374007697367,-3.015839848385557,-0.9683083229843364
16.811,0.02699227684110364,-0.7519402307947992,0.5465868244240972,-0.20186796873833507,-0.04173318679948633,1.4296729309649814,0.7715662647201332
16.821,-0.14727637743360483,-0.3117749751117463,-0.40646043836224166,1.312746879452287,-0.0907680664596415,-1.2054906362380795,-0.26674272422087797
16.831,-0.03914224890968321,-0.3603342809763707,0.11015307335766192,-1.134181935101123,0.007327339701266032,1.5065150913366607,0.18605620046952687
16.841,-0.009800780219520053,0.6932360517923112,-0.21919978157019376,-4.485357980685948,0.222983046480104,3.271284644916196,-0.16396284114697984
16.851,0.2924375010674946,-0.29580014193445026,-0.2504108430397124,1.9030364220784943,-0.07575349747227828,-2.1914634354912064,-0.38462579002898484
16.861,-0.051921844705680446,-0.5152212231149493,-0.11522001274533189,0.696768677478633,-0.03558894252987093,-0.5131317718772441,0.17148232719163764
16.871,-0.17080919394280736,-0.6900383392706946,-0.18473602729982133,2.1606352672078977,-0.04930937556366495,-1.5037416961910957,0.21981308115484002
16.881,0.0009489438441134782,-0.34666951705015936,-0.2356833431039921,-1.024133081689093,-0.0026213052058893433,0.944777799149588,-0.024855290621508486
16.891,0.047899784117830975,0.10066929068801672,-0.4355367107168637,-0.7147217984978499,0.08260038011194903,0.21685812641991778,-0.22427951144829184
16.901,0.08906799085443201,-0.9089037170858806,-0.17161647046685402,1.9630609038700655,-0.10476425101130994,-1.4626704940350475,0.1696327276219682
16.911,-0.1872720527854941,-0.29664320752328055,-0.47559149848060484,-1.0241418469633368,0.029990916946653116,1.0576438643853967,0.025323786878259192
16.921,0.12132662146548377,-0.4014335750189565,-0.354721615440442,0.25208130431993553,-0.007461950204654002,-0.5064153534870067,-0.05925300536011403
16.931,-0.07485556356687974,-0.5991340556864351,-0.5342249876888653,1.8608630007419322,-0.018038369240753905,-1.3975214856508376,0.05801384695183455
16.941,-0.07447945738380984,-0.6348499674532694,-0.20789320433216824,-4.586601728127566,0.0067963923470893564,4.922900059599245,0.33812879225982906
16.951,0.1676235901588335,0.45972091243558044,-0.9686339345901274,-0.8875012469540301,0.14025971707700055,-0.7158752773375304,-0.7531635164472461
16.961,0.09706300660069701,-0.4714639545300736,-0.3509014923080267,-0.23030735528821283,0.0702737744000224,0.42373902702496424,0.2831284482768248
16.971,-0.051401802641740976,-1.5681549263210282,-0.6557748492048968,6.099888132215429,-0.28641287080941585,-5.280003335697832,0.03251042424924517
16.981,-0.33748500827324185,-0.1893191718405472,-0.4524975903925838,-5.4541559034048515,0.14895163528711583,5.85254146043085,0.418815946375061
16.991,0.34623447764053444,0.19054848990822565,-0.8389308827313192,-1.7362578467811305,0.13250786238272436,0.3869091623200201,-0.5927875061934965
17.001,0.14077243070834825,-0.654255878284531,-0.6845628729399477,1.9486554205649091,-0.05621951890936024,-1.983731747195217,-0.07776048404662728
17.011,-0.17494397530943773,-1.1593800930640596,-0.46738596255081755,1.1336172394121966,-0.10285249597710536,-0.4760409373615583,0.41252009655442495
17.021,-0.11532840785513726,-0.7448697088261279,-0.7730493036220225,1.0096105208887223,-0.009872547733040929,-0.6776052393393287,-0.003012808175966814
17.031,0.10218946206198978,-0.5614803282563481,-0.7396276068217398,0.8085596419979325,0.002659068469516204,-1.0548967073647182,-0.13433894292593582
17.041,0.06164318333383266,-0.2762307472437551,-0.7251702208576298,-0.7516952362571473,0.06959174536741146,0.43713568281451654,-0.06298858973760836
17.051,0.038582285464531886,-2.0017274271971432,-0.3178687330358165,2.4438645392342,-0.2759062972063504,-1.3276159999407924,0.460458145306422
17.061,-0.41660786692417673,0.7932691129558684,-1.3999757693812027,-3.30868337436641,0.27014070366503595,2.112730999833169,-0.5544316374871013
17.071,0.6014207131154111,-1.2193272979103702,-0.02745628723572328,1.3031463200816926,0.002734359481904053,-1.0263523082689976,0.34857355319747957
17.081,-0.2731329090046354,-0.4217120640513056,-1.1343290859612896,-1.8102223214322815,-0.02989859433866045,1.6814776464809862,-0.294981377317243
17.091,0.14976980731327044,-1.0658514787743267,-0.596782296958463,3.3088717238270413,-0.09575101308774275,-3.3625808814376104,-0.03132170483754094
17.101,-0.20555087313701015,-1.1216585254976164,-0.3665952227772198,-1.3112052708018291,0.00015923226874128276,1.9532874672124523,0.6593560757285748
17.111,-0.12319731674383098,-0.03321981447335401,-1.1406095422096967,-1.030453344680001,0.1045734796058868,0.3719462330378826,-0.5404440878750336
17.121,0.2752308676289557,-1.3698629335429902,-0.433414484465028,2.5338005512658497,-0.0907141689226091,-1.7343941429317133,0.18586520909361248
17.131,-0.19389215543611144,-0.7245949242928684,-0.8998020553384593,0.10409806330801792,-0.044282226331040606,-0.08514367078141052,-0.04423416707666241
17.141,-0.11244325860487368,-1.2617190765479915,-0.5702335936478145,0.5379008960671281,-0.12219750291009851,0.08815838775916385,0.27321497432487735
17.151,-0.006906088839537653,0.07206851465712799,-0.8224137910975445,-3.280379769510331,0.28804958524293667,2.344328223605129,-0.1588296200007568
17.161,0.354106477034759,-0.8859474785279323,-0.7827832369033475,1.5439775936864664,-0.10263732106553562,-2.029186883371383,-0.42033836606192104
17.171,-0.24248978163049448,-0.7633857443784551,-0.6906646481030829,-1.4889579536720077,0.0135435058148775,1.9142652398492268,0.3373946805587669
17.181,0.10764036590202054,-0.9700552611956441,-0.7114513691038241,1.5718486120822834,0.0014835853713586723,-1.4986801695803063,-0.021981429362671282
17.191,-0.010542179207793814,-0.5763944699565879,-1.000578901832199,0.45120843383593495,-0.011919017229689036,-0.6986581594712872,-0.26793666636077745
17.201,-0.12429225241025582,-2.1558370138483816,-0.19089242652605212,2.1321014592982026,-0.23409290506152763,-0.6196010867566567,0.8680877053164983
17.211,-0.2902524439786518,0.34804848393559223,-1.4046484235646686,-3.4306273776807266,0.28690342711153044,2.277514467311154,-0.5637354290936138
17.221,0.414735593432964,-0.8765821176512246,-0.648079795894084,-0.2931092787425905,-0.06426533813414007,0.08504225796336316,-0.20905602607133988
17.231,0.10750054057311412,-0.7128674041611739,-0.7743883790973194,-0.11924158914754696,0.0818837276409352,-0.21523119749118733,0.027188047168802843
17.241,-0.1812610229925219,-0.9662705835729626,-0.9803959549897386,0.46001211476210174,-0.1173206451187513,-0.1865608744854896,-0.02121146063651234
17.251,0.06055027129824704,-0.7778557069260511,-0.6540805499006906,-0.4273622380049037,0.10399119219241111,0.3622009883897406,0.17540483042762242
17.261,0.03550518801805843,-0.7360739562701911,-1.1004053873198496,0.05501269838064268,-0.06993695521176761,-0.131625134752466,-0.2786679884811968
17.271,0.07785585466237496,-1.1898461378356233,-0.5282884451877863,0.3724969840052179,-0.0024750347061407566,-0.21983929625009818,0.31605554575031863
17.281,-0.1915583777610581,-0.2055967846722982,-1.2543261747701315,-2.6448639841779245,0.12806651947083772,2.0974861995833107,-0.28497253809045114
17.291,0.16964446839308966,-0.6778168205553876,-0.7008605846891905,-0.8770737365647197,0.14803957416598992,0.8463448681552839,0.06672258629444765
17.301,0.3008250603725244,-1.8521084506271899,-0.9070717655527,4.167395681579392,-0.403885655003322,-4.095741227847376,-0.22172614762431972
17.311,-0.7153087221970901,-0.39848176090031984,-1.004970570807588,-1.7146953296989178,0.26728520659808164,2.0478365600355106,0.5156071088053911
17.321,0.4069644252071115,-1.4757001482660872,-0.704270854522133,2.395240176986042,-0.1853533186556185,-2.0785264572902107,-0.116545681664413
17.331,-0.12382861224667575,-0.6285813633442745,-1.0248413554660314,-2.1825994534865796,0.04291156935264925,2.170051295687993,-0.003027649412145462
17.341,-0.08893953070514114,-0.9059581814555044,-0.9388749310620701,1.4933451815976702,0.029524950467531116,-1.4755737549932224,-0.0011975962189076982
17.351,0.11256125658733872,-1.3010488613552342,-0.8925084640426572,1.8056500744231059,-0.1751332312882466,-1.373847819840422,0.04177397479337663
17.361,-0.22928661523691954,-0.8915023156153606,-0.6705172304933567,-2.2254281489580228,0.09574865497950519,2.411458423370604,0.411648407320348
17.371,0.2839894416299348,-0.07629138087441442,-1.3180504633385617,-0.9736982905049429,0.14924100360148165,-0.4885517425183341,-0.8591191707930482
17.381,0.09290239640148612,-1.2767673971012308,-0.6959193413461484,1.193066349459376,-0.08500375745928541,-0.5159048456398583,0.33216005802633713
17.391,-0.09813660671860476,-0.953734705154664,-0.8450636850562925,-0.8317897734700319,-0.025124315207312807,0.802923957370538,0.08445562354772192
17.401,-0.04159151805372476,-0.9356648412510863,-0.9204151531392373,0.8743637014779336,0.0019570732642616912,-0.8289528824245918,-0.02696027034948892
17.411,-0.03714412722083774,-0.7631265465771726,-0.860253417583272,-0.6172930022678108,0.01569425884521254,0.5004195188765337,0.07587063949501546
17.421,0.10671332191824728,-0.8288177868726027,-0.9376824431437758,-0.6445614292454889,0.023683875843350063,0.6610770702690986,-0.13723871244320343
17.431,-0.09058739772297643,-1.1017364077561762,-0.8269982449184905,1.1165656427051198,-0.0320251515867664,-0.9145563820729373,0.09971463252869181
17.441,-0.16818675079346196,-0.7061042407847457,-0.7612477181472526,-1.747791035313097,0.05657837246962447,1.6871224538311034,0.2590578145921132
17.451,0.3535352674565046,-1.3277898535542487,-1.2976359292306863,3.9596515644223023,-0.22394199500020612,-3.882180891743669,-0.7658650540184356
17.461,-0.44683572776264235,-1.150886171460043,-0.1167131354435701,-1.9361101585236922,0.08877088036592114,2.693860628616763,1.328489295807295
17.471,0.06470991194188244,0.3953602958604578,-1.279612824605286,-4.682201437949646,0.3424285474564699,3.0941802195333095,-0.860192880330241
17.481,0.6035039584480193,-0.5963686539355206,-1.1439132432257126,0.8301434876557927,0.024762358188162456,-1.2831992713080795,-0.7789077685576382
17.491,-0.21013147032472762,-0.8237685899074061,-0.7119613714685864,-0.8140565023116001,0.0820072821813058,1.040690783698091,0.4728331439105072
17.501,0.4767631096563206,-1.6085702527543362,-0.8013875490246649,4.2453544256365685,-0.22788630079690744,-4.087913598505922,-0.33312057366057085
17.511,-0.6650161892226457,-1.3560812562437219,-0.7876497609761514,0.9502864011764472,-0.2141719770857781,-0.16536573036034172,0.8015061725182316
17.521,-0.10512746796015063,-1.2503794137307,-0.8119377438615746,1.0513146448511936,-0.16055448532788524,-0.6764192031716901,0.0715033232900056
17.531,0.04482732846092612,-1.120986492860799,-0.810950454605203,0.8554765655693063,-0.0599318947530202,-0.41901727875920747,0.02574106407898791
17.541,-0.2868314321190584,-0.8530248907673731,-0.7261561134776027,-0.5182795215350702,0.04554804135387742,0.686569528840226,0.3171776963104268
17.551,0.003650880304703868,-0.6514443654593268,-0.9442544428865598,-0.9282667931206482,0.0008942045234961285,0.7559044809525896,-0.20917401776353592
17.561,0.22355701466031405,-0.28876143837680485,-0.836161286482409,-2.1050754721464666,0.2284947895466251,1.4632442421575766,-0.2888801836090117
17.571,0.19278167750330655,-0.030055988757533313,-0.896505791573847,-2.755534027840589,0.31158314484230903,1.8499494765824136,-0.31511123400033264
17.581,0.14515654962252458,-0.406988797426514,-0.8678688504182358,-1.1047711457157405,0.1846499037293369,0.6417044874886448,-0.149313888868895
17.591,0.14823601535397907,-2.412772512570516,-0.9317063494436604,6.488040917751182,-0.6773635427144268,-5.256824309110271,-0.038759965197301884
17.601,-0.7823077696404355,-0.5342746623702551,-0.644784912126079,-2.6025515075133856,0.1410296229736367,2.7817265260622532,0.8886993031532036
17.611,0.6019798779536387,-0.7638619770551607,-0.9116226179526361,0.9280925906233992,0.0695347373698741,-1.183553599513362,-0.7577564117313683
17.621,-0.10905919255251736,-0.9533954254721708,-0.6963399872173368,0.35839235216224286,-0.056264598602250956,-0.09826515543711624,0.3966933110282672
17.631,-0.27925618372299005,-0.8069907231769995,-0.8400336186081955,-0.49302896719915706,-0.08946176021975487,0.46295356486900635,0.123447913833071
17.641,0.3186485815864174,-0.5331516307707623,-0.865725003247403,-0.48984577623596925,0.1412544038445008,0.18894855144312703,-0.3793091465613837
17.651,-0.11183778956073478,-0.7742817570515104,-0.7905197575368325,-0.18880290955998866,0.033918354248850764,0.29023307809346943,0.13167028941595563
17.661,0.07912415075961376,-1.0961119528411007,-0.8102987704908425,1.2528210600022742,-0.1663550206320605,-1.1503430591829342,-0.07329302419807145
17.671,-0.13440957860606395,-0.3804371873336578,-0.6605592937934261,-1.8072621031417408,0.1953005292984295,1.4878401898542355,0.23330933014084543
17.681,0.21432866556516914,-0.6493394096834233,-0.8464407524970694,0.16481401460969333,0.09928035172682093,-0.3444751107515549,-0.3300462043914824
17.691,-0.13140103201112227,-1.3892226673728902,-0.7831503740921123,1.9550993227624904,-0.35817246684552173,-1.2556120172696263,0.24197366292142664
17.701,-0.13525418528779518,-0.599830490740822,-0.499680209189068,-1.0387733505497039,0.1040611472726897,0.7789528211799844,0.3006315963249373
17.711,0.13824960444916276,-0.24931344297039434,-1.0217619293392743,-1.1684512282924902,0.16614750448540203,0.7555501643589607,-0.5545719163787791
17.721,0.040640321292276876,-0.8805547787002888,-0.6763023949727773,0.6087212375870127,-0.013028461406567687,-0.31630475220220566,0.13702193677081878
17.731,0.03844402529671132,-0.9898313572743296,-0.7389193741147282,1.0227875734702585,-0.16364823353866104,-0.880782860060379,-0.03767840936873438
17.741,-0.07832571489619136,-0.04917040475007496,-0.6961522892959091,-2.2848731081934996,0.3140861648491762,1.715824499126303,0.017181121331117714
17.751,0.2151240560313031,-0.7236732108456635,-0.7300162045085736,0.4800277707951159,0.0007210594167204442,-0.5300692433524175,-0.2353004691714726
17.761,-0.02268079878908168,0.003653873771514887,-1.0000049061977814,-1.993216158208447,0.33045445221384473,1.6052959594272012,-0.3552602766417976
17.771,0.3645193013451251,-2.8779675439011663,0.12372518745328584,7.237304081390875,-0.973592918072365,-5.825280422738305,1.0203605393799016
17.781,-1.6551914673900763,0.6613684565708527,-0.9016870790938065,-7.203229435879911,0.3924153688962001,6.523038139694824,0.3648909159710164
17.791,2.0380008814470467,-0.026433063003601685,-0.9919278401918311,1.936412861178188,0.6527034593407242,-2.745155428708679,-1.9687292278953012
17.801,-1.1055416154123654,-0.03326585606204353,-0.485393707061762,-3.6344791348691534,0.17326428091408644,3.516013762389252,1.339561805784449
17.811,0.9663094879928353,-2.5757419166719777,-0.5942616169131346,7.514295879987337,-0.9698241893582219,-6.50540475108164,-0.7405965329860629
17.821,-1.6312964365345541,-0.03474794468688048,-0.43738377999404765,-4.981936659678514,0.04389674196083496,5.016427377981759,1.3948639140087342
17.831,1.2900164430058911,-1.1493908311144452,-0.6987356561948435,4.238870769762939,0.06590112718410612,-3.9524698803173366,-1.19121245374297
17.841,-0.667969000717767,0.03179871967372075,-0.5029083563559569,-3.04851825005316,0.23972545576616083,2.7611451045159225,0.9207748915080507
17.851,0.5117842634550301,-0.007720014882963015,-1.1048188030010042,-0.7701399147078284,0.21685146494599283,0.0024926594512535948,-1.4221580007741101
17.861,-0.003926579915562672,-1.6542647498724994,-0.0833690629906217,3.1424319532822125,-0.5184643086985827,-2.197627954249159,1.0439224807238106
17.871,-0.7531796125121838,-0.6783224932211191,-0.386466679995833,-1.3375889034867405,-0.10946407608492201,1.503222638724075,0.43370255277761244
17.881,0.6439291265460029,-0.451689897439707,-0.8547853348605412,1.1842065961732653,0.1637669850648551,-1.237385342787062,-0.7431637844264773
17.891,-0.3161192496353388,-0.8085354662952736,-0.27349951019718266,0.06770812119991533,-0.1783039638208056,0.17284453473497366,0.7049034121919392
17.901,-0.03103883047462526,0.048642220252718305,-0.395136642022436,-1.7006746035556695,0.3153997595989755,1.1320017030306235,-0.12209455847157898
17.911,-0.045969510667043086,-0.6720755147086537,-0.6793834450315276,0.31593234264076325,-0.20154638817619072,-0.07979897068662088,-0.2928424660162437
17.921,0.44710607155899923,-0.4301249137337505,-0.5247495154535975,0.8077210250795814,0.15271083560233953,-0.9999861417372374,-0.11974614895472084
17.931,-0.43872518434679764,-0.18509397197925986,-0.435223696435337,-1.8294261302469386,0.09153446436101213,1.6601711140504187,0.23060099437537696
17.941,0.28653916545704405,-0.6697748710582041,-0.6431431251316903,1.349266410227029,-0.08334755375678111,-1.153699276581088,-0.367084759012257
17.951,-0.05298937053340848,-0.778172367319752,-0.4391105648336204,0.6167838611904316,-0.19072925000278113,-0.3615684325245817,0.2592020268998368
17.961,-0.15498371969374508,-0.20240250017209002,-0.40620736202492713,-0.923083621231214,0.16133381975662406,0.808287294976656,0.12861181952855621
17.971,0.5554452508183941,-0.18711278732075748,-1.2383618561405303,0.5451109849573182,0.16940493013254432,-0.7485268699481857,-1.1582828882898084
17.981,-0.787717783021456,-2.039610492753455,1.3509853240695866,2.9307309066963168,-0.8723801868863451,-1.6147250050604087,3.1256048659668565
17.991,-0.060325410665861556,0.1558788614081407,-1.513155036237658,-2.884326880795855,-0.051558791084387066,2.2091119283055907,-2.4478764134709974
18.001,0.672962937024931,-0.7267344170233644,-0.3499613774359153,3.241004468410258,0.1562326840560652,-2.657167670653368,0.5702549009957569
18.011,-1.4007655238056582,-0.4129826085167254,1.293514349869653,-2.7985230788941524,-0.07217343567773893,2.6135999425347607,2.38236946592263
18.021,1.708079731240949,0.7380928209546235,-3.189607413426588,-0.1269623281707286,0.3600632859566853,-0.7817436124084468,-5.0512674626576635
18.031,-0.6376572348516579,0.017464266890668965,1.6581833310950613,-0.6495279032990212,0.7047506012041698,0.6667864543271884,4.015355532117947
18.041,-0.32766973116186027,-0.3399041544205807,-0.7551592811548532,-1.709527462972919,-0.3462700483061255,1.3460241181447687,-1.607482133917913
18.051,0.803654665350691,-0.22624250268000806,-1.2021151112196653,1.8828108860253225,0.11328254860783335,-1.6067732524231884,-0.8951912193380611
18.061,-0.46750289292833647,-0.32875113884342355,0.5594148897347342,-0.7618205034950716,0.08286524666130478,0.5592539535462018,1.481143560109517
18.071,0.14552284845381674,0.08943240817058375,-0.7984949998298103,-0.8035759690188166,0.12291103553486557,0.6186335388526727,-1.0314310868635117
18.081,0.006156613449829746,-0.8102123665079732,-0.13454911483092202,1.3591705445333675,-0.34034015703354664,-0.980894718686621,0.3574207989059625
18.091,-0.0625880779404255,-0.25022700877977394,-0.18015888603546928,-0.20761151291647117,0.05020737567442252,0.2080677849054507,0.1764157880559979
18.101,-0.07371285126979457,-0.4763493329018546,-0.21691549515395633,0.2128092800690127,-0.2003838290847404,-0.10618034988727124,-0.054346021084580746
18.111,0.08986723431733687,-0.22966346683638025,-0.17338159912911388,0.3236791590550289,0.029900117381807496,-0.37980856458134044,0.0800637761181247
18.121,-0.18471498977120346,0.25874908408219527,-0.06683999417961492,-1.4271240774727771,0.31312238928300307,1.175966963812747,0.10762831924738439
18.131,0.08441174081951457,-0.8013526525834949,-0.26063112306096514,1.4899677124708148,-0.4169518608707123,-1.065807550228297,-0.10086199036875354
18.141,0.18225655797514792,0.37837258500161597,-0.49498068627547986,-0.6902548523096117,0.35414129293336893,0.3490960000692167,-0.3167129181790806
18.151,-0.2668657141935401,-0.7861862292228398,0.15331639804448785,0.4772068132622182,-0.45982505738305335,-0.03998759608527847,0.4633596640382129
18.161,0.1602437521895829,0.07623195733397121,-0.3037137124689529,0.0997623165371357,0.1967823768532368,-0.28568517425517753,-0.2693827178670214
18.171,-0.02287761166961141,0.29720486466558255,-0.11253750075408427,-0.9860225735089697,0.31478003594888904,0.6550793337804341,0.020941324483042395
18.181,0.10024616885896975,0.05210061555267782,-0.12272163020430629,0.1421171622679327,0.12426400695819159,-0.1805511148518726,-0.027643217629100686
18.191,-0.2549208284881187,-0.5544420006358568,0.11516735220972256,-0.03951456871338113,-0.3564764627004126,0.32117044674827533,0.23780984621392695
18.201,0.19421568441463194,-0.06244805090283157,-0.3479098956584392,0.6073900034957149,0.03841571729873583,-0.6689241747541819,-0.37781037035308884
18.211,0.10232659261449725,-0.08997748073169123,-0.48293014650601823,0.12930190364639946,-0.05228043257048135,0.005589545596688544,-0.21736768866134795
18.221,0.07230957216485384,0.27035981598844344,-0.6301381997707259,-0.5238561886330386,0.2721899535164765,0.5031683779494014,-0.44545251446988865
18.231,-0.44188351120001773,-2.499956648851962,1.7790286564820175,4.278034269701134,-1.8301001468303033,-2.686090258215457,3.118770533471472
18.241,-0.9758955673782096,-1.265220584247325,1.358566012654076,-1.7323134081094869,-1.1987571797214378,2.011270589725039,0.36902187122006536
18.251,0.9545834774191866,2.3007866276034528,-1.1956602139133206,-1.127352800669944,1.9644354181709451,-0.5524831281407235,-2.3978054833417457
18.261,0.5512075229085478,1.0224544334155463,-1.6795854171493552,-0.47773792025803063,0.7000715149051101,0.07718822757540228,-1.2727182553423924
18.271,-0.4718969686451184,-0.25847693457146503,0.8852145497039781,-0.6712326667508444,-0.13303990216093267,1.056119112245222,1.5227367378735202
18.281,0.030289489327646055,0.7102025376964664,0.27427797669895465,-0.6258653257330319,0.6950453682888043,0.20519285791858388,-0.14243215288417369
18.291,0.3621427996403069,0.7543478376095634,-0.9558016488798453,-0.39086635362682104,0.35392529909348386,0.036106629179716035,-1.2076492199342301
18.301,-0.32486496478804316,-1.8307442488622572,0.6788158649986293,1.999865616974627,-1.4999761650955197,-0.8631971077932301,1.20921744093519
18.311,-0.30391851592227836,-1.443515448544582,0.7853809646097714,1.7831157993046247,-1.2055266243838962,-0.9260342270148394,1.1333563418695298
18.321,-0.41042928952467084,2.9225849970674993,2.2815188211446333,-4.863269811072257,2.527641371258215,2.725228228538862,1.5060963016959192
18.331,1.7626952422897457,2.317036989033533,-4.8823555160268315,-0.21324005906960516,1.2433886924889035,-0.8838212503394941,-7.012389065398866
18.341,-0.5567100249853494,0.9185374472471705,0.974534728471824,-1.8808272304390838,0.9431558747313825,1.876180688858081,2.6628976846588133
18.351,0.5052497007952303,-0.4573000696053619,-1.0706802531352608,2.7665146224669614,-0.5361399939618853,-2.3015364975759884,-1.2654772046073632
18.361,-0.5843590571789489,-1.5861177473897665,0.9583780730375414,0.41257931624789346,-1.6167638632732704,0.8938164528463167,1.685513750124627
18.371,-0.2219879996098768,-1.3688836209685145,1.3418779312535105,1.9257128246054613,-1.1148802543836023,-1.1884789097605402,1.126262258220831
18.381,-0.39235149924605844,-1.1122368306686596,1.0321073673106913,0.9631945788048515,-1.1570888179269538,-0.4450414926407035,1.2240188470684488
18.391,-0.44983390244464694,0.015287497138463934,2.4662191676561274,-0.7121100914854669,-0.049088886619769574,0.28146017495680514,1.7327736913944067
18.401,0.8760293447217201,1.831590859853285,-3.1398076149058185,-1.259227398822383,1.135467314199165,0.3211119091973904,-5.140236610450791
18.411,0.10908384982220874,1.6508454436628934,0.26319833067170223,-0.25278145198502483,1.5346828408786088,0.091704880496382,1.767311984768994
18.421,-0.4481069278214295,-0.9772465266376152,1.4687326006021553,0.3804275964322947,-1.0772664908836382,0.06152060374745519,1.2814575148603065
18.431,0.1696407972623814,0.9940774033007749,-0.5343864823699804,-1.151570272499483,0.4779155565522908,0.6175815099934091,-1.7945591018316231
18.441,0.026420919783263518,-0.2752338539838243,0.787959401485673,1.220749229547936,-0.1643496358289206,-0.9604939245137489,1.0808696603936916
18.451,-0.18256449087704799,-0.3999778863773714,0.8618818546010194,0.24888343848195513,-0.672959161509671,-0.030810057818720638,0.6812106068463814
18.461,0.11035712713033165,3.5448891679346453,-0.09317166055648662,-3.693886846337246,2.9122362523560166,2.097164120351196,-1.4826585059814315
18.471,1.0336344061518987,2.114713498640522,-3.4239446112646155,0.6381341771909731,1.197971265188787,-0.9597353051886571,-3.804618661687684
18.481,-0.5815787066363846,-3.597630186402416,2.953165595707523,3.6156876975556274,-3.7877040288023984,-1.6154156971080136,4.840941388124339
18.491,-1.0413913557317565,-2.2558963326502472,3.0825888663295857,-1.0549912357493068,-1.7906670600513297,1.7944387770477237,1.5200755712907685
18.501,0.5252223405452973,1.6008107596550631,-1.0944747885630333,1.4117776531202753,1.4954152986206282,-2.1669907426589057,-1.662776710435387
18.511,0.163306535245341,1.7114004286947944,-1.1096585744253638,-1.466808885449301,0.6644987027060891,1.1438953631803004,-1.17903593577209
18.521,0.0629690475182909,-0.8771739842420484,0.3983594817851198,1.1564795034116437,-1.3055740941666831,-0.348230202841448,0.15893044198303052
18.531,-0.2987346818166373,1.0617987803350106,2.373896435755613,-0.9997363176245938,0.9223805729954782,0.6584251393908075,2.423645384610926
18.541,0.21105349742935595,0.5140497198813017,-0.7733311598738258,0.3381499353723362,-0.2867940669119596,-0.6265526201497592,-1.977781172266814
18.551,-0.04586984755833596,0.6689223464602655,0.1151076094552346,-0.805921856252457,0.303681251951995,0.8012577860959045,-0.44892362220441767
18.561,0.18408452465594932,0.808112530935541,0.823796301724582,0.8227396908093773,0.5940879107727455,-0.862643925865986,0.9580851028491545
18.571,-0.12401281262712127,0.7698232199550588,-0.015071746325643207,-1.1955671776680827,-0.018867461392441543,0.9992466880660124,-0.8882012661289245
18.581,0.14963219772354686,0.5243284287557426,0.1323792132531462,0.6633635674972462,-0.00039765071836935574,-0.6483207160798019,-0.3230700187127321
18.591,-0.09310185649732143,0.5422493452079832,0.8752487349335611,-0.2932964104211782,0.0698393543556243,0.37968607123365833,0.7110229759292482
18.601,-0.12681620329544882,-1.2503317824091909,1.014141657541214,1.2091319830415708,-1.5729440541871234,-0.6391005658600538,0.5558047130742614
18.611,0.08791545757055354,1.0740694571929152,-0.45376702264382074,-0.44323851711886275,0.3854319105207148,0.27702615063559194,-1.0725961529976422
18.621,-0.2644966994821903,-0.5403601686119606,3.278140223521217,1.0512975701166065,-0.7536015911695504,-0.7597302464639981,3.69779547629383
18.631,0.04188450885539664,1.1856218281630004,-0.8062375903246172,-1.7218859277663812,0.4432062935439066,1.2733707542549113,-3.2147373312526817
18.641,0.34929834259931825,2.00851753682314,-0.6554455898052008,0.3730538350477752,1.7044302743602175,-0.644214941176774,-0.6817492793792629
18.651,-0.34060804197796035,-1.7987779905517884,1.9548529712614724,1.2685804356581354,-2.138163175918568,-0.43893377121286653,2.571720960667822
18.661,-0.3172837958638699,2.7455303726662645,2.5813190705268845,-2.812965030547691,2.400613459498078,1.75591853513642,0.7910221347136893
18.671,1.1293526689980116,1.9812375399466842,-4.985316825897605,1.9861793175963771,0.09903200151905436,-1.931232874766947,-5.923131076760223
18.681,-0.4856945735944553,0.06171191086192941,2.1138840182521017,-1.5838209839417126,-0.6255623758886187,1.9309469839598588,2.2882929054259096
18.691,-0.049142195899543,1.7363179091568162,1.2876123575107599,-0.10845724383370815,1.8225509089173382,-0.47997917924538114,0.36097853358642185
18.701,0.06701772564872492,-0.08995787257257397,-0.027130821626238012,1.0446214000777978,-1.1269908108593072,-0.880566276498884,-0.05271332521141298
