marzuk-umich/fetch_joint_controls/test/actual_all_joints_velocity.csv
Time,Joint_0,Joint_1,Joint_2,Joint_3,Joint_4,Joint_5,Joint_6
12.141,-8.709588045950445e-05,0.00030174760061153934,-9.634938801921327e-05,-0.0007410524666136998,0.0001333900075540266,0.0005636305281530385,-4.0450535680378616e-05
12.151,5.608161561770866e-05,-0.00020471924882666448,8.809072950753765e-05,0.00021302756763186964,1.5316366753819548e-05,-7.127341084662474e-05,9.03857008485063e-05
12.161,-3.029509575350523e-05,0.0005041817383488498,-0.00024792548320241083,-0.001971889067117017,0.00014164484616852198,0.0016424029139365374,-0.00022829543452679423
12.171,0.0002110610303619074,-0.0006080318918203739,0.0005023205794724595,0.00223395451845069,-0.00023104165803310972,-0.002081345408203956,0.0002923317038249627
12.181,6.715575252436017e-06,-0.00019488769221186176,-9.789872908264749e-05,0.0010401659226021514,-3.180127669997797e-05,-0.0012545903168616219,-0.00011216688120734841
12.191,-0.00012388221722295823,0.00035531147087969106,-9.20527703567493e-05,-0.0007441346487918718,0.00015574655429430082,0.00043836148457396327,-1.454662535567018e-05
12.201,0.00010066308946214864,-0.0002547647406084173,0.00012551743735987353,0.0002630897684101652,1.0317859178611425e-05,-4.832843408704089e-05,0.00010218064213533293
12.211,8.955927027295602e-05,0.0005931203368274866,-0.00010482133907498316,-0.003467599911124934,8.388844832037603e-05,0.0026726368823298107,-0.0002827659513492747
12.221,-0.00012554309987361598,-0.0003926174371380683,7.575695492181866e-06,0.0012473500882853377,0.00011263437676981995,-0.00027261071978002807,0.0002368451810570134
12.231,1.113678053084594e-05,-0.00036733386781350526,4.9875494645558785e-05,0.004960880965034446,-0.00023429320682903518,-0.005058288024695892,-4.85274864004126e-05
12.241,9.606409105239046e-05,-0.0007568921794898928,0.00025357250894291866,0.0018239299109641222,-9.51321586374833e-05,-0.0013141767514860817,0.00021569260608699433
12.251,-0.00021773064680236678,0.0006206466055130816,-0.00029980410802725417,-0.0016095294874992844,0.00018118918355244362,0.00092027592155846,-0.0001649698771967008
12.261,0.0001714518443482338,-0.00031847790545805614,0.00018621260363532808,0.0009632679030695072,2.5583595987311534e-05,-0.000703988453617285,6.678315765944366e-05
12.271,-8.177587291174318e-05,0.0005682236526038918,-3.965244272450917e-05,-0.0046426658143995225,0.00012092249642327879,0.004354072616195289,-1.1310691520358539e-05
12.281,0.0003016250244969879,-0.000433252113438853,5.5594080128785616e-05,0.0025068944086882425,-8.224516234397227e-05,-0.002610567488777049,-0.00022854298950664533
12.291,-0.00020764449188480084,0.0005857707721235092,-0.00011761997951397832,-0.0015968276338345936,0.00019168499959736402,0.0013471782439739366,8.207324181306093e-05
12.301,0.00010446789182325411,-0.0003742991899819806,0.00011514555013094553,0.0008031391505302501,-4.488460039094456e-05,-0.000522183177769916,7.324586245433785e-05
12.311,-0.00017452459389579104,0.0003781646036579322,-8.008616256036501e-05,-0.0038062950717986095,0.00011810900693469275,0.0038119770086843157,1.042657817708051e-05
12.321,0.0002690998544114237,-0.0001780532531374602,2.3725173159049064e-05,0.0016861785661797832,2.980921537034726e-06,-0.002122043824026559,-0.00022471351007450233
12.331,-0.00011404715766543401,0.0003466881586603975,-6.450736113809252e-05,-0.0010528216959834577,0.00015634289094191341,0.0009169155642915758,5.4358160815056133e-05
12.341,0.00015899293407197957,-0.00023970218342731091,0.00012510613951224346,0.0018985313031921222,-0.00011443390980133124,-0.001993462169656243,-4.501770069917923e-05
12.351,0.00011802480620024483,-0.0006835309235823636,0.00011050545806378512,0.002010319565719551,-0.00012077385617525468,-0.0015616896043094996,4.864550513196159e-05
12.361,-0.00027701930866781753,0.0006529420143893563,-0.0002450458413494264,-0.001550357725833076,0.00020897948937037173,0.000936122345620942,-3.506271617414394e-05
12.371,0.00016186015877827652,-0.0003409001175377093,0.00019456252141410076,0.000885838399139609,6.769762281627864e-06,-0.0006423135996072536,0.0001150187837259337
12.381,6.874336755885812e-05,0.0006173024825668098,-0.00012339611690017946,-0.003935734848760286,8.091797308190429e-05,0.0031585583026488675,-0.00026890820927609444
12.391,-0.00010098051446916879,-0.0004167578100841046,-4.304650608640535e-06,0.0013616406946551252,0.00010215131016683647,-0.00040018906711708767,0.00018489978626924473
12.401,-0.00014449556986873745,-4.8808557617568e-06,-0.00012592459631970737,-0.00010873049844357748,3.3477170542359767e-05,-2.3600742892010675e-05,4.5174163751488075e-06
12.411,-2.2292420479321764e-05,0.00022709597009129296,-8.902178058927583e-05,-0.000136497669515996,0.00011459451168909129,-0.00021951573332566076,-0.00012198120196799773
12.421,8.18624487044312e-05,-0.00014721750142875154,0.00010818461912083879,-6.130921105642855e-05,3.7469039353849786e-05,0.0002630884007668166,9.527778023292366e-05
12.431000000000001,-0.00016070010060141785,-5.6897754716429794e-05,-0.0003654915364065058,0.0028509464795839537,6.0819834414776194e-05,-0.0023666410752695892,-0.00018259018721901405
12.441,4.6253514704343713e-05,0.0007686168575353442,0.0001267274940785496,-0.007992979618968301,0.0002746777788304738,0.007352373678571212,0.00010415838567627309
12.451,3.578045741397867e-05,-0.0003038224782609324,-9.784353195176746e-06,0.0004803079286829428,-3.787675425297274e-05,-0.00041242415009920183,-3.083990928245929e-05
12.461,-8.315324671133914e-05,0.00045787427328424223,-0.0001994733809590371,-0.0005935833534714601,0.00014970172416672287,3.0239593234535165e-05,-0.00020312148606934694
12.471,0.00011176456716435978,-0.00019253564124040417,0.00018604933546893443,0.00018811243940963134,4.761051926928775e-05,-6.248384018289655e-06,0.00016705488203786265
12.481,-7.140066118618374e-05,0.0006836709079238272,-0.00010328076778710237,-0.006382569366681248,0.0001719074429250363,0.005921415028410468,-0.00010986111320915147
12.491,0.00011509406354762454,-0.000725070118259373,0.0002432769690941834,0.001297872619937236,-9.761562119079353e-05,-0.0007701315736031815,0.00017904765134869435
12.501,-0.00017264041739375216,0.0007462689287800394,-0.0003146582452216286,-0.0013112481512088526,0.00019230121212339475,0.0004326393683633397,-0.00022842285774644032
12.511,0.0001639456569081014,-0.00029355174288180677,0.0002133145058905777,0.0007231744045313293,2.2426830395512205e-05,-0.0004786505698253699,0.00012049371757779897
12.521,-0.0004907138290189381,-0.00011373009614702983,-0.0005409539327355382,0.002348720926302889,0.00018308240286716323,-0.0009300657504153543,2.522154161227618e-05
12.531,0.000120420390811559,-0.0008489189791908952,0.00017083388337459744,0.002768971419411708,-0.00015285864151634327,-0.002359333300809039,9.126296716879692e-05
12.541,-0.00029313258897886545,0.0009209123615421752,-0.00030301215480209553,-0.002020613539250646,0.00026793523159763995,0.0011811007098250811,-9.996469824511186e-05
12.551,0.00023105424129752746,-0.0005021491751344703,0.0002596683781887202,0.0011220761676243732,-3.0572714988462524e-05,-0.0007337581840721225,0.00012601800898193017
12.561,4.111711022978783e-05,0.0006627048864155487,-0.0001649992438939556,-0.004280221192208256,9.205800168617037e-05,0.003528491710281104,-0.0002977391594201472
12.571,-9.944121724862707e-05,-0.000533218026223337,1.350996546182928e-06,0.002744838913903411,8.711437863194091e-05,-0.0017059259891466006,0.00021561727060630622
12.581,-7.757563090508547e-05,0.00018246085722930207,-0.00019198189487453144,0.00011414930809826556,4.1268124586052275e-05,-0.0005961271389757362,-0.0001322758629013351
12.591,-3.8127919854905004e-05,7.518377886133995e-05,6.479492457385238e-06,-0.00012206875512217667,8.146210039966742e-05,8.228743047829603e-05,2.5348206898867984e-05
12.601,0.00010182932007307506,-0.00045299415910280273,0.0003714239645543252,0.0018503602987863677,-0.00018934878237338541,-0.0015604854845050146,0.0002518802293370964
12.611,1.5565674207052292e-05,-0.0002071224849528702,-0.0001172751702875297,-0.0007307865374252803,3.3929205086715466e-05,0.0010795134329801212,-0.00013114241257927112
12.621,-0.0003620112471251506,0.0004029368916326464,-0.00030066056283078806,-0.0007199466204471016,0.00026578135742960694,0.0009280776539683038,4.1779687097765695e-05
12.631,0.00028164358152616087,-0.0008281247164514947,0.0003626364977516671,0.006237409271887631,-0.00031381289365131317,-0.006105971276892202,8.052869315217511e-05
12.641,-7.340638411927809e-06,-0.000688628489880018,9.443298944324096e-05,0.0011697161842054904,-0.00010523405800469271,-0.0005881291179438977,0.00012099263211976983
12.651,-0.00020262273682402607,0.0006519768897376188,-0.0002714372722980769,-0.0012047081171028375,0.00020955641207434178,0.0004390040678898807,-0.00016715777616617807
12.661,0.00017430528025741068,-0.00025993533229071066,0.0002259350420972486,0.00074641987920438,4.845805265551701e-05,-0.00043091106922520307,0.00014352118138944602
12.671,-3.133091427118857e-05,-0.00035967807819554216,0.00013953664092476834,0.0024201011704314936,-0.00023551434397676887,-0.0019883724262773064,7.585920246800545e-05
12.681000000000001,0.0003480886910948471,-0.00024260207398184733,0.00024639628012794234,-0.00017530169388929365,-9.764559481449981e-05,-0.00021718019743610818,-0.00010184432642713724
12.691,-5.836919503296436e-05,0.00045660305339584485,-0.0001427886333916392,-0.00034549783991799453,0.0001305039611013635,-0.00022746578323678496,-9.018813522117822e-05
12.701,0.00015855191835208786,0.0005157579983145231,0.00011037114746943912,-0.0038505737267157092,0.0001300837200835341,0.0030746560166563415,-5.248060416570228e-05
12.711,7.384448389135631e-05,-0.0004678959858041238,9.320554331286997e-05,-0.0006914775935325762,-2.718051731777757e-05,0.0012819119015508613,0.0001250207200669931
12.721,-0.00014714140270772523,0.00023612659103840173,-0.00024995775594179975,0.0002546397626044161,7.91864354057823e-05,-0.0008265414175996638,-0.0001785075064118096
12.731,-2.2638293385437603e-05,0.00017499306749650532,9.635862204833636e-05,-0.0002658756180129767,0.00014936865025855158,9.059710128417689e-05,0.0001605828057544305
12.741,3.889969091701055e-05,-0.0002710943375549205,-7.325476248490394e-06,-1.0420377246465754e-06,-4.0851715668842255e-05,0.00028993863349871535,-1.2997792336469179e-05
12.751,-0.00014131901727928019,0.0007520033027594617,-0.0003064903129461188,-0.0033871359112779918,0.00022319295045714903,0.003209387224025836,-0.00021646083717430717
12.761,0.00026946683807538047,-0.0006514448928461835,0.0002731671420082957,0.002274489893139183,-8.278842561173481e-05,-0.002029275637551997,0.00013470800650861964
12.771,-0.0002794592331897422,0.0006078101910025257,-0.0003315350345301548,-0.0016026888898816411,0.00016179769883667254,0.0011303672871461998,-0.0001487693631761409
12.781,0.00014871561861124353,-0.0003398352905345335,0.00019881310250163245,0.0008459837297529969,5.76664856139041e-06,-0.0006238321658195014,0.00011563423565575776
12.791,6.71853879739903e-05,-1.2411849792288879e-05,-3.1578758662193724e-06,0.0024836617040608962,-0.000112986290230329,-0.0025966958737181915,-0.00013216668408670576
12.801,0.0003431437676660253,-0.0007995538817290361,0.0003811275371770076,0.003909481196804454,-0.0002491300660214291,-0.003718692705821169,8.753757690770691e-05
12.811,-0.00010908255230117396,-7.773865130838271e-05,2.5666322753795567e-05,0.0025487729836686955,-9.585036364265787e-05,-0.0026783972147443767,7.982488969124257e-05
12.821,0.00010038596662840705,-3.66850309891822e-05,2.225991281969039e-06,-0.0005755361809575308,8.470014251961639e-05,0.0005016423468058406,-3.308235144351916e-05
12.831,0.00015247983402784328,-0.0002468781727267004,0.0003020269803522751,0.0006285133012248617,-0.00017456611500423866,-0.001062443897504691,6.595767776327322e-05
12.841,-4.882811510599057e-05,-0.00015403606013764077,1.2562828532608718e-05,-1.0868800890210682e-05,1.5864061498976602e-05,4.362424173039495e-05,4.885914398652739e-05
12.851,3.522124282801076e-06,0.00023780376558646196,-0.00010217381140787535,-0.0002567621212938476,0.0001121057602155307,-8.498193767975581e-05,-0.00013878183656170276
12.861,5.439946648322324e-05,-7.606837809247727e-05,6.251154447556342e-05,7.68792339616363e-05,5.375674977358784e-05,0.00012135009836407029,4.189812951120029e-05
12.871,7.62206506782411e-06,-0.0004747043575779982,7.02865662993089e-06,0.004958589569276955,-0.0001664129592927856,-0.004434725703469995,-2.081658042083615e-06
12.881,-0.0002399304827766346,1.891063125769114e-05,-3.3057828450748397e-07,-0.0021481073332099013,0.00012872690576879012,0.0029962704519561627,0.00029495810868836446
12.891,-4.93899390399133e-05,-0.0002744544838532237,-3.6614540656607915e-05,0.0008082080072762984,-4.3050032560274345e-05,-0.0007114726897708972,1.3279995421712982e-05
12.901,-7.723832557249852e-05,0.00038659471977028843,-0.0001369762370301695,-0.0006272062936440416,0.00014446782740063532,0.00023691769574592567,-0.00012398686533684507
12.911,0.00011846365813644766,-0.00020318780175596616,0.00014060810272294248,0.00019893487154602969,3.4837547324388684e-05,-4.253995854081363e-05,9.91651992954143e-05
12.921,9.738122377837317e-05,0.0006032065642253316,-9.598929278716525e-05,-0.004015378774481493,0.00010572132594352071,0.0031551725784986426,-0.0002666445635482433
12.931000000000001,0.00010914583503733149,-0.00023809830124118782,0.00014322426622697046,-0.00041977852312239045,4.262264265255479e-05,0.0006429303024117869,0.00015248015470405645
12.941,-0.0001231952354437375,6.624146720082746e-05,-0.00016404189815239333,0.00021608344715817463,3.593627761174424e-05,-0.0005827100369780762,-5.598160235086933e-05
12.951,-7.441820692416493e-05,0.00012580967290712705,-1.8689114843032372e-05,-0.0002452772379509677,0.00010732402311756024,8.627923211011258e-05,3.337750457228778e-05
12.961,5.640868456590504e-05,-0.00017493157857184053,5.534520643014123e-05,-5.846472140603223e-06,1.7168784154160044e-05,0.000195159776437386,5.037935254671082e-05
12.971,0.00010483110516737814,-6.968655234808926e-05,1.384481956092875e-05,0.0032151397388658484,-0.00013481972342510053,-0.003371392638184462,-0.00018276890125257483
12.981,0.00036149751809031263,-0.00027175895494855706,0.00037886549676327097,-0.0006098340256703492,-6.861480359669042e-05,0.00037577647585059973,0.00010720424680778818
12.991,-0.00011522498164867963,0.0001718830290044757,-0.00021763151714755636,7.33547906374729e-05,4.215553655503343e-05,-0.0004607074767048325,-0.00013962476974072898
13.001,-5.5294390481620904e-05,8.880474648812025e-05,3.5490006157622644e-05,-0.00013212567766271986,0.0001053678018880051,6.833882256892622e-05,9.29689038411323e-05
13.011,3.057998360232358e-05,-0.00015271894635048448,2.396101195074467e-05,-4.6780903191183325e-05,1.7564499772055496e-05,0.0002521183794753357,3.855787739928122e-05
13.021,-0.0001339197724070713,0.0007547139124280528,-0.00031470297400879586,-0.0032919747979623143,0.00022947720348315867,0.0031383959503286088,-0.00021964468988222384
13.031,0.0002826209876210142,-0.0003332456487117031,0.00021702110027312674,0.0001646710158192047,-2.642993224000836e-05,-0.00010941114556743767,1.0192088768012126e-05
13.041,-8.319090596933168e-05,0.00037462986817405914,-0.00024380819210917658,-0.00043280038573739374,9.980021850041835e-05,-0.00011299849914613833,-0.0002187316730849572
13.051,2.3579575575431228e-05,-7.459734626660507e-05,0.00011250640788857911,0.00011590568101564558,7.172970577415017e-05,-7.274892352042745e-05,0.00013070288363030007
13.061,-2.3635388815477542e-05,-0.00010425571951865253,-4.730603625350232e-05,-0.0001904614715162582,1.4321252668683923e-05,0.00035332049130830715,-6.504696697939802e-06
13.071,-3.6536992661321215e-05,0.0011574222985177424,-9.048220950122539e-05,-0.009199840426168915,0.0003396598587582382,0.00825204997473507,-0.0001351863405965651
13.081,0.00021171148497713696,-0.00036159938727250746,0.00015631005733000993,0.0004320365551909844,-2.8968180894790573e-05,-0.0002739862103996996,9.669668290732921e-06
13.091,-7.340736565528572e-05,0.00041367153801136235,-0.00024658703673747335,-0.0005524156581283493,0.00011709626522377585,1.1966667503277777e-05,-0.0002488700700187796
13.101,6.209885753387746e-05,-0.00010967706360338437,0.0001455169655345057,0.00017675761348540293,6.599818391416303e-05,-9.027518932726301e-05,0.0001447341724430829
13.111,-4.098881473173334e-05,-7.685973370509554e-05,-7.79518198082111e-05,-0.00021227960480884735,1.0114604897094415e-05,0.00037153974843902603,-3.229571561801405e-05
13.121,6.865320595626124e-05,1.3123975923435898e-05,0.00030632680701577766,-0.0007843526636204506,-0.00010010703266920669,0.0005366616519373868,0.00011887448024123603
13.131,0.0001299830463948422,-0.0003615178241500577,0.00010371050206953647,0.0006424202184402367,-3.396715381797098e-05,-0.0004742159912743701,2.3213874656736476e-05
13.141,-7.1682411345601e-05,0.0004295670286130727,-0.00022997348943817986,-0.0006338301791818214,0.00013072327123279,0.00011990884661046002,-0.00024003808343470563
13.151,9.747982355345879e-05,-0.00015557551225769945,0.000170213150215335,0.0002101463549211628,4.6729495014899045e-05,-9.733897725450712e-05,0.0001429344155053476
13.161,3.3664421380463625e-05,0.0007020837169906974,-0.00010226657036064517,-0.007204326153600221,0.00022269878587586833,0.006404357749449722,-0.00017301696725636204
13.171,1.3568349555810664e-06,-0.000390816598105035,-5.690615010474641e-05,0.003509805438825329,-2.5551566289311843e-06,-0.0031677512307842944,-6.259927060892314e-05
13.181,0.00023616442179308199,-3.773165049756363e-05,0.000457262461772636,-0.002813418738169201,-8.794074095306112e-05,0.0019162156944208418,0.000135252859268942
13.191,0.0002627972945234067,0.0011886685725888348,-3.6994168677500975e-05,-0.01186468777737465,0.00035544238078722356,0.009484464564840468,-0.00047288650622198637
13.201,0.00013085607348167056,-0.0007465429791085149,0.00032361632618380993,0.003315421994025178,-0.000125703916981394,-0.0033990505068121424,0.00010912595571174639
13.211,-0.00020045639938698955,-0.0005110633389035146,-1.3504929249629716e-05,0.002306124603008175,2.047770208598622e-05,-0.0020952304647458794,0.0001788882629908822
13.221,-0.0002773517384886226,-0.00032334649395180737,-0.00010109389421260171,0.0015533467188646082,6.796471853311151e-05,-0.0011836618730273825,2.5787292710028e-06
13.231,0.00025868181863526144,0.0021093260858539306,0.00013024706942927838,-0.018090435407163805,0.0006037055503701691,0.015637855599558107,-0.00039395988366804037
13.241,9.123384098373548e-05,0.005776152416019915,-0.0005550008423466221,-0.03276210756220864,0.0013799313411842957,0.029404240330195768,-0.0011414180533262886
13.251,0.004546229619585797,-0.003661599923232165,0.0008786247431442235,0.026559144446943933,-0.0013250810170557436,-0.030589786842308956,-0.0032676838591163887
13.261,-0.0014941898303794203,0.002927780170502472,-0.0005729876837973677,-0.004499519403391093,0.0006267222867024832,0.0014142076736850305,0.0008457777693111358
13.271,0.000486553000076692,0.0003153013901954333,0.00012021428853322617,0.00789142647733274,-3.252118726162893e-05,-0.011334553384938089,-0.0001403894038059417
13.281,0.00012151785256299679,-0.007699058913819697,0.0007613370889398305,0.04224312838135314,-0.0019425041671080002,-0.036090392011331615,0.001148830251346214
13.291,-0.004698431322172394,-0.0032660927069024545,-0.0001775548919131542,0.011791130445365741,-0.00021898546247573115,-0.004555349875756669,0.004218641084779366
13.301,-0.0018531446412003581,-0.0005018083834831613,0.00025267993173207275,-0.0012688960186940518,0.0003258923366799187,0.003334571809182507,0.0013272792975210464
13.311,0.00048230550562391224,0.003269590642138198,0.0003298824220352354,-0.03751106524130308,0.0011177534838208033,0.03688688324548535,-0.0008655147527478738
13.321,0.002270569131436292,0.005165629981344625,-0.0005963680833861193,-0.026544608132530567,0.0011428391200217964,0.02045878638455271,-0.003518971139771911
13.331,0.0037886418140525616,0.001719035137219385,0.00025828538346359884,0.007756071765857964,5.6950568141289604e-05,-0.013884135513025135,-0.0032940669054030087
13.341,0.00028557223659319945,-0.0032777024945863905,0.0005596640607833715,0.027657440413262117,-0.0010518365159262143,-0.02714062960867186,0.0010672916825814325
13.351,-0.003148349043346629,-0.0039012291552926485,0.0005454413854153284,0.0065452271202807175,-0.0007461816059294503,-0.001958312084511483,0.0037220664635888414
13.361,-0.001219740806561209,0.0020374526964313565,-0.0010825136536422749,-0.0009384417321359386,0.0003977895998333308,-0.0023326041132616182,-0.0007373776655431969
13.371,0.0008237667429029668,-0.002278687296186994,0.0016531283124883566,0.004229750304130397,-0.00016756172026098388,-0.0003559853123775141,0.0011738206390121395
13.381,1.0520192859078399e-05,0.002615728861544026,-0.0009767738619514163,-0.017196622810511382,0.0003473664793309001,0.014785070483383206,-0.0014355398670471142
13.391,0.0003611901283920841,-0.0007915015158662584,0.0009461757380187757,0.001922553539571997,-0.00010430051701323337,-0.0003460013684316362,0.0005027885315842318
13.401,-0.0006741000587055925,-0.00011275414404027722,8.693476454053775e-08,-0.005938568885557859,0.00018440341902651423,0.007413993882428126,0.0008027833464082949
13.411,0.00029006894835229187,0.0003483779434266819,-0.000862604984650293,0.0045013376596850984,3.132504122367873e-05,-0.0062998431665049585,-0.001469076005627347
13.421,9.453499550317497e-05,-0.00035993577818677785,0.0003930180213112888,0.004429384077944297,0.00019777191475895504,-0.0035049392667439337,0.0005855622605714843
13.431000000000001,-0.00010480670801798399,-0.001486303932073264,0.0002066568511177699,-0.001236938854390972,-0.00026208422062357246,0.0021983781332112636,0.000528781486284459
13.441,-0.0013091688663298107,0.0007779257668261132,-0.0008013400199092659,-0.0034762494725487252,0.00032570075185097997,0.004394031463873909,0.00019394587627780742
13.451,0.0011468437884886889,-0.0006179836517658829,0.0007746539706457654,0.0030486639618739625,-0.0001642729458598849,-0.0046517700102145475,-0.0002479247548650745
13.461,-4.907001879321212e-05,0.0008047001224695066,-0.000426235741627647,-0.002365589205769001,0.00016851479221320853,0.001836117283619277,-0.00035928537277632905
13.471,0.0002765574591469974,0.0010645223632159925,0.00027036963130931506,-0.011513752828428323,0.00024092033845429962,0.010198778296496682,-7.985913784400693e-05
13.481,0.0004950444189056002,0.00011969951285703822,3.095217301796442e-05,-0.0005052298313786056,-2.1895483232546913e-05,-0.0002652741711065927,-0.00047316116689667426
13.491,7.472136327078772e-05,0.0002637928895512983,-0.00023232928404910998,0.0025794128185768973,0.00010267948141469418,-0.003133842148579556,-0.0002926994267722498
13.501,-0.00018576270330886824,0.0006360125999206995,-8.488652779088549e-05,-0.0018579323374361277,0.00022240970319795052,0.0021590317088627745,0.00021814550805677812
13.511,4.639211793381393e-05,-9.619107891581337e-05,-0.00011499703104891203,0.004391269440274428,-0.00016101395646399866,-0.0030641827843613844,-7.206497250576061e-05
13.521,-0.0002789954411526551,0.0011866343252507703,-0.0004317943206244908,0.00035585803469333194,0.00020998544298389364,0.0015075287382238082,-4.935513863817186e-06
13.531,0.0001608196749362867,0.0005374977101215534,-0.00010192884819125954,-0.00022701184439853682,3.1119468000299116e-05,0.0024642288032329833,0.00012647737803722287
13.541,-1.2124329693860586e-05,0.000594460683874424,-0.0003908275613776209,0.0012661366478252,-9.960926556876811e-05,0.0002038453515641669,-0.00013518986363898896
13.551,1.1136958607297907e-05,0.0002761143000750147,-0.0002939125121097545,0.0014561264897579793,6.511298220687585e-05,-0.0004135597768226135,0.00010473444420152226
13.561,-2.5143444721252076e-05,0.0002775938907665402,-0.0004188072934646404,-0.0019566972883899468,0.00012038275834063935,0.0020579216798947,1.643302082796391e-05
13.571,7.234486145732202e-05,-0.00036166958574305525,-0.0002780625802987466,0.0009833843235237272,-6.164207144089879e-05,-0.0015101829463305737,-2.3838767427616827e-05
13.581,-2.6865779475706062e-05,-0.0003034629284267299,-0.00038327577661799385,0.00033253067999802364,0.00011740524153746134,-0.0010878791170231016,4.230065437269161e-05
13.591,-8.35359174018484e-06,-0.0001414830078987218,-0.0003938348163423563,-0.0022486073967714158,0.00014436327674415377,0.0011510185681989334,-2.7829743179049422e-05
13.601,7.646484825257614e-05,-0.0004470955754900487,-0.0001972984969792963,0.0006810299231436844,-4.028201528641192e-05,-0.0016045465870727325,1.2689784457436397e-05
13.611,-3.407124715495036e-05,-0.0002369711189353299,-0.0003204107443284085,0.0005672025055121876,8.348854201422799e-05,-0.0009477129005153024,1.5040240250697258e-05
13.621,-2.4619026698086066e-05,0.00015398949281808353,-0.00029014546611564717,-0.00194560069957374,0.00012866632175040962,0.001667462435128205,-2.408108634430153e-05
13.631,7.275227243361451e-05,-0.00010988035931310035,-5.776769879078396e-05,0.0011536930740745554,-5.653919360509775e-05,-0.0010544664401342199,3.220246383161261e-05
13.641,-5.2898025940622176e-05,7.267436882054113e-05,-0.00019532235728346233,0.000955589115894776,6.154796956430266e-05,-0.00038687279333374865,1.0155742624872092e-06
13.651,-3.2853578124145675e-05,0.00036629931518063316,-0.00013299195789039258,-0.001649577012229952,0.00011550434157835742,0.0020329924331751463,-2.333960047657406e-05
13.661,6.407225244398514e-05,-1.1531512796658281e-05,9.819717651442923e-05,0.0012659803025579556,-6.370675127588557e-05,-0.0008919908776796196,2.6375016014969127e-05
13.671,-6.0098760813855566e-05,4.2269290752431515e-05,-4.3556288700398455e-05,0.0009235000940306434,5.5860928713385354e-05,-0.0004365733225985413,-1.639939589115151e-05
13.681000000000001,-3.609983079022059e-05,0.0002499936642589086,1.781643942581844e-05,-0.001804728853294185,0.00011999392360808602,0.0018376282180054453,-3.6102853992152704e-05
13.691,6.119006442566631e-05,-0.00016942100079374078,0.00023260858230035055,0.0010592165132036874,-5.28597510092625e-05,-0.0011685949134720524,9.35689026423079e-06
13.701,-6.296434563609737e-05,-0.00011387638760717829,7.229151340218179e-05,0.0007184120791419227,6.870830618282712e-05,-0.0007037867252185666,-3.3420814014762804e-05
13.711,-3.759588135628099e-05,0.00013172198831415264,0.00011416449452865838,-0.00195787770782053,0.00013085532914640057,0.0016360883919241346,-4.761887631780798e-05
13.721,5.9359655078948015e-05,-0.00022850037923901072,0.00030298253819287507,0.0009808707632759758,-4.70952109373451e-05,-0.0012717371875066684,3.050983079145412e-07
13.731,-6.470103015875459e-05,-0.00011392981952146264,0.00011834451409878434,0.0007185270798904641,6.933289177508723e-05,-0.000704720613144539,-3.664722638236563e-05
13.741,-3.856657989393413e-05,0.00017876812219156,0.00013649138312996377,-0.0018968582050216147,0.00012735731675082943,0.0017170034417753979,-4.456017909005089e-05
13.751,5.853715941843989e-05,-0.0001551881391049805,0.0002994591452788033,0.0010768335216381516,-5.290157666178416e-05,-0.0011462747522112335,5.307547929533267e-06
13.761,-6.46496610079643e-05,-3.6988672731492467e-05,9.23070992597658e-05,0.0008192851668853528,6.323499922378185e-05,-0.0005722331511287028,-2.9367864841128113e-05
13.771,-3.689079898141821e-05,0.00024097596523592376,8.890625122408183e-05,-0.0018155817832515252,0.0001225030622148602,0.0018239846529735859,-3.796853623380047e-05
13.781,6.104103608723792e-05,-0.00011953238697596128,0.00023457022605494836,0.0011239450050751453,-5.572463157108493e-05,-0.0010842205687384217,1.1847977892631336e-05
13.791,-6.0443572019760054e-05,-3.0281226687802796e-05,1.413664678938056e-05,0.0008283611302481273,6.271802984078535e-05,-0.0005601388762635324,-2.2714788259452462e-05
13.801,-3.27561309459633e-05,0.00022328954779061907,4.532459221827072e-08,-0.0018387714359774177,0.00012390280893367466,0.0017937293200550666,-3.182714910520893e-05
13.811,6.612198515589038e-05,-0.00015287749088481489,0.00014038303036091588,0.0010809131937368401,-5.2932634421701806e-05,-0.0011408369214149583,1.859366796035008e-05
13.821,-5.5325185973752596e-05,-6.793007247419945e-05,-8.293312808073364e-05,0.0007794465818845932,6.593640133934582e-05,-0.0006245312263621239,-1.6202589271975513e-05
13.831,-2.8009588571435173e-05,0.00019106233170502302,-9.626626559582138e-05,-0.0018811777293959368,0.00012685790325001381,0.0017382317648915193,-2.5547552141143205e-05
13.841,7.060067968101763e-05,-0.00017390009313878612,4.88177766137713e-05,0.0010539522950566743,-5.073453903931793e-05,-0.0011765225195807646,2.5179692614367725e-05
13.851,-5.166913063312401e-05,-7.488671661608083e-05,-0.00016722882528749498,0.0007706836820670109,6.70803178383477e-05,-0.0006362491490497472,-9.8349433102243e-06
13.861,-2.5058569151899136e-05,0.0001969943373045923,-0.00017027923528626374,-0.0018737226316289397,0.0001269313985883187,0.0017482168846782594,-1.947361926063588e-05
13.871,7.346154713803206e-05,-0.00015960225795498344,-1.2910514382498655e-05,0.0010728750162035806,-5.157390073033816e-05,-0.0011518128830041317,2.9982796108725653e-05
13.881,-5.019987030053723e-05,-5.7171654354275394e-05,-0.0002151727732877662,0.0007941253255757163,6.581936857536473e-05,-0.0006055027936687896,-6.033882714020173e-06
13.891,-2.4693210494630348e-05,0.00021352313283222254,-0.00020320479260754515,-0.0018522991302654711,0.00012570459759361525,0.001776466719136112,-1.6609681315006128e-05
13.901,7.275354487652439e-05,-0.00014837923717094656,-3.045067821073186e-05,0.0010880749670350344,-5.240023080610807e-05,-0.0011320913937587945,3.1422238960371976e-05
13.911,-4.999571921895364e-05,-5.230637985730491e-05,-0.0002163980536401965,0.0008005707962842447,6.549210986046621e-05,-0.0005969319402168834,-5.873583070906562e-06
13.921,-2.5705607669928898e-05,0.00021238834467043066,-0.00019219325590591528,-0.0018542604744528968,0.00012546384097748223,0.0017740033008393913,-2.0065872906719595e-05
13.931000000000001,7.197189579426282e-05,-0.00015465820981799415,-3.4749337318495444e-06,0.001080159018679039,-5.1963981820535684e-05,-0.0011423237092287905,2.9327550150539934e-05
13.941,-5.246280735402813e-05,-6.0637943051529956e-05,-0.00018034304357825674,0.0007897319967256684,6.577344747782138e-05,-0.0006114984342882685,-1.0414353462413546e-05
13.951,-2.772602630020941e-05,0.00020438257247519775,-0.00014441027835461487,-0.0018652586123941066,0.00012614938763313857,0.0017599638934797236,-2.3668175511924348e-05
13.961,6.976843138959649e-05,-0.00016084608225038958,5.037141994455185e-05,0.001072159131723498,-5.175224162652945e-05,-0.0011531400556694083,2.4497032622806806e-05
13.971,-5.5044443016649255e-05,-6.378213191871036e-05,-0.00012138762116120678,0.0007856282533272737,6.578253793373734e-05,-0.0006169134406258138,-1.5105502491216678e-05
13.981,-3.0410277946133938e-05,0.00020467564406828387,-8.328409750790482e-05,-0.0018654171866197707,0.0001259553127396798,0.0017599175293847877,-2.7973295898779062e-05
13.991,6.685830747688495e-05,-0.0001583885342938757,0.00011048624163361622,0.001075491901451829,-5.228885522981846e-05,-0.001148963067985495,1.928868203488712e-05
14.001,-5.762827516723028e-05,-5.994989209187375e-05,-6.324889178815069e-05,0.0007907645680547891,6.529483622231153e-05,-0.0006102068669170059,-1.9622007408679433e-05
14.011,-3.2920055513428384e-05,0.00020903335681206125,-2.974320014566434e-05,-0.001860218949655064,0.00012552778148824598,0.0017669223589303058,-3.2103603360387044e-05
14.021,6.483332997041537e-05,-0.0001551360043240938,0.0001576046534039806,0.0010798995152474203,-5.278451110830076e-05,-0.0011433414667472615,1.501699670010329e-05
14.031,-5.924888872430525e-05,-5.814253708165561e-05,-2.1964337064858956e-05,0.0007933312739869711,6.531002504011263e-05,-0.000606832733033481,-2.1199814072770923e-05
14.041,-3.376441838953481e-05,0.00020982024285328327,1.4462792736116786e-06,-0.0018598960098590387,0.00012516610510158403,0.001767477894006573,-3.484718550295682e-05
14.051,6.304225306874536e-05,-0.00015638438349122838,0.0001809458395009707,0.0010788641162344146,-5.2748616301136736e-05,-0.0011449353176290224,1.5331451722443623e-05
14.061,-5.8833177114907156e-05,-5.979123919129779e-05,-8.939983775186738e-06,0.0007910642209995953,6.518384442022725e-05,-0.000609808258792125,-2.1674845927105148e-05
14.071,-3.5031012010390746e-05,0.00020789052364530964,4.228890028066747e-06,-0.0018625447849753463,0.00012517370157695407,0.0017640267269144584,-3.43986127271279e-05
14.081,6.479282344123253e-05,-0.000158123830647898,0.00017532738048443093,0.0010766419791423689,-5.2543781857257554e-05,-0.0011477753914826319,1.5861816705155906e-05
14.091,-5.870992744666859e-05,-6.103571041350695e-05,-2.493106406298805e-05,0.0007897486405474272,6.520165836495606e-05,-0.0006117640320090762,-2.1755515152844588e-05
14.101,-3.2993534784486864e-05,0.00020769541129449226,-1.7525310717181933e-05,-0.0018632262901927255,0.00012550358828711987,0.0017635586019772286,-3.3122735339208604e-05
14.111,6.644169482428544e-05,-0.00015799976278780945,0.00014760561141434128,0.0010771328679786236,-5.231753547002775e-05,-0.0011472927396132414,1.8234214426952348e-05
14.121,-5.717143125378298e-05,-6.040406270496721e-05,-5.703286601046854e-05,0.0007907798103779916,6.527784195306204e-05,-0.0006104723322250742,-1.826531122335926e-05
14.131,-3.180361420546325e-05,0.00020872958187773762,-5.326545773353095e-05,-0.0018621269333511754,0.00012558811511855427,0.001765124071565525,-2.9525011893931003e-05
14.141,6.800296188721309e-05,-0.00015730150776701457,0.00010930194633046922,0.0010783530612002196,-5.249620487017194e-05,-0.001145895319298276,2.0630710834617185e-05
14.151,-5.550153704732456e-05,-6.000065310497277e-05,-9.507046305729682e-05,0.0007916296087043381,6.542014391182295e-05,-0.0006093727740139615,-1.5604467457043107e-05
14.161,-3.0200676574898037e-05,0.00020909217365856525,-8.946775423553913e-05,-0.0018619156433881392,0.00012603607163483462,0.0017655939006284952,-2.5977969544262853e-05
14.171,6.886846094204097e-05,-0.00015755228233410947,7.411201016685213e-05,0.001078386508107118,-5.243646950070843e-05,-0.001146167266536045,2.251167265095136e-05
14.181,-5.432270996001012e-05,-6.055844078661719e-05,-0.00012604247082522566,0.0007912775041050884,6.555389549787267e-05,-0.0006098457638997192,-1.4002500237275525e-05
14.191,-2.8678131568828754e-05,0.00020882829621803446,-0.00011491191802238122,-0.0018626623354824475,0.00012621725076559484,0.0017648718027919175,-2.3691679575504733e-05
14.201,6.993296820502159e-05,-0.00015809871786956776,5.434270125776719e-05,0.001077876913530709,-5.2261724378158266e-05,-0.0011469735371344189,2.489275764745115e-05
14.211,-5.378982211276176e-05,-6.098654090685659e-05,-0.0001402890952817763,0.0007909081579399793,6.552626379246104e-05,-0.0006104051568336838,-1.1808187161575144e-05
14.221,-2.8691406916899573e-05,0.00020891842511559788,-0.0001255227082803675,-0.0018630177439426041,0.0001259116687558336,0.0017645533770916063,-2.4567351834993296e-05
14.231,6.965385282079412e-05,-0.00015836884550813823,5.0921128005720657e-05,0.0010779988960825217,-5.2139208486007914e-05,-0.0011469382773375276,2.466950894110603e-05
14.241,-5.346534925773714e-05,-6.086996469074542e-05,-0.0001374558821686339,0.0007911131473735268,6.58017097954958e-05,-0.0006101480938587702,-1.2087152561847698e-05
14.251,-2.933705343232469e-05,0.00020934332958382875,-0.00011841753291970773,-0.001862872472261951,0.00012583794712711324,0.0017648566329638115,-2.621437250659331e-05
14.261,6.925715148306747e-05,-0.00015828779277828606,6.359980864666177e-05,0.0010783632723303917,-5.210288965720074e-05,-0.0011464581373441338,2.3503087277703617e-05
14.271,-5.533981493469578e-05,-6.07661572099633e-05,-0.0001223772625857632,0.0007914725842344392,6.557488243933796e-05,-0.0006100028638831214,-1.4499888257806377e-05
14.281,-3.005484342801157e-05,0.00020962303143724642,-9.838134613258951e-05,-0.0018629184318137882,0.00012595226652057596,0.0017651093905489865,-2.8041339514082282e-05
14.291,6.896585129214627e-05,-0.00015827281689088145,8.612150531937677e-05,0.0010784555300157954,-5.2303098975831875e-05,-0.0011464500335812162,2.1800020557446463e-05
14.301,-5.647673090066221e-05,-6.087324650492495e-05,-9.842995758364636e-05,0.0007914601950909507,6.548041879436337e-05,-0.0006100517082426002,-1.5795496107601486e-05
14.311,-3.109034247456907e-05,0.00020976951065559702,-7.398996505087283e-05,-0.001863160873694131,0.00012583157044417816,0.0017649624488575589,-2.8892344680230867e-05
14.321,6.665165083974893e-05,-0.00015858976203324997,0.00010929704084809046,0.001078504034026843,-5.23283318737992e-05,-0.0011467144367692836,2.0984478789129377e-05
14.331,-5.733985963680708e-05,-6.0942808789426844e-05,-7.687497163198981e-05,0.0007913902710234311,6.531586940641135e-05,-0.0006102109873321927,-1.7495914136410504e-05
14.341,-3.1488083402864524e-05,0.0002099872345435,-5.380071438184766e-05,-0.0018634326224116395,0.00012584443285094162,0.0017649541828893668,-2.9926497629067688e-05
14.351,6.572130485928886e-05,-0.00015873484177965228,0.0001261390187925903,0.0010786212491463029,-5.250760934983615e-05,-0.0011468810087706198,2.0061123070064136e-05
14.361,-5.675714008650679e-05,-6.092528495562754e-05,-6.200568473345233e-05,0.0007913799078231962,6.527485782328478e-05,-0.0006099999392384987,-1.766990093824035e-05
14.371,-3.25135545380237e-05,0.00021023311930607356,-4.451229981463078e-05,-0.0018634314045892831,0.00012565079255656507,0.0017649329440822957,-3.0552202337449484e-05
14.381,6.623518615081004e-05,-0.00015871291809833855,0.00013147632363841986,0.001078701807505975,-5.272721817325318e-05,-0.0011467529382174285,1.8014181919630118e-05
14.391,-5.717781382392562e-05,-6.107173383865659e-05,-6.0884895767921164e-05,0.0007915750639984943,6.527203652552407e-05,-0.0006099042052737618,-1.9253263203280927e-05
14.401,-3.233280935669278e-05,0.00021040641929407603,-4.595775355169185e-05,-0.001863532000969562,0.00012602275717443512,0.0017650548026477853,-3.0991793629273114e-05
14.411,6.690279311522945e-05,-0.00015885418449733876,0.0001284191472728478,0.0010787787957494493,-5.241636133145298e-05,-0.0011466995534296933,1.9596281616106272e-05
14.421,-5.7007894278696835e-05,-6.113728399281793e-05,-6.724566589931709e-05,0.000791612361223303,6.522562048090654e-05,-0.0006099753308478694,-1.7034128228805375e-05
14.431000000000001,-3.2373997232341426e-05,0.00021051969305665167,-5.5729052094388395e-05,-0.0018636850005588606,0.00012559561635629496,0.0017649125825249597,-2.9664663780759968e-05
14.441,6.762676949324218e-05,-0.00015897561077278787,0.00011582204157205997,0.0010788216865030302,-5.26554319958203e-05,-0.001146793043874357,1.9786586821592848e-05
14.451,-5.644861404961931e-05,-6.130361149928241e-05,-8.140037051781855e-05,0.0007916577802905734,6.535014874101179e-05,-0.0006099703362349208,-1.696657363207532e-05
14.461,-3.166599993816953e-05,0.00021060710729079352,-6.983415499716045e-05,-0.00186381114316997,0.00012608824226616324,0.001764955862086969,-2.8294699604881738e-05
14.471,6.827053091014328e-05,-0.00015911147035228867,0.000101198667433425,0.0010789041555642105,-5.247007648425238e-05,-0.0011468639378688654,2.0913045231406332e-05
14.481,-5.5865174989421575e-05,-6.141829057622649e-05,-9.572237861002486e-05,0.0007917113571568305,6.528478784066614e-05,-0.000609955891059531,-1.5842485836756894e-05
14.491,-3.1110324162209884e-05,0.00021077064519071882,-8.313498329303174e-05,-0.001863943447749305,0.00012604262962407598,0.0017649691560871206,-2.6855595085674778e-05
14.501,6.88616864577885e-05,-0.00015920861385406468,8.902885719384932e-05,0.0010789893739929965,-5.251719089984134e-05,-0.001146911118438574,2.2008928646038736e-05
14.511,-5.54617027133169e-05,-6.152170819802272e-05,-0.00010630793970794167,0.0007917826159244986,6.532915598026008e-05,-0.000609916087708677,-1.4823034993496446e-05
14.521,-3.0782418919563594e-05,0.00021102604835804463,-9.351492912989441e-05,-0.0018640618082683509,0.00012600187281244815,0.0017649991641729167,-2.796882027792471e-05
14.531,6.870041380095078e-05,-0.0001594743819913499,8.174693457726936e-05,0.0010791159186885305,-5.231589891475777e-05,-0.001146884306924526,2.166687391432232e-05
14.541,-5.4881550300149936e-05,-6.158419154864218e-05,-0.00011044904484819486,0.0007918206349074194,6.55915619938031e-05,-0.0006098897533745548,-1.4663498836665075e-05
14.551,-3.065302461183044e-05,0.00021120522152345107,-9.42902251469662e-05,-0.0018642260421175244,0.00012620370754270837,0.0017649966357644244,-2.655329606243442e-05
14.561,6.871885179754161e-05,-0.00015954902798988898,8.272581863281604e-05,0.0010791925323711134,-5.254424216864421e-05,-0.001146985933618525,2.257306072045348e-05
14.571,-5.512966182301441e-05,-6.164004024261316e-05,-0.00010817465534573619,0.000791855008173891,6.521702404876413e-05,-0.0006098957530019391,-1.4891958148466686e-05
14.581,-3.092734767628941e-05,0.00021136472119379004,-8.985343197884139e-05,-0.0018643469881194955,0.00012617353554211634,0.0017650269503663688,-2.6540197011493026e-05
14.591,6.841178507159773e-05,-0.0001596493899154093,8.857098562519816e-05,0.0010792905371569377,-5.245319955607756e-05,-0.0011470286475365951,2.22056792719049e-05
14.601,-5.546655891037408e-05,-6.171206221490191e-05,-0.00010129128924507948,0.0007919253308962929,6.52635868645794e-05,-0.0006098557934148098,-1.5706580502160333e-05
14.611,-3.137398312553931e-05,0.00021153308832248688,-8.191363134444802e-05,-0.0018644597516530189,0.00012620474318840804,0.0017650735724995424,-2.7204948307782817e-05
14.621,6.801588024259486e-05,-0.00015973928883310652,9.711330750195694e-05,0.0010793815344153784,-5.2524354351700774e-05,-0.0011470712573689863,2.140305094329825e-05
14.631,-5.58596390541765e-05,-6.176333786923767e-05,-9.259744428083752e-05,0.0007919796463762882,6.515817750046076e-05,-0.0006098433910755577,-1.6654397788347157e-05
14.641,-3.181701901488088e-05,0.00021171487042852,-7.332687918462362e-05,-0.0018645835846690122,0.00012617499490982697,0.0017650927665884453,-2.8118023545427802e-05
14.651,6.771405525864745e-05,-0.00015984267311963543,0.00010535848400264442,0.0010794636318994535,-5.254978039836773e-05,-0.001147097244935856,2.0448317150803688e-05
14.661,-5.626184097329459e-05,-6.184388298999904e-05,-8.50584571627125e-05,0.0007920399804355843,6.514838539177753e-05,-0.0006098366805596979,-1.747937587295784e-05
14.671,-3.213891488291359e-05,0.00021189467872182697,-6.671318986517391e-05,-0.0018647117753592215,0.00012618816183044537,0.0017651026824752208,-2.8883118015793296e-05
14.681000000000001,6.757404309664091e-05,-0.00015994751385412187,0.00011099536829515725,0.0010795403012357767,-5.258309456582326e-05,-0.001147119581008643,1.980260986802133e-05
14.691,-5.6514855182578135e-05,-6.192668581966758e-05,-8.066782397009233e-05,0.0007920991264257018,6.51201519666499e-05,-0.0006098343283316817,-1.7865722529399815e-05
14.701,-3.2267337433975985e-05,0.0002120788507328543,-6.368701800588689e-05,-0.0018648407511852971,0.00012619506420369597,0.0017651129865455411,-2.9199817838388418e-05
14.711,6.758186984029618e-05,-0.0001600609269370093,0.00011275965844924316,0.0010796222452679669,-5.259832864660478e-05,-0.0011471407841966447,1.9651412296723603e-05
14.721,-5.654837647843441e-05,-6.201006927753627e-05,-8.029498139262427e-05,0.0007921585896818241,6.511237183213191e-05,-0.0006098255273401406,-1.783374423281498e-05
14.731,-3.220642793058384e-05,0.00021225976735005455,-6.466355714540483e-05,-0.0018649675924094526,0.0001262251623353748,0.001765129362132842,-2.911112611271491e-05
14.741,6.77192096504075e-05,-0.00016018532399002055,0.00011069146519019632,0.001079707747443528,-5.2592850864615534e-05,-0.0011471656718204015,1.99012438398157e-05
14.751,-5.639890937244701e-05,-6.209500074493639e-05,-8.345117729043373e-05,0.0007922142866486413,6.511368649885955e-05,-0.000609815914016688,-1.749374100785475e-05
14.761,-3.202280651538696e-05,0.00021243287381358966,-6.873957182658324e-05,-0.001865095077235869,0.00012626634769721346,0.0017651434815104,-2.8723542214414063e-05
14.771,6.833942311644345e-05,-0.00016034047077757895,0.00010737606126471502,0.0010797638076010005,-5.247124752526507e-05,-0.001147089455421088,2.1707998317749974e-05
14.781,-5.65398687163875e-05,-6.212568586250991e-05,-8.923585696094899e-05,0.0007923029251176521,6.491747973784968e-05,-0.0006099188095140255,-1.7146150902486716e-05
14.791,-3.0949924853231615e-05,0.00021263309729800857,-7.35235947907547e-05,-0.0018653214349203663,0.00012631162699266465,0.00176528344575004,-2.809543905430027e-05
14.801,6.81049732039007e-05,-0.00016043778377704553,0.0001001042578095019,0.0010799345193182115,-5.264646696057866e-05,-0.0011472868017126476,2.070627879129982e-05
14.811,-5.692695478813468e-05,-6.245117951877557e-05,-9.361050721761355e-05,0.0007923875482018655,6.529875667819345e-05,-0.0006097276546790898,-1.5387046440293838e-05
14.821,-3.1662059183705973e-05,0.00021280713061421646,-7.925724768008903e-05,-0.0018653403848516291,0.00012641091462186138,0.0017651039014106732,-2.731907772120888e-05
14.831,6.833004570950903e-05,-0.00016053682249664208,9.518697968948568e-05,0.0010799157593275222,-5.274641070117095e-05,-0.0011472692846075817,2.0155331594101033e-05
14.841,-5.5639953794888624e-05,-6.243506683498134e-05,-9.748734682575984e-05,0.0007923869800259562,6.524755838412547e-05,-0.0006097013035165524,-1.5810796709322077e-05
14.851,-3.164695692269385e-05,0.0002129631203305935,-8.232355222685056e-05,-0.0018654742067444293,0.00012644358284880094,0.0017651122581186687,-2.7226723944966034e-05
14.861,6.852166042334877e-05,-0.00016067896837598734,9.375212746987573e-05,0.0010800270986961623,-5.2611837384014155e-05,-0.0011473024637868767,2.1284102225398077e-05
14.871,-5.5713302496517134e-05,-6.24753767219023e-05,-9.895808973703154e-05,0.0007924262021182476,6.513644685153869e-05,-0.0006097232890003776,-1.5762634569842178e-05
14.881,-3.174379080956556e-05,0.00021310583251312837,-8.282817041947728e-05,-0.0018655833761431573,0.0001263789348156389,0.001765132909698206,-2.7209489658600386e-05
14.891,6.859614842340236e-05,-0.00016078947956909854,9.434650446470289e-05,0.0010801060634829907,-5.25912941492676e-05,-0.0011473151838574177,2.147565496778573e-05
14.901,-5.5818489392630804e-05,-6.252570491935007e-05,-9.794739156281505e-05,0.000792484911013262,6.51285849555678e-05,-0.0006097306001187124,-1.5960228727147597e-05
14.911,-3.192748549840936e-05,0.0002132554925218784,-8.11007543813608e-05,-0.0018656951107335433,0.00012640541037986763,0.0017651646184068124,-2.739305069300806e-05
14.921,6.852470147927813e-05,-0.00016090477079406038,9.67798101265885e-05,0.0010801902373607298,-5.259065828340061e-05,-0.0011473344023645666,2.1293491187969873e-05
14.931000000000001,-5.5966779036478324e-05,-6.258109641277363e-05,-9.519439801677963e-05,0.0007925352420254764,6.509377486947342e-05,-0.0006097303257393772,-1.6287715247900046e-05
14.941,-3.214128657080497e-05,0.00021342101835307225,-7.802473452955703e-05,-0.0018658132074456095,0.00012639952362320778,0.0017651776441912391,-2.7702952281015223e-05
14.951,6.840781959975141e-05,-0.00016101810175194936,0.00010013628935712048,0.0010802686773806163,-5.261213784601088e-05,-0.0011473590822106941,2.0963244517275702e-05
14.961,-5.6136953208967995e-05,-6.264846175760572e-05,-9.185160080658818e-05,0.0007925865521905274,6.507204120327785e-05,-0.0006097250247547099,-1.6652596720288588e-05
14.971,-3.234466964313238e-05,0.0002135900650677834,-7.477570430849601e-05,-0.001865932291080966,0.0001264108189453686,0.001765187760780489,-2.804866018964197e-05
14.981,6.831089316814483e-05,-0.0001611288948263949,0.00010328897551868153,0.0010803467169755005,-5.2628851034330916e-05,-0.001147383043035927,2.0631474730639347e-05
14.991,-5.628426997576652e-05,-6.272030534110171e-05,-8.903370356482077e-05,0.000792640012931483,6.505091431703751e-05,-0.0006097161147967663,-1.6942038968144813e-05
15.001,-3.249311425805534e-05,0.00021376197390273344,-7.236828836360084e-05,-0.0018660504869814087,0.00012642040360596893,0.001765198515521252,-2.831087080534554e-05
15.011,6.827009383523821e-05,-0.0001612380502182294,0.00010534266636270908,0.001080424946336081,-5.2643951130962704e-05,-0.001147405837483188,2.0416262407223997e-05
15.021,-5.63705281372194e-05,-6.279524418039017e-05,-8.751354751691107e-05,0.0007926945821967524,6.503654352752025e-05,-0.0006097055328443888,-1.708523651326169e-05
15.031,-3.256681921709431e-05,0.00021393202124687783,-7.140963344485132e-05,-0.0018661682501619858,0.00012643842877433997,0.0017652102562889318,-2.842401246544972e-05
15.041,6.829469991242827e-05,-0.00016134969427514917,0.0001058634539355117,0.0010805025716287308,-5.2650981925235856e-05,-0.0011474300255007591,2.0366633461598813e-05
15.051,-5.638090181331863e-05,-6.28725864228054e-05,-8.754998257956372e-05,0.000792747549797004,6.502754246911634e-05,-0.0006096959417744049,-1.7067857419476786e-05
15.061,-3.257124639126814e-05,0.00021409845587276073,-7.197514863411276e-05,-0.0018662865995561766,0.00012646129900822846,0.0017652208330103728,-2.8379582940354124e-05
15.071,6.837697086625731e-05,-0.00016146427494890918,0.00010494686424473686,0.0010805789469912226,-5.2652346858108774e-05,-0.001147456573499627,2.0468041573803422e-05
15.081,-5.6329563987750716e-05,-6.295138691936928e-05,-8.888929400109369e-05,0.0007927988808263979,6.50234133515407e-05,-0.0006096869650339168,-1.6922132875360825e-05
15.091,-3.253404419309245e-05,0.00021426104313981256,-7.36670292820076e-05,-0.001866404277233651,0.00012648829618582122,0.001765230412902173,-2.8215979800709544e-05
15.101,6.849628471710848e-05,-0.00016157972578908532,0.00010310909761981869,0.0010806546370001361,-5.265025681233197e-05,-0.0011474836354795136,2.0662487899262386e-05
15.111,-5.624876277197276e-05,-6.303009728130256e-05,-9.092168974401821e-05,0.0007928497927222359,6.502171807322985e-05,-0.0006096771894866004,-1.670833467776386e-05
15.121,-3.249146445603804e-05,0.00021442083785000622,-7.580891813003595e-05,-0.001866520119536003,0.00012651543974279172,0.001765239167954897,-2.799819410581117e-05
15.131,6.862393100545923e-05,-0.00016169387766228874,0.00010106238277971238,0.0010807298603448818,-5.264885003061951e-05,-0.0011475100758541483,2.087443702375722e-05
15.141,-5.6173264084066835e-05,-6.310763177369219e-05,-9.292684618057576e-05,0.0007929007134748875,6.501967289364774e-05,-0.0006096662927081929,-1.6499408417654913e-05
15.151,-3.2474328258891844e-05,0.00021457892298696305,-7.769894552269264e-05,-0.0018666341576731003,0.00012654017743972992,0.0017652471309004642,-2.7800146338691027e-05
15.161,6.873021801775354e-05,-0.00016180604886920752,9.946580056007854e-05,0.001080804493963568,-5.2650196527460435e-05,-0.0011475361329832336,2.1034822639755824e-05
15.171,-5.612841754212059e-05,-6.318339411163079e-05,-9.430969194765691e-05,0.0007929513517169833,6.501513698453228e-05,-0.0006096548450822194,-1.6358855576597798e-05
15.181,-3.2499579816807104e-05,0.0002147365764427414,-7.882452266263712e-05,-0.0018667470386023312,0.00012656109242637005,0.001765254567260651,-2.7679826032341293e-05
15.191,6.879477546867467e-05,-0.0001619162726483534,9.873731996680579e-05,0.0010808786597168094,-5.265520049558167e-05,-0.0011475622575530184,2.1102592016970954e-05
15.201,-5.6125404232200415e-05,-6.325700764963656e-05,-9.475730306868769e-05,0.0007930015846704984,6.500685825023785e-05,-0.0006096431782277329,-1.631922870330709e-05
15.211,-3.2568813000391215e-05,0.00021489500824332353,-7.898438367353892e-05,-0.0018668591586251085,0.00012657813501685823,0.001765262281998469,-2.7661031853681302e-05
15.221,6.881380944106949e-05,-0.00016202461725758573,9.896724473576292e-05,0.0010809526297574713,-5.266353020191278e-05,-0.0011475883284122875,2.1071910412105047e-05
15.231,-5.616187670482421e-05,-6.332863702450267e-05,-9.428791638601991e-05,0.0007930516366481304,6.499495468445971e-05,-0.0006096314145883675,-1.6375554213438e-05
15.241,-3.2670893010777397e-05,0.0002150546873821406,-7.830026717951424e-05,-0.001866970686481416,0.0001265921779425633,0.0017652708420512993,-2.7732036787425345e-05
15.251,6.879969215788323e-05,-0.0001621312242692535,9.994202272122541e-05,0.0010810264030080877,-5.267419815539829e-05,-0.0011476140636262559,2.096612163792286e-05
15.261,-5.622527464471871e-05,-6.339915629952314e-05,-9.319402098532833e-05,0.0007931017065787465,6.498079473533138e-05,-0.000609619859411053,-1.6494224363781238e-05
15.271,-3.2786803290130046e-05,0.00021521520021459798,-7.712970910011252e-05,-0.0018670818243434317,0.00012660488089082824,0.0017652801811214747,-2.785655074849615e-05
15.281,6.877349481163112e-05,-0.00016223658006357813,0.00010125687234831135,0.0010810996866865098,-5.2685628742438736e-05,-0.0011476393960673237,2.082626614314548e-05
15.291,-5.629714319867306e-05,-6.346967226480894e-05,-9.191012305671757e-05,0.0007931517719962978,6.496634221701662e-05,-0.0006096089107457226,-1.662853782167999e-05
15.301,-3.289598735133502e-05,0.00021537570802097756,-7.591978363946968e-05,-0.0018671927707282609,0.00012661805538228695,0.001765289968693047,-2.7988272373919955e-05
15.311,6.875566292061664e-05,-0.0001623414116928932,0.00010246940997004546,0.0010811722586580607,-5.269616393936359e-05,-0.0011476644991878612,2.0697960384512878e-05
15.321,-5.6358563684934034e-05,-6.354086392829554e-05,-9.085819427005222e-05,0.0007932016708297769,6.495322185765985e-05,-0.0006095987101288823,-1.673485506162823e-05
15.331,-3.298270039619672e-05,0.00021553540926520367,-7.505745768413321e-05,-0.001867303537259313,0.00012663304133250455,0.0017652999866128165,-2.808596082836499e-05
15.341,6.875972196057151e-05,-0.00016244639373337615,0.00010323916137470383,0.0010812441552754779,-5.270456140759465e-05,-0.0011476896079827524,2.0617111551727656e-05
15.351,-5.6396044134448246e-05,-6.361283526338108e-05,-9.032264104180015e-05,0.0007932512355452071,6.494231653275133e-05,-0.0006095890633346629,-1.6785475265867158e-05
15.361,-3.304026905197645e-05,0.00021569371065650536,-7.47629518527189e-05,-0.0018674139484874271,0.0001266504157147595,0.001765310113136124,-2.8125453056022764e-05
15.371,6.879024825756611e-05,-0.00016255186352457087,0.00010341346185462274,0.0010813154934429278,-5.271034954698247e-05,-0.0011477148890994453,2.0599392896470255e-05
15.381,-5.640557821343465e-05,-6.368536041933092e-05,-9.038675003052751e-05,0.0007933003502580024,6.493375482773977e-05,-0.0006095796749657972,-1.6774103070541792e-05
15.391,-3.307197670625714e-05,0.00021585024710833655,-7.505001132573798e-05,-0.0018675237753401491,0.00012666993057596485,0.0017653201532997938,-2.810412748445243e-05
15.401,6.884370744368004e-05,-0.00016265770388097594,0.00010304363559561357,0.0010813862940025364,-5.271394605073114e-05,-0.0011477403938874786,2.0638371857830628e-05
15.411,-5.639278162666649e-05,-6.375808434891114e-05,-9.093940816169539e-05,0.0007933489763288246,6.492702270098093e-05,-0.0006095703180997247,-1.6713624345837353e-05
15.421,-3.3088550818251544e-05,0.000216004943527292,-7.575443607943221e-05,-0.0018676328152982546,0.0001266906685778361,0.0017653298716854378,-2.8037803594565947e-05
15.431000000000001,6.891070841351623e-05,-0.00016276344579515558,0.00010233712943579777,0.00108145651877308,-5.2716422427555326e-05,-0.0011477660470137138,2.0711383154388793e-05
15.441,-5.636937618923748e-05,-6.383057856404229e-05,-9.173969136957002e-05,0.0007933971638400975,6.492116827128505e-05,-0.0006095608363208216,-1.6629269406854362e-05
15.451,-3.3103514433422176e-05,0.0002161580640555097,-7.661219828790834e-05,-0.001867740927319689,0.00012671143499332668,0.0017653391766846464,-2.7953211926173928e-05
15.461,6.897914937039547e-05,-0.0001628685349724292,0.00010156974212744559,0.0010815261818055428,-5.271899340682494e-05,-0.0011477917077673304,2.0789213965507e-05
15.471,-5.634820173867298e-05,-6.390240692005355e-05,-9.251062157608324e-05,0.0007934450062397095,6.491512973728705e-05,-0.0006095511348446702,-1.654968729884984e-05
15.481,-3.312843997793504e-05,0.00021631012121321822,-7.73553309686925e-05,-0.0018678480774023207,0.00012673121247902018,0.0017653481914301082,-2.7878572440351515e-05
15.491,6.903794828432985e-05,-0.0001629725757903212,0.00010099134201544446,0.0010815953603900764,-5.272255945265487e-05,-0.001147817273417758,2.084605993919281e-05
15.501,-5.6339014168762345e-05,-6.397325452469237e-05,-9.302851502864884e-05,0.0007934925740087344,6.490806589681399e-05,-0.0006095412183718647,-1.649789539209423e-05
15.511,-3.3169801566597826e-05,0.00021646166287462378,-7.779332185368465e-05,-0.0018679543520257987,0.00012674944178530956,0.0017653571506103698,-2.7834739868795602e-05
15.521,6.908041960813355e-05,-0.00016307540878006963,0.00010075476522309346,0.001081664125014592,-5.2727514072382256e-05,-0.00114784271222682,2.0866768311407357e-05
15.531,-5.634626636528784e-05,-6.404304140584721e-05,-9.318175819079711e-05,0.0007935399035073462,6.489958436853974e-05,-0.0006095311957048451,-1.6484863009485218e-05
15.541,-3.3228026780116334e-05,0.000216613067434297,-7.785805501034857e-05,-0.0018680599026785797,0.00012676608823139707,0.00176536626384092,-2.7829824725020234e-05
15.551,6.910598137295847e-05,-0.00016317706004097813,0.00010088529079003384,0.0010817324907478581,-5.2733764805363115e-05,-0.0011478680152465738,2.0849499024009052e-05
15.561,-5.636888316664767e-05,-6.411193834002265e-05,-9.298653553127997e-05,0.000793587024332241,6.48898118095948e-05,-0.0006095212256338151,-1.6507908235585586e-05
15.571,-3.329841695667239e-05,0.00021676444779170133,-7.76048227486786e-05,-0.0018681648714237058,0.00012678155749873166,0.001765375646160652,-2.7858795999330214e-05
15.581,6.911948549217157e-05,-0.00016327767974617198,0.00010129334229540707,0.0010818004222242516,-5.274085158484434e-05,-0.0011478931644101566,2.0803965090801675e-05
15.591,-5.64015010695145e-05,-6.418027674244288e-05,-9.256158871847491e-05,0.0007936339619292477,6.487928601380547e-05,-0.0006095114538517119,-1.6553776213607437e-05
15.601,-3.337331420169993e-05,0.000216915672414694,-7.717595993912909e-05,-0.0018682693538462536,0.00012679651407280566,0.0017653853134408527,-2.7907225899402376e-05
15.611,6.912869432878685e-05,-0.00016337750778226774,0.00010181987936156963,0.0010818678672802585,-5.274811913389723e-05,-0.0011479181607977965,2.0746760786356907e-05
15.621,-5.64365967156327e-05,-6.424840237181859e-05,-9.207597658780864e-05,0.0007936807103861769,6.486871006631216e-05,-0.0006095019735905759,-1.660447076698886e-05
15.631,-3.3444789841104576e-05,0.00021706646019755134,-7.674393520900043e-05,-0.0018683733933738487,0.00012681164669916484,0.0017653952095636068,-2.7957167571368026e-05
15.641,6.914125045357824e-05,-0.00016347682299136933,0.00010229555398809254,0.001081934789019581,-5.275492283101593e-05,-0.0011479430529686744,2.06954622512792e-05
15.651,-5.646695714345416e-05,-6.4316550879528e-05,-9.168997666951894e-05,0.0007937272237919495,6.485869407876378e-05,-0.0006094928051535955,-1.6643513994975268e-05
15.661,-3.350706011728996e-05,0.0002172164952242659,-7.645447098519787e-05,-0.0018684769803038752,0.00012682745784605435,0.0017654052428915895,-2.799311837935418e-05
15.671,6.9162372661768e-05,-0.00016357585519068528,0.00010259345424922257,0.0010820011787765161,-5.276081905117894e-05,-0.0011479679168144089,2.0663176892315163e-05
15.681000000000001,-5.6487835879400204e-05,-6.438479701373211e-05,-9.150814025415304e-05,0.0007937734420191108,6.4849588600575e-05,-0.0006094838970496351,-1.6660663014135896e-05
15.691,-3.3557938177136826e-05,0.0002173655215141597,-7.638687902410425e-05,-0.0018685800566109266,0.0001268441416768633,0.0017654153132530025,-2.800630295118169e-05
15.701,6.919381227610728e-05,-0.0001636747020506224,0.00010266057946800904,0.0010820670453837542,-5.2765679568476064e-05,-0.0011479928090237616,2.0655174717807857e-05
15.711,-5.649811286976028e-05,-6.445307458595986e-05,-9.155666795201237e-05,0.0007938193240013689,6.484143588954437e-05,-0.0006094751550224601,-1.6653914529100267e-05
15.721,-3.3598970322721775e-05,0.00021751340125295585,-7.654075484192038e-05,-0.0018686825374232391,0.00012686157012193103,0.001765425329692661,-2.799621262087299e-05
15.731,6.923398996152558e-05,-0.0001637733064580289,0.00010252201398527604,0.0010821324006724282,-5.276969499588638e-05,-0.0011480177419534196,2.0668488999292792e-05
15.741,-5.6500112102217e-05,-6.452122780104302e-05,-9.178802677155121e-05,0.0007938648600800628,6.483401118699886e-05,-0.0006094664808356209,-1.6628723537312594e-05
15.751,-5.8293927366501976e-05,-1.6699448199860347e-05,3.9209601562781336e-05,-0.003659253051460027,0.0001481172931121766,0.003806387959744258,0.00011839786010362012
15.761,0.00014579026026700822,-0.0008766468940931539,0.00019929202211122908,0.0008351108857735526,-7.9631026837214e-05,-0.0012026572875858683,-1.5021616318857973e-05
15.771,-0.00013489739268645416,-0.00019689182046196593,-9.810374888072006e-05,-0.00042086286127842964,0.00020906595016028474,-0.0006981097184992694,-8.600034676371003e-05
15.781,2.7297214800242297e-05,-0.00024895208636007175,0.00013812452913635305,-0.002387722071392105,0.00016784003043480525,0.0011380100934706894,4.1495697998545866e-05
15.791,5.3090340518522594e-05,-0.0005721382408145916,0.00018707027088312112,0.000414757163957859,-9.213014697173822e-05,-0.0013375005654770091,-4.5257118723117184e-05
15.801,-5.640373790223126e-05,-0.0002454915405659315,6.344798681869767e-05,0.0005273710008220308,6.574537669367411e-05,-0.0009766015174566297,-3.5814293143783905e-05
15.811,-3.109706533677211e-05,0.00020698203815902458,0.0001061086895446061,-0.002039762663867172,0.00015160855033303635,0.0017423565120865214,1.669303361385993e-06
15.821,5.4509833190185224e-05,-0.00013481600981176203,0.00023275951667714163,0.001193701255927062,-6.520638408439898e-05,-0.0009831967107774685,-2.2534619593903146e-05
15.831,-6.763341235346612e-05,9.348458603288727e-05,6.639874078187243e-05,0.0009714453484203896,6.326314808809884e-05,-0.00030097858144162817,-2.147689076587562e-05
15.841,-3.844371383518435e-05,0.0004212492611425629,8.113403812828369e-05,-0.0016209029885157842,0.00012114094929014779,0.002066544618155652,-1.6672856475932696e-05
15.851,5.716004714103406e-05,-2.712719275569319e-06,0.0002280915437829856,0.0012955315355980951,-7.465283117028153e-05,-0.0008474731154135061,6.403889308673766e-06
15.861,-6.097760875732803e-05,3.9088905322015816e-05,3.5428459112759014e-05,0.0009495350765205189,5.0372218483539554e-05,-0.0004163780523954828,-1.6064677742733802e-05
15.871,-3.867308645108955e-05,0.0002675171472879099,2.5760304662502407e-05,-0.0018105938300676959,0.00012616869529437483,0.001829093404570675,-3.0453570535915856e-05
15.881,6.54939926904201e-05,-0.00018810202825956555,0.00017914182939715684,0.0010636540229113556,-5.009511866256863e-05,-0.0011947635845685027,9.633780376200872e-06
15.891,-5.653415237782443e-05,-0.00013823470824416844,-3.256363042344372e-05,0.0007153141294257328,6.949759299221622e-05,-0.0007312402788896094,-2.1533337440404563e-05
15.901,-3.358620280848464e-05,0.00012998902803173102,-4.4980761667726726e-05,-0.0019730817586689747,0.00013342562581428438,0.0015999200583557954,-3.344199821855314e-05
15.911,7.090537167772419e-05,-0.0002490513107012367,0.00010967027351381481,0.0009853898939996483,-4.745796123558198e-05,-0.0013065055228237332,1.6788958056164298e-05
15.921,-5.3632525487599267e-05,-0.00012940449274798693,-0.00010623219750345456,0.0007296388744387413,6.772519476125043e-05,-0.0007277628022120205,-1.5652878634748724e-05
15.931000000000001,-3.16667095432398e-05,0.00018807246152423128,-0.00011554002962658344,-0.001890601827930698,0.00012943501962222015,0.001700556532478394,-2.5798489001236174e-05
15.941,7.230905836138875e-05,-0.00016254407695044207,4.4749763398290696e-05,0.0011055265072006048,-5.179185844964904e-05,-0.0011593612130309078,2.5734387957293157e-05
15.951,-5.3295892049953243e-05,-3.952708705888246e-05,-0.00016445006050357178,0.0008510402754883537,6.292452123306881e-05,-0.0005784766473036607,-8.042242917939753e-06
15.961,-3.086411490612927e-05,0.00025748433452124175,-0.00016292961628734377,-0.001794179582872465,0.00012455136682425563,0.0018172921720281529,-1.8785964886172284e-05
15.971,7.294526072969042e-05,-0.00012496442239191732,7.507020344003413e-06,0.0011603674141992953,-5.5336353527592285e-05,-0.001096688239301551,2.958132699362787e-05
15.981,-5.223165072276286e-05,-3.5196492647402615e-05,-0.00018982510967079365,0.0008613901754986537,6.225195477715763e-05,-0.0005748172616512381,-6.9156336346125295e-06
15.991,-3.02854449528802e-05,0.00023375061677549669,-0.00017586931410368725,-0.0018203399770457696,0.00012626561977989684,0.0017732769517914849,-1.9175490324868156e-05
16.001,7.36315468466807e-05,-0.00016572567863245923,7.646164089716845e-06,0.0011126219931384296,-5.2134208735836835e-05,-0.0011690797581989489,2.9052237016429204e-05
16.011,-5.2639137321844266e-05,-7.947519502429202e-05,-0.00018066268328993567,0.0008085380943890761,6.517201205727258e-05,-0.0006541619479584709,-1.0279712653695633e-05
16.021,-3.060155256964252e-05,0.00019685454050525166,-0.00015592928377076924,-0.001864226217789486,0.00012886557803209081,0.0017064104875700466,-2.2213047843021204e-05
16.031,7.227540261062243e-05,-0.00018869147887676813,3.4117275313631226e-05,0.001087467163692638,-5.0733705165128164e-05,-0.001211795030768963,2.415643276388776e-05
16.041,-5.5004216286133227e-05,-8.611580144436714e-05,-0.00014702046029468338,0.0008047422912755552,6.566818452685087e-05,-0.0006684931281824936,-1.4710253328167139e-05
16.051,-3.171915683412872e-05,0.00020505123095207527,-0.00011621065546627814,-0.0018495533021379313,0.00012852946604772532,0.0017169474326923341,-2.6327120560986325e-05
16.061,7.044507594963183e-05,-0.000171361064836378,7.762267221204361e-05,0.0011146334035643626,-5.21896925915339e-05,-0.0011848764213901115,2.0489495926012848e-05
16.071,-5.730102876477726e-05,-6.550049885022322e-05,-0.0001001306962651724,0.0008362169493731832,6.425380209181079e-05,-0.0006355848353054064,-1.5766011891424177e-05
16.081,-3.489445804008605e-05,0.00022370492760985018,-7.112169262569733e-05,-0.0018212047398700696,0.00012680983226209927,0.001745948676258607,-2.892200623692308e-05
16.091,6.724519195109953e-05,-0.00015922085045558837,0.00012210485625100708,0.0011349069536155214,-5.301039538791809e-05,-0.0011661482585137968,1.908492967984033e-05
16.101,-5.816891739391972e-05,-6.080372983634309e-05,-5.8275127026736725e-05,0.0008459580567338517,6.382913425942961e-05,-0.0006301056426482615,-1.7712157786619222e-05
16.111,-3.727054612521143e-05,0.00022108555852115612,-3.470761138467308e-05,-0.0018211352063943118,0.0001267309496410105,0.0017389567169228848,-3.078822039897468e-05
16.121,6.68084840756911e-05,-0.00016715482033944528,0.00015338421973668114,0.0011280121283187056,-5.269033863712042e-05,-0.0011819689951510853,1.7135318393296582e-05
16.131,-5.9066382814137886e-05,-7.105302419269593e-05,-3.5797843331378834e-05,0.0008358685803674646,6.413270001664315e-05,-0.0006498483215051071,-2.1646986199994412e-05
16.141,-3.717048970287635e-05,0.00021139783827452783,-1.7243110783933534e-05,-0.0018310084011687582,0.00012765520452133174,0.001720289995618116,-3.223741053543417e-05
16.151,6.68184837015602e-05,-0.00017438794128444944,0.00016260803512313995,0.0011215421269906818,-5.214741549798244e-05,-0.0011962555928131291,1.567763089754828e-05
16.161,-5.944558221237958e-05,-7.473583692788655e-05,-3.360131653361913e-05,0.0008339271494211463,6.44273719889965e-05,-0.0006576048546915101,-2.1925071369447547e-05
16.171,-3.776976641418327e-05,0.0002115281019344503,-2.2308852838545773e-05,-0.0018284695124419859,0.0001277639684716252,0.0017189374048844656,-3.174649349514826e-05
16.181,6.790453252916369e-05,-0.00017148786912528027,0.00015239109591776528,0.0011275044667359623,-5.221544613938768e-05,-0.001192554858966011,1.695427621890569e-05
16.191,-5.8536294292788635e-05,-7.033318058867117e-05,-4.9564965239294785e-05,0.0008416894379385143,6.415038659930938e-05,-0.0006512033652721249,-1.9951204042834325e-05
16.201,-3.636032334491568e-05,0.0002162799947794292,-4.348137638770399e-05,-0.001820976099546184,0.0001273526335215844,0.001725754078495376,-3.040846963858434e-05
16.211,6.874272032193556e-05,-0.00016812079093459338,0.00012731678169248557,0.0011337044397419685,-5.2460072656465983e-05,-0.0011873223777591336,1.8448313861603323e-05
16.221,-5.722890642904353e-05,-6.854073173503589e-05,-7.616535488649804e-05,0.0008454187511709793,6.434562141498888e-05,-0.0006485445839806561,-1.739958386204999e-05
16.231,-3.513724215289462e-05,0.0002165614907258362,-7.162328743616908e-05,-0.0018199399167666813,0.00012754514363110198,0.001725440220120338,-2.7996412134295893e-05
16.241,7.001872900524597e-05,-0.00016955289161694223,9.905798872010215e-05,0.0011327216897736435,-5.2351011055555215e-05,-0.0011899452952107295,2.0717523173194178e-05
16.251,-5.596779171260085e-05,-7.080054720604373e-05,-0.00010328986654388096,0.0008430418672962889,6.452599123588914e-05,-0.0006524479091171758,-1.485532848496022e-05
16.261,-3.4014432792093636e-05,0.000214369193548892,-9.715338579196987e-05,-0.001822963938035735,0.00012776509350594673,0.0017213529553972429,-2.583911699703109e-05
16.271,7.106312505425629e-05,-0.00017160275981865735,7.619553596911261e-05,0.00113011401481969,-5.2150597129855145e-05,-0.001193194252580624,2.257293172642762e-05
16.281,-5.515726327026797e-05,-7.206942770157429e-05,-0.00012278408452079316,0.0008411659973996552,6.469391425686336e-05,-0.0006541667216267128,-1.313232225174834e-05
16.291,-3.356293033946752e-05,0.00021420386181908322,-0.00011288807063821002,-0.001824065374779398,0.00012792170229344375,0.001721304860561484,-2.438112819730793e-05
16.301,7.103264177797059e-05,-0.0001711912832031293,6.370952483296173e-05,0.0011299466685187286,-5.2269090841806845e-05,-0.0011918237124669273,2.2691990002211747e-05
16.311,-5.505869730927101e-05,-7.116634399611723e-05,-0.00013050124860274103,0.0008413806974017035,6.468469976476053e-05,-0.0006515754446284297,-1.3464363599163383e-05
16.321,-3.313507209547132e-05,0.0002155951305156507,-0.00011532781276225236,-0.0018239802483116993,0.0001279164751974697,0.0017243894280215475,-2.4291205208147467e-05
16.331,7.106046615511338e-05,-0.0001701056611321256,6.618455167621342e-05,0.0011297883566214835,-5.2249333812281217e-05,-0.0011887925063374348,2.3211243312601958e-05
16.341,-5.5380875034343556e-05,-7.033025103870425e-05,-0.00012428002319572794,0.0008405969285767143,6.446294135488233e-05,-0.0006489218602485548,-1.3193898286176197e-05
16.351,-3.387828860065956e-05,0.00021621413212183577,-0.00010619866712099706,-0.0018256553545212169,0.00012759847585532631,0.001726540258327231,-2.5032044142758083e-05
16.361,7.025233296600052e-05,-0.0001700416430715894,7.73298352392526e-05,0.00112757842339332,-5.2450969002410884e-05,-0.001187198711177017,2.1047680185937956e-05
16.371,-5.501583406211285e-05,-7.040704430037963e-05,-0.0001099900578047561,0.0008376828146332791,6.454517601570342e-05,-0.0006474339866385806,-1.5718367727338747e-05
16.381,-3.4461675774621585e-05,0.0002161482468544736,-9.102811326534228e-05,-0.0018288972487008484,0.00012768925559126368,0.0017279483680750379,-2.798082689087441e-05
16.391,6.934495944933378e-05,-0.0001704488829214314,9.558071835596559e-05,0.0011242868119624818,-5.221353664729247e-05,-0.0011855338444767983,2.0440896629275225e-05
16.401,-5.65253532006053e-05,-7.054505708932704e-05,-9.215848443832548e-05,0.0008344270834542385,6.443846813468021e-05,-0.0006455527317787054,-1.6515618758957964e-05
16.411,-3.410172591585007e-05,0.00021661304037006346,-7.198044318376223e-05,-0.001832476350735646,0.00012761950031052726,0.0017305138311934256,-2.8264900534001907e-05
16.421,6.879775024002581e-05,-0.00017012191705413388,0.00011269166607563892,0.0011211631839245174,-5.262141984325799e-05,-0.0011826594571593312,1.9940005140000552e-05
16.431,-5.745396731871049e-05,-7.007760585079172e-05,-7.664921056200891e-05,0.0008312735900111263,6.429081994060369e-05,-0.0006421730754394593,-1.6479401853984946e-05
16.441,-3.595750274170229e-05,0.00021726679310057412,-6.026852456061782e-05,-0.001835685645606305,0.0001273579278777293,0.0017339803637157016,-2.952610928310016e-05
16.451,6.877681462999635e-05,-0.00016951432901419935,0.00012259347298202957,0.0011177726189996549,-5.255193030124076e-05,-0.0011788496365997391,1.8263189353943984e-05
16.461,-5.7721725265201694e-05,-6.955025852140747e-05,-6.957838972642856e-05,0.0008277754712998394,6.432886776766691e-05,-0.0006383950241571235,-1.7965682505713602e-05
16.471,-3.611366586111951e-05,0.0002179079676558342,-5.540990034301784e-05,-0.001839577811375153,0.00012742396491607704,0.001737751930988875,-3.0126507309356066e-05
16.481,6.87398874369491e-05,-0.00016915182439171747,0.00012495336569933943,0.001113781303223299,-5.260712462041758e-05,-0.0011752440058524064,1.8196106479867228e-05
16.491,8.683169704043984e-05,-0.0036512942890052323,-0.002148838877735872,0.08581408268744535,-0.0015250827694120058,-0.08049347936257084,-0.001702602160811157
16.501,-0.007537458983718515,0.0335353748458431,-0.004645817612655675,-0.11068739635749142,0.00762783117255,0.1250881407931682,0.00296948571528834
16.511,0.011762241859340064,-0.025281081245235235,0.00763893602716215,0.03910779826483931,-0.008194070869631002,-0.0032183781303917257,0.0017006403210004877
16.521,-0.004661798847384016,0.009358321938739273,-0.012769371245731517,0.041068429140051044,-0.0006364750387554069,-0.056715191468125294,-0.009928258609641749
16.531,-0.0019808073904122848,-0.000884288532738713,0.00907710203961018,-0.03376309857808433,0.003930220212265847,0.031913519492652455,0.015304582473873686
16.541,0.0023786993371197346,-0.012076259262726178,-0.0051463411849092195,0.023827232841368857,-0.003361292738816544,-0.03825077834429832,-0.007313370113641951
16.551,-0.0034167718477058373,-0.0070817310022233595,-0.00195886893305355,-0.0016332745101603173,0.0003602140230437919,-0.005519431448973763,0.00036613221593843437
16.561,0.002016357943896836,-0.0008427421417420322,0.002647240827586581,0.0006815260377637175,0.002216543682862511,-0.02110173831508572,0.0025922762457178494
16.571,0.0015741231288445743,-0.005179199157554509,-0.0011188153196762815,0.005629471933294103,-0.0010921941949249745,-0.01059352660411806,-0.0024715252197168454
16.581,-3.593267895107995e-05,-0.004810043376497545,-1.318393890371196e-05,0.017241204664662745,-0.0013492790285562282,-0.018358533692721717,-0.0006666913087402314
16.591,-3.0447115685521236e-05,0.0015564095790748845,0.0014157725770852377,0.020594615434760946,0.0005427599044900617,-0.01930667771559033,0.001906383814808483
16.601,-0.001030165483921422,-0.007488492769869543,0.0019653003433352085,0.03707268869497864,-0.0019507157652607415,-0.020505263174380412,0.0028815008337744726
16.611,-0.002423069898007484,4.57956952783444e-05,-0.00020707114923780074,0.011639749268312839,-0.00046649139421494034,0.0004930482970952887,0.0003799196774333469
16.621,0.00039723121383435697,-0.0009307368872560874,0.0018473643312642888,0.03193118482641324,-0.0004192176811853422,-0.022475177279524732,0.0008649909584531647
16.631,-0.00190543925506374,-0.003561673064944533,0.0015214147399695687,0.023337766982522896,-0.0008367885866416605,-0.009334726939136815,0.002404937779779265
16.641,-0.0015610025993087998,0.002824905087722542,0.0016906151525776206,-0.04367778935780379,0.0008853162812659853,0.04745963339637127,0.0009662583552304479
16.651,0.002562966371268193,0.005373120878070601,-0.00013574524503572575,-0.013721588437474105,0.0007312759267620185,0.00261831897230083,-0.004834630577112969
16.661,-1.0870715375173117e-05,-0.00038843125176033866,0.0020464563190485336,-0.0029766174015954426,0.00044493450379497256,0.0014448329853745294,0.001297564623577463
16.671,-0.0005709586015120419,-0.0022174541019696426,0.0005452118969496443,0.005476367403371819,-0.00020640235032975892,-0.007645432565229515,-0.00036587454220618433
16.681,-0.00014382923536907362,-0.0022803629514276764,0.0012780040521809585,0.0009735712956896628,-0.00010810983268843047,-0.0017722648912984898,0.00031376724220143356
16.691,-0.00028857415814876773,0.0006464452563980549,0.0005565004084306963,-0.003173014517257211,0.0004558573415377288,-0.0003682822621838824,-0.00021586795309849055
16.701,0.0006162064376487879,0.0017311623730837489,0.000454001375580475,-0.007542677333575978,0.0004000346055528652,0.0042516017882431945,-0.000896742372752303
16.711,0.0005836841076082333,-0.0007125071162716258,0.0011078546151645906,-0.003764242652307983,-0.00037066246271337343,0.003352491771801255,-2.008458208086443e-05
16.721,-9.420662769950004e-05,0.003992944786582499,-0.00036858452014951307,-0.018837479415939846,0.0008382164647398302,0.015334602586584561,-0.0009400552230398496
16.731,0.00011282017855291439,0.005023558043938992,0.00013254849802199462,-0.03027191177647706,0.001221105716005632,0.0284861402241125,-0.00018490530975807235
16.741,0.001785251579077382,0.00460605750819199,-0.0013096327810690706,-0.014894970973332235,0.00044886971304354854,0.009179997551765929,-0.003164249411780254
16.751,0.0012280036021836424,0.002659906683760948,-0.0007797152119171891,0.000880376067507219,0.000213105711399367,-0.00507291998908823,-0.0014127581591856704
16.761,0.0005392904284441557,-0.000908143348478847,-4.215993030874551e-05,0.012104725301885602,-0.00029878316796850277,-0.013091003893386525,0.0005494543189056137
16.771,-8.738330718564477e-05,-0.004523353372518867,-0.0005086340768153382,0.024467383708546134,-0.001040354601376285,-0.021712858684975824,0.0006360923893483127
16.781,-0.0008490474014620961,-0.005158905591335659,-0.0008899993117378716,0.03229807056808591,-0.0008286707248901244,-0.027445741107177388,0.0011202907159381602
16.791,-0.0017266038467513998,-0.009290543226235948,0.0016103172797341195,-0.0013521226327995843,-0.0007706330351548564,0.012892244061938469,0.0047424477320896444
16.801,2.433041745956402e-05,-0.0002297296350647353,-0.00493817801093515,0.010357772972588705,0.0002932043656146686,-0.017266154421911102,-0.004940635497751793
16.811,0.0002942531858706426,-0.0077491319430139025,0.0005276902333066765,0.008339093285205039,-0.00012412750238025992,-0.002969425112259054,0.002775027149450744
16.821,-0.0011785105884656358,-0.010866881694131853,-0.003536914150316375,0.02146656207972996,-0.0010318081669768169,-0.015024331474641734,0.00010759990724154748
16.831,-0.00156993307756239,-0.014470224503894843,-0.002435383416739975,0.010124742728720985,-0.0009585347699641711,4.081943872187577e-05,0.001968161911936446
16.841,-0.0016679408797576059,-0.007537863985970648,-0.004627381232442255,-0.0347288370781455,0.0012712956948372177,0.03275366588788895,0.0003285335004663912
16.851,0.0012564341309167584,-0.010495865405314561,-0.007131489662838881,-0.015698472857364344,0.0005137607201145856,0.010839031532981248,-0.003517724399822692
16.861,0.0007372156838598728,-0.01564807763646486,-0.00828368979029238,-0.008730786082576925,0.0001578712948158207,0.005707713814208005,-0.0018029011279060477
16.871,-0.000970876255567861,-0.022548461029170432,-0.010131050063290226,0.01287556658949775,-0.00033522246082073073,-0.009329703147699958,0.0003952296836419154
16.881,-0.0009613868171267247,-0.026015156199672568,-0.012487883494330516,0.00263423577260522,-0.00036143551287962826,0.00011807484379739927,0.00014667677742679171
16.891,-0.0004823889759485103,-0.0250084632927926,-0.016843250601498286,-0.004512982212371856,0.00046456828823969774,0.0022866561079961456,-0.0020961183370556804
16.901,0.0004082909325959491,-0.03409750046365283,-0.018559415306167094,0.015117626826331868,-0.0005830742218735655,-0.012340048832356617,-0.00039979106083573297
16.911,-0.0014644295952592847,-0.037063932538886096,-0.023315330290973886,0.0048762083566969,-0.00028316505240698743,-0.0017636101885009966,-0.00014655319205310145
16.921,-0.0002511633806046883,-0.04107826828907486,-0.0268625464453776,0.007397021399895754,-0.0003577845544535126,-0.006827763723370056,-0.0007390832456541239
16.931,-0.0009997190162736027,-0.04706960884594015,-0.03220479632226709,0.026005651407317983,-0.0005381682468610799,-0.020802978579880615,-0.00015894477613568765
16.941,-0.001744513590111553,-0.05341810852047158,-0.03428372836558836,-0.01986036587394855,-0.0004702043233901998,0.02842602201610204,0.00322234314646193
16.951,-6.827768852295615e-05,-0.04882089939611506,-0.043970067711491145,-0.02873537834349024,0.000932392847380025,0.021267269242725616,-0.004309292018011709
16.961,0.0009023523774838208,-0.053535538941414856,-0.047479082634570714,-0.03103845189637191,0.0016351305913801092,0.025504659512974415,-0.0014780075352440233
16.971,0.00038833435106633063,-0.06921708820462759,-0.05403683112662071,0.029960429425791912,-0.0012289981167144973,-0.027295373844012157,-0.0011529032927515208
16.981,-0.0029865157316666152,-0.07111027992303336,-0.05856180703054725,-0.024581129608265126,0.0002605182361568939,0.03123004076030549,0.0030352561709997435
16.991,0.0004758290447380406,-0.06920479502395148,-0.06695111585785878,-0.04194370807607298,0.001585596859983874,0.03509913238350492,-0.0028926188909340414
17.001,0.0018835533518217432,-0.07574735380679781,-0.07379674458725932,-0.02245715387042084,0.0010234016708901836,0.01526181491154965,-0.0036702237314004357
17.011,0.0001341135987277141,-0.0873411547374361,-0.07847060421276657,-0.011120981476301129,-5.123288880665427e-06,0.010501405537935014,0.0004549772341429936
17.021,-0.0010191704798238389,-0.09478985182569855,-0.086201097248988,-0.0010248762674123276,-0.00010384876621109015,0.0037253531445406683,0.00042484915238332074
17.031,2.724140795855719e-06,-0.10040465510826091,-0.09359737331720393,0.007060720152565389,-7.72580815159334e-05,-0.006823613929104414,-0.0009185402768757701
17.041,0.0006191559741342787,-0.10316696258069889,-0.10084907552578136,-0.00045623221000725897,0.00061865937215829,-0.0024522571009585655,-0.0015484261742519522
17.051,0.0010049788287795208,-0.12318423685266634,-0.10402776285613889,0.023982413182329878,-0.002140403599904665,-0.015728417100363847,0.003056155278811352
17.061,-0.0031610998404628977,-0.11525154572310642,-0.11802752054995311,-0.009104420561339394,0.0005610034367461168,0.005398892897971148,-0.0024881610960605285
17.071,0.002853107290692153,-0.12744481870221203,-0.11830208342231038,0.003927042639479568,0.0005883470315651616,-0.004864630184720432,0.0009975744359148123
17.081,0.0001217782006463427,-0.13166193934272424,-0.12964537428192102,-0.014175180574839644,0.0002893610881786166,0.011950146280086085,-0.001952239337257031
17.091,0.0016194762737792813,-0.14232045413046918,-0.13561319725150658,0.018913536663435943,-0.0006681490426989605,-0.021675662534295276,-0.0022654563856324894
17.101,-0.00043603245759041113,-0.1535370393854431,-0.13927914947927805,0.005801483955420261,-0.000666556720011548,-0.0021427878621746404,0.004328104371651946
17.111,-0.0016680056250289136,-0.1538692375301767,-0.1506852449013768,-0.00450304949138136,0.0003791780760474834,0.0015766744682047672,-0.0010763365070992346
17.121,0.0010843030512600958,-0.16756786686560388,-0.15501938974602622,0.020834956021272093,-0.0005279636131784271,-0.015767266961108917,0.0007823155838365206
17.131,-0.0008546185031013218,-0.1748138161085337,-0.16401741029941222,0.021875936654352435,-0.0009707858764889023,-0.016618703668923155,0.00033997391306982735
17.141,-0.001979051089149835,-0.1874310068740111,-0.16971974623588923,0.027254945615022647,-0.0021927609055896443,-0.015737119791331692,0.003072123656318057
17.151,-0.0020481119775452223,-0.1867103217274397,-0.17794388414686596,-0.005548852080085789,0.0006877349468401724,0.0077061624447232625,0.001483827456310241
17.161,0.0014929527928029217,-0.1955697965127204,-0.18577171651590066,0.009890923856781288,-0.0003386382638153443,-0.012585706388993742,-0.002719556204309627
17.171,-0.0009319450235015408,-0.20320365395650344,-0.1926783629969301,-0.004998655679935826,-0.00020320320566659625,0.00655694600949472,0.0006543906012773712
17.181,0.000144458635518833,-0.2129042065684614,-0.19979287668796947,0.010719830440889467,-0.0001883673519530072,-0.008429855686310685,0.00043457630765062405
17.191,3.903684344091585e-05,-0.21866815126802613,-0.20979866570628947,0.015231914779247919,-0.00030755752424987384,-0.015416437281022167,-0.0022447903559566175
17.201,-0.0012038856806618368,-0.24022652140651332,-0.2117075899715503,0.03655292937223328,-0.002648486574865516,-0.021612448148589702,0.006436086697209722
17.211,-0.004106410120447777,-0.2367460365671581,-0.22575407420719418,0.0022466555954328317,0.00022054769624921733,0.0011626965245173041,0.0007987324062747048
17.221,4.094581388251132e-05,-0.2455118577436717,-0.23223487216613603,-0.0006844371919935317,-0.0004221056850922838,0.0020131191041510687,-0.001291827854439021
17.231,0.0011159512196138206,-0.25264053178528456,-0.23997875595711043,-0.0018768530834691877,0.0003967315913171962,-0.00013919287076114093,-0.00101994738275095
17.241,-0.0006966590103110377,-0.26230323762101226,-0.24978271550700587,0.002723268064150915,-0.0007764748598700833,-0.0020048016156156657,-0.0012320619891160313
17.251,-9.115629732847256e-05,-0.270081794690274,-0.2563235210060138,-0.0015503543158987892,0.0002634370620541903,0.0016172082682823063,0.0005219863151604672
17.261,0.0002638955828520411,-0.27744253425297444,-0.2673275748792101,-0.0010002273320924718,-0.0004359324900633467,0.0003009569207579081,-0.002264693569650946
17.271,0.0010424541294759124,-0.28934099563133253,-0.2726104593310888,0.0027247425079602898,-0.00046068283712475815,-0.0018974360417434175,0.0008958618878527347
17.281,-0.0008731296481342876,-0.2913969634780551,-0.2851537210787876,-0.023723897333813693,0.0008199823575833644,0.019077425954085517,-0.0019538634930512102
17.291,0.0008233150357968743,-0.29817513168361004,-0.2921623269256806,-0.03249463469946226,0.002300378099243495,0.02754087463563968,-0.0012866376301066294
17.301,0.0038315656395215194,-0.31669621618987825,-0.3012330445812058,0.009179322116323368,-0.0017384784507889215,-0.013416537642825932,-0.0035038991063493855
17.311,-0.0033215215824504993,-0.3206810337988821,-0.31128275028928326,-0.00796763118066849,0.0009343736151923126,0.007061827957532374,0.0016521719817053318
17.321,0.0007481226696212524,-0.33543803528154525,-0.3183254588345057,0.015984770589195674,-0.0009191595713641623,-0.013723436615372982,0.00048671516506101984
17.331,-0.000490163452845259,-0.34172384891498675,-0.32857387238916397,-0.00584122394566578,-0.0004900438778377552,0.007977076341502633,0.00045643867093957124
17.341,-0.0013795587598968095,-0.3507834307295432,-0.33796262169978614,0.009092227870313257,-0.00019479437316239785,-0.006778661208431898,0.0004444627087504924
17.351,-0.0002539461940236462,-0.36379391934309296,-0.34688770634021093,0.027148728614540724,-0.0019461266860445153,-0.020517139406833387,0.0008622024566841756
17.361,-0.0025468123463932,-0.37270894249924796,-0.35359287864514555,0.004894447124957017,-0.0009886401362493137,0.0035974448268764215,0.004978686529888299
17.371,0.00029308206990558247,-0.37347185630799196,-0.36677338327852854,-0.004842535780090475,0.0005037698997652057,-0.0012880725983059477,-0.003612505178040474
17.381,0.001222106033920589,-0.38623953027900626,-0.3737325766919911,0.007088127714505151,-0.0003462676748277812,-0.006447121054705337,-0.0002909045977765835
17.391,0.00024073996673473666,-0.395776877330551,-0.38218321354255236,-0.0012297700201935133,-0.0005975108269008593,0.0015821185189984453,0.0005536516377004677
17.401,-0.00017517521380257597,-0.4051335257430633,-0.39138736507394617,0.0075138669945871905,-0.0005779400942582393,-0.006707410305248767,0.00028404893420553635
17.411,-0.0005466164860110115,-0.41276479120883625,-0.39998989924978023,0.0013409369719081174,-0.0004209975058060894,-0.0017032151164826474,0.0010427553291558096
17.421,0.0005205167331712491,-0.4210529690775606,-0.4093667236812161,-0.005104677320545489,-0.00018415874737263586,0.004907555586207023,-0.0003296317952759515
17.431,-0.0003853572440586568,-0.4320703331551241,-0.4176367061304023,0.006060979106507457,-0.0005044102632403499,-0.00423800823452378,0.0006675145300111224
17.441,-0.0020672247519929418,-0.43913137556297016,-0.42524918331187334,-0.011416931246620035,6.13734614557822e-05,0.012633216303783897,0.0032580926759317387
17.451,0.0014681279225726568,-0.4524092740985147,-0.4382255426041822,0.02817958439760918,-0.0021780464885466293,-0.026188592613658863,-0.0044005578642538155
17.461,-0.0030002293550528782,-0.46391813581311286,-0.4393926739586177,0.00881848281237611,-0.0012903376848875945,0.0007500136725034079,0.008884335093816491
17.471,-0.0023531302356339526,-0.45996453285450767,-0.45218880220467256,-0.03800353156712767,0.00213394778967764,0.03169181586784134,0.0002824062905127352
17.481,0.003681909348847183,-0.4659282193938638,-0.46362793463693147,-0.029702096690568447,0.002381571371559303,0.018859823154758537,-0.007506671395064864
17.491,0.001580594645600325,-0.47416590529293623,-0.4707475483516159,-0.03784266171368283,0.003201644193372198,0.029266730991737377,-0.0027783399559607328
17.501,0.006348225742164277,-0.4902516078204821,-0.4787614238418638,0.004610882542689498,0.0009227811854027675,-0.011612404993328232,-0.006109545692566962
17.511,-0.000301936150060857,-0.5038124203829166,-0.48663792145162377,0.01411374655445208,-0.0012189385854545875,-0.01326606229693132,0.0019055160326137597
17.521,-0.0013532108296625276,-0.5163162145202256,-0.4947572988902408,0.02462689300296566,-0.002824483438733691,-0.02003025432864928,0.0026205492655139275
17.531,-0.0009049375450533555,-0.5275260794488313,-0.5028668034362912,0.03318165865865702,-0.0034238023862637737,-0.02422042711624052,0.0028779599063037554
17.541,-0.003773251866244388,-0.5360563283565064,-0.5101283645710684,0.02799886344330551,-0.0029683219727249283,-0.017354731827837186,0.006049736869408519
17.551,-0.0037367430631973565,-0.5425707720110984,-0.5195709089999321,0.018716195512100874,-0.0029593799274899688,-0.009795687018312795,0.003957996691773576
17.561,-0.0015011729165938666,-0.5454583863948669,-0.5279325218647575,-0.0023345592093670826,-0.0006744320320233605,0.00483675540326526,0.0010691948556830074
17.571,0.00042664385843950024,-0.5457589462824423,-0.5368975797804973,-0.029889899487777278,0.0024413994164002167,0.023336250169092288,-0.0020819174843208117
17.581,0.0018782093546644573,-0.5498288342567066,-0.545576268284678,-0.040937610944932486,0.0042878984536932185,0.02975329504397746,-0.0035750563730094645
17.591,0.0033605695082044797,-0.5739565593824155,-0.554893331779116,0.023942798232589477,-0.0024857369734521072,-0.022814948047133465,-0.003962656024982544
17.601,-0.004462508188198318,-0.579299306006117,-0.5613411809003755,-0.002082716842539204,-0.0010754407437160208,0.005002317213483531,0.004924337006547724
17.611,0.0015572905913390105,-0.5869379257766698,-0.5704574070799033,0.00719820906369624,-0.00038009337001717106,-0.006833218781651936,-0.002653227110767144
17.621,0.00046669866581405394,-0.5964718800313896,-0.5774208069520753,0.010782132585317955,-0.0009427393560395687,-0.007815870336022903,0.0013137059995147393
17.631,-0.002325863171416283,-0.6045417872631609,-0.5858211431381586,0.005851842913325614,-0.0018373569582372572,-0.0031863346873321156,0.002548185137845642
17.641,0.0008606226444472572,-0.6098733035708674,-0.5944783931706309,0.0009533851509668963,-0.00042481291979253033,-0.0012968491729012212,-0.0012449063277674404
17.651,-0.00025775525116026547,-0.6176161211413838,-0.6023835907460005,-0.0009346439446332854,-8.562937730396969e-05,0.0016054816080339266,7.179656639232166e-05
17.661,0.0005334862564359958,-0.6285772406697965,-0.6104865784509101,0.011593566655391416,-0.0017491795836248347,-0.009897948983797214,-0.0006611336755885074
17.671,-0.0008106095296243762,-0.6323816125431323,-0.6170921713888431,-0.006479054376022398,0.00020382570935907195,0.004980452914742182,0.0016719596258194828
17.681,0.0013326771260276503,-0.6388750066399675,-0.6255565789138151,-0.004830914229925207,0.0011966292266274365,0.0015357018072260946,-0.001628502418095857
17.691,1.8666805916688935e-05,-0.6527672333136937,-0.6333880826547347,0.014720078997695807,-0.0023850954418270687,-0.011020418365467672,0.0007912342111179279
17.701,-0.0013338750469614742,-0.6587655382211028,-0.6383848847466261,0.004332345492197144,-0.001344483969100009,-0.003230890153666611,0.003797550174367771
17.711,4.86209975298785e-05,-0.6612586726508063,-0.6486025040400168,-0.007352166790725433,0.00031699107575368054,0.004324611489921493,-0.0017481689894189173
17.721,0.0004550242104527108,-0.6700642204378106,-0.6553655279897457,-0.001264954414854354,0.0001867064616879833,0.001161563967898942,-0.00037794962171051503
17.731,0.0008394644634198841,-0.6799625340105554,-0.6627547217308941,0.00896292131984983,-0.001449775873698883,-0.007646264632706224,-0.0007547337153979177
17.741,5.6207314458126326e-05,-0.680454238058056,-0.6697162446238518,-0.013885809762080623,0.0016910857747922537,0.009511980358553392,-0.0005829225020867748
17.751,0.0022074478747714935,-0.6876909701665138,-0.6770164066689387,-0.009085532054128714,0.0016982963689594593,0.004211287925028388,-0.0029359271938018683
17.761,0.001980639886880722,-0.6876544314287987,-0.6870164557309145,-0.029017693636209218,0.0050028408910972495,0.020264247519297205,-0.0064885299602191375
17.771,0.005625832900332543,-0.7164341068678148,-0.6857792038563815,0.043355347177710855,-0.004733088289627923,-0.037988556708094944,0.0037150754335814737
17.781,-0.010926081773564926,-0.7098204223021076,-0.6947960746473177,-0.028676947181073914,-0.0008089346006667032,0.027241824688840316,0.007363984593290912
17.791,0.009453927040908725,-0.7100847529321437,-0.7047153530492376,-0.009312818569289009,0.005718099992741559,-0.0002097295982507628,-0.012323307685665176
17.801,-0.0016014891132127306,-0.710417411492764,-0.7095692901198543,-0.04565760991797332,0.007450742801882079,0.03495040802563476,0.0010723103721766492
17.811,0.008061605766717134,-0.7361748306594879,-0.7155119062889865,0.029485348881911788,-0.002247499091701656,-0.0301036394851918,-0.006333654957685136
17.821,-0.008251358598630956,-0.7365223101063567,-0.7198857440889277,-0.020334017714881136,-0.0018085316720932376,0.020060634294633638,0.007614984182404385
17.831,0.004648805831425389,-0.7480162184174989,-0.7268731006508747,0.022054689982739826,-0.0011495204002523074,-0.019464064508531866,-0.004297140355022945
17.841,-0.0020308841757533252,-0.7476982312207616,-0.7319021842144351,-0.00843049251779654,0.0012477341574096755,0.008147386536631678,0.004910608560059
17.851,0.0030869584587959577,-0.7477754313695912,-0.7429503722444429,-0.01613189166487329,0.0034162488068691724,0.008172313131144209,-0.009310971447679273
17.861,0.003047692659640325,-0.7643180788683188,-0.7437840628743493,0.015292427867953748,-0.0017683942801174656,-0.013803966411350817,0.001128253359560463
17.871,-0.004484103465480015,-0.7711013038005287,-0.7476487296743068,0.001916538833089003,-0.002863035040966468,0.0012282599758869418,0.0054652788873357245
17.881,0.0019551877999810195,-0.7756182027749264,-0.7561965830229136,0.013758604794823506,-0.001225365190317661,-0.011145593451985613,-0.001966358956930211
17.891,-0.001206004696371739,-0.7837035574378776,-0.7589315781248849,0.014435686006822525,-0.003008404828525362,-0.00941714810463622,0.005082675164987779
17.901,-0.0015163930011180401,-0.7832171352353503,-0.7628829445451099,-0.0025710600287368293,0.00014559276746488575,0.0019028689256717843,0.003861729580271798
17.911,-0.001976088107788543,-0.7899378903824379,-0.7696767789954262,0.0005882633976712973,-0.0018698711142973363,0.0011048792188054508,0.0009333049201089034
17.921,0.0024949726078005593,-0.7942391395197745,-0.7749242741499611,0.008665473648465505,-0.00034276275827424475,-0.008894982198564935,-0.00026415656943806683
17.931,-0.0018922792356681028,-0.7960900792395674,-0.7792765111143152,-0.00962878765400674,0.0005725818853360196,0.007706728941941847,0.002041853374316063
17.941,0.000973112418901768,-0.8027878279501481,-0.7857079423656308,0.003863876448260866,-0.0002608936522316257,-0.003830263823866738,-0.0016289942158057768
17.951,0.00044321871356760035,-0.8105695516233469,-0.7900990480139677,0.010031715060166146,-0.002168186152259735,-0.00744594814911312,0.0009630260531929962
17.961,-0.001106618483369542,-0.8125935766250674,-0.7941611216342161,0.0008008788478558416,-0.0005548479546938156,0.0006369248006518309,0.0022491442484783024
17.971,0.004447834024815268,-0.8144647044982752,-0.8065447401956234,0.006251988697429876,0.0011392013466318923,-0.006848343898831197,-0.009333684634421593
17.981,-0.003429343805400522,-0.834860809425813,-0.7930348869549254,0.035559297764397625,-0.007584600522232922,-0.022995593949437808,0.021922364025251856
17.991,-0.0040325979120590175,-0.8333020208117319,-0.808166437317299,0.006716028956444811,-0.00810018843307669,-0.0009044746663862957,-0.002556400109453248
18.001,0.0026970314581913454,-0.8405693649819667,-0.8116660510916587,0.039126073640552456,-0.006537861592515794,-0.027476151372924126,0.0031461489005052126
18.011,-0.011310623779862451,-0.8446991910671331,-0.7987309075929647,0.011140842851616496,-0.00725959594929304,-0.0013401519475817192,0.026969843559726776
18.021,0.005770173532549707,-0.8373182628575857,-0.8306269817272356,0.009871219569909011,-0.003658963089725624,-0.00915758807166741,-0.023542831066857752
18.031,-0.0006063988159656034,-0.837143620188679,-0.8140451484162883,0.0033759405369200917,0.0033885429223146726,-0.0024897235283968516,0.016610724254313727
18.041,-0.0038830961275847183,-0.8405426617328854,-0.821596741227838,-0.01371933409281177,-7.415756074712391e-05,0.01097051765305294,0.0005359029151320808
18.051,0.004153450525920592,-0.842805086759685,-0.8336178923400323,0.005108774767437707,0.0010586679253309843,-0.005097214871175745,-0.008416009278246749
18.061,-0.0005215784033635036,-0.8460925981481198,-0.828023743442684,-0.0025094302675142,0.0018873203919441616,0.0004953246642871462,0.006395426322850737
18.071,0.0009336500811748913,-0.8451982740664138,-0.8360086934409834,-0.010545189957703621,0.0031164307472930095,0.00668166005281484,-0.003918884545785991
18.081,0.0009952162156731765,-0.8533003977314919,-0.8373541845892923,0.0030465154876273496,-0.0002869708230417796,-0.003127287134049418,-0.00034467655672707723
18.091,0.0003693354362688237,-0.85580266781929,-0.8391557734496473,0.0009704003584623134,0.00021510293370252415,-0.001046609284994586,0.0014194813238331775
18.101,-0.0003677930764289754,-0.8605661611483076,-0.8413249284011864,0.003098493159152017,-0.001788735357144481,-0.002108412783867087,0.0008760211129874781
18.111,0.0005308792667445337,-0.8628627958166718,-0.8430587443924779,0.006335284749702812,-0.0014897341833263592,-0.0059064984296810855,0.0016766588741688503
18.121,-0.0013162706309671334,-0.8602753049758504,-0.8437271443342739,-0.00793595602502212,0.001641489709503048,0.005853171208444046,0.00275294206664248
18.131,-0.00047215322277185576,-0.8682888315016866,-0.8463334555648839,0.006963721099688356,-0.002528028899204727,-0.00480490429384059,0.001744322162954787
18.141,0.0013504123569792609,-0.8645051056516712,-0.8512832624276377,6.117257659361223e-05,0.0010133840301282575,-0.0013139442931491179,-0.0014228070188353889
18.151,-0.0013182447849565573,-0.8723669679439008,-0.8497500984471926,0.0048332407092165405,-0.003584866543702995,-0.001713820254001965,0.003210789621547464
18.161,0.00028419273693952216,-0.871604648370561,-0.8527872355718826,0.005830863874588053,-0.0016170427751703194,-0.0045706719965541865,0.0005169624428768292
18.171,5.5416620243453575e-05,-0.8686325997239057,-0.8539126105794232,-0.004029361860499682,0.0015307575843179445,0.0019801213412488517,0.0007263756877072115
