marzuk-umich/fetch_joint_controls/test/actual_all_joints.csv
Time,Joint_0,Joint_1,Joint_2,Joint_3,Joint_4,Joint_5,Joint_6
58.768,1.3200002493891514,1.399984072821642,-0.19998798523641703,1.7199679092759492,2.168884473796595e-06,1.6600032144350196,-4.935142916551172e-07
58.778,1.3200009245592925,1.3999806152877818,-0.19998683992798316,1.719971145352007,1.3904869362590944e-06,1.6600025233894433,7.682730132074767e-07
58.788,1.3200010209009632,1.3999878195003408,-0.19998953992139068,1.7199550364268106,2.3205036976392535e-06,1.6600124993927787,-3.132582996556721e-06
58.798,1.3200023624966963,1.3999754358216991,-0.19998460937580287,1.7199864062562433,-5.171645431900629e-07,1.6599921619396296,2.3252250960226206e-06
58.808,1.319998025623029,1.3999862569988482,-0.19999033674200017,1.719960209893399,2.1441950144307498e-06,1.660008443647384,-1.0979782256725912e-06
58.818,1.3200014194884755,1.3999804040478558,-0.19998620068427897,1.7199774020062097,1.593815903255802e-06,1.6599957396928096,6.905671146029135e-07
58.828,1.3200002237434463,1.3999819398362732,-0.19998808320584605,1.719966289829797,1.4567178103774836e-06,1.6600074007882801,-2.0295584768348363e-07
58.838,1.3199987019967496,1.3999851676814101,-0.19998808156147785,1.7199462760873239,2.366691294497514e-06,1.660029329458629,7.63977300088925e-07
58.848,1.3200031465975508,1.3999782515889905,-0.1999865099768856,1.7199855659009238,6.169329429539516e-07,1.6599871767007288,-1.0535989289905956e-06
58.858,1.3199991030171345,1.3999859317673709,-0.19998918381246344,1.719961911860734,2.3696843207687834e-06,1.6600080029794961,-8.039401784287747e-07
58.868,1.3200012292617123,1.3999798973999829,-0.199986269825569,1.7199749978124483,1.3595680998790272e-06,1.659998705469632,1.0852635634606145e-06
58.878,1.3200001132263708,1.3999858397927065,-0.19998977461260825,1.7199553698692007,2.227880987248909e-06,1.6600154376449785,-1.929029616043465e-06
58.888,1.3200010927742012,1.3999783521775537,-0.19998591735324744,1.7199802937429691,6.387024438225808e-07,1.6599954626293378,1.5298257327600595e-06
58.898,1.3199986918281201,1.3999881160766092,-0.19999139264604526,1.7199652676905934,3.1281712624675606e-06,1.6600047226105215,-2.015927210052837e-06
58.908,1.3200035906126244,1.3999711790521214,-0.19998153515005335,1.720009507256794,-1.949999568040539e-06,1.6599673727028206,3.2041724233877744e-06
58.918,1.3199979161465363,1.399985478452348,-0.1999891402822911,1.7199220540669877,2.453744937014335e-06,1.6600475128767265,2.1258412097324708e-07
58.928,1.3200038603541637,1.3999988351743147,-0.19998789010723073,1.719848410553297,5.241153422375078e-06,1.6600967280691457,-5.402742894844437e-06
58.938,1.3200070131228392,1.3999775402485035,-0.19998457195306152,1.7199677168545726,8.860032183477529e-07,1.6599927392669285,-2.731521298926509e-06
58.948,1.3199991769697768,1.399979750813901,-0.19999180984102605,1.7200476166725345,1.0071711962211793e-06,1.6599169352766907,-3.7075000145492254e-06
58.958,1.3199982114502928,1.3999503074000286,-0.1999809607282046,1.720125788337869,-3.939847068146207e-06,1.6598726486965862,1.1440712119892282e-05
58.968,1.3199885196247152,1.3999646634040541,-0.19998809890244917,1.720017791065116,-1.2989591251511001e-06,1.6599684357332505,9.095297965444615e-06
58.978,1.3200019964875738,1.3999906988967714,-0.1999927383250677,1.7200446474091589,2.84776849124313e-06,1.6598990858615599,-1.0261613586415308e-05
58.988,1.320010738466948,1.3999474387424815,-0.19997816961382053,1.720245860274968,-7.342250703423758e-06,1.6597458925194752,4.49431196081207e-06
58.998,1.31997310678232,1.399915343438498,-0.19997982796463099,1.7202082033183252,-1.2051011624159003e-05,1.6598516821931586,3.656834724186098e-05
59.008,1.3199608839466048,1.399959143601813,-0.19999550957918277,1.7200168110174765,-6.673317693994818e-07,1.659992312360309,2.1698736365927118e-05
59.018,1.3199932982771339,1.3999697116307308,-0.1999749559838726,1.7199199562691838,4.600448307634508e-06,1.6600566133470345,1.130109276115121e-05
59.028,1.3200039575380158,1.400003336786094,-0.19998186859583633,1.7196646263281856,8.708030325266236e-06,1.660276100932344,-1.0083304990970987e-05
59.038,1.3200148340886235,1.400025519847417,-0.1999849321770064,1.7196271676352488,1.3150579290410747e-05,1.660285555933716,-2.3091026246646607e-05
59.048,1.3200368619692906,1.3999914129199418,-0.19997648709843752,1.7199077250630417,2.84913164261269e-06,1.6599908603307254,-3.117845201128233e-05
59.058,1.3200041917427914,1.4000259620124522,-0.199987346196699,1.7197996276424021,1.0773972289435108e-05,1.6601113078888563,-1.1823582271475175e-05
59.068,1.3200162510268036,1.3999378569594674,-0.19996197498371515,1.7199759487532695,-8.121220472112611e-06,1.6599827687769704,6.9449536388432875e-06
59.078,1.3199836824887088,1.4000122451121886,-0.1999988106579309,1.7198806307282375,7.889804842342585e-06,1.6600388101860624,-1.047607120341354e-05
59.088,1.3200085818759826,1.399958285142623,-0.19996651749894934,1.7200937904438156,-5.801970131003031e-07,1.6598776657772696,9.20532675419139e-06
59.098,1.3199958239363232,1.39995910561744,-0.19998048013188363,1.7199841367377484,-3.77314497335135e-06,1.660004788048263,3.6057535419686815e-06
59.108,1.3199935093036528,1.3999783192660287,-0.19998635441149482,1.7200394397872252,1.0820995788307641e-06,1.659922280478546,-5.246487063459426e-06
59.118,1.320000988386596,1.3999697539633322,-0.19997328128884817,1.7200957135780044,1.0372012555492915e-06,1.659886876305059,1.0014246234923974e-05
59.128,1.3199972111257487,1.3999491062996103,-0.19997700320980538,1.720036447582082,-6.658283794536146e-06,1.6599611678437416,7.473118905920728e-06
59.138,1.319996505426773,1.3999702104310714,-0.19998194065882835,1.7199917659818418,-1.4878702367937535e-06,1.659958815307105,-2.943776154396005e-06
59.148,1.3200001396514063,1.399984831646412,-0.19997943070276225,1.720014951953413,5.429295882208862e-06,1.659926383681099,1.3313702496020596e-06
59.158,1.3200016792163494,1.3999391430989894,-0.1999724975086119,1.7200634697726507,-5.61652687647296e-06,1.6599247717403847,8.514095090284002e-06
59.168,1.3199919632278752,1.3999816995567782,-0.19998523282617775,1.7198713850087088,2.2109282991067403e-06,1.6600708357613403,-2.6032395696873323e-06
59.178,1.3200050585967418,1.3999731604272343,-0.1999740672608068,1.7199592746178087,3.6388494848438313e-06,1.6599822199404182,1.3959104059324545e-06
59.188,1.319999006520761,1.3999776108951627,-0.19998326846083003,1.7199609837856045,2.124275731318903e-06,1.6599931980308558,-2.4743708575414303e-06
59.198,1.3200037054862177,1.399959758051704,-0.19997779189350506,1.7200155634610024,-2.5129011351765485e-06,1.659949257863981,-9.70627231033916e-07
59.208,1.3199965944616565,1.3999699106755772,-0.19998182662123565,1.7200337787231206,7.451334891328543e-07,1.6599301817758079,2.2814639173418527e-06
59.218,1.320000001480551,1.3999628057200315,-0.19997327390922592,1.719982547787973,-1.7121903530536997e-06,1.659978729113777,7.029315856499352e-06
59.228,1.3199989482516408,1.399982994856468,-0.199979970741472,1.7198929133892147,1.6793005794824012e-06,1.6600506008361515,-2.632923983725277e-06
59.238,1.3200083600197763,1.3999760153946115,-0.19997986900866582,1.720022982210235,1.1091130476259536e-06,1.6599246265025247,-7.546882313747005e-06
59.248,1.3200057416730564,1.3999698611293265,-0.19997425662608315,1.7199341143195088,-5.539031677770367e-07,1.6600200286156772,2.4185452698333165e-06
59.258,1.3199978989103478,1.3999660258583653,-0.19998527707416702,1.7200764271414126,-2.2046680312470812e-06,1.6598743174754205,-4.0307216737645035e-06
59.268,1.320000216759313,1.399967995382271,-0.1999798643326267,1.7201383366644798,-8.526751651416475e-07,1.6598189036352817,2.4301108139113126e-06
59.278,1.319983689383359,1.3998965653568494,-0.19996649898429286,1.7202567194898304,-1.4466620488207127e-05,1.6597912836592341,3.624123010315117e-05
59.288,1.3199608689549143,1.399969443088593,-0.19999068165780898,1.7198690821815479,3.45200949780633e-06,1.6601220250584294,1.8358927023953697e-05
59.298,1.3200141323448635,1.3999516116906214,-0.19996756052603537,1.7200628372975117,-1.317647684295764e-06,1.6598647511087536,-6.231746365159552e-06
59.308,1.3199967924901532,1.3999744776827017,-0.1999791080597344,1.7199545038563055,4.190759679723044e-06,1.6599978979413956,1.0889823931492515e-06
59.318,1.320003027689535,1.399946027183712,-0.19997397757907187,1.720048004640276,-4.1824727077255375e-06,1.659915203336066,-3.653974403050597e-07
59.328,1.3199934632259485,1.3999680448584142,-0.1999783950064291,1.7200081917975432,1.2536724067757632e-06,1.6599568854431528,4.060269231054292e-06
59.338,1.3199991292241133,1.3999723110531805,-0.199973035043695,1.7199287620160426,2.1507772833828653e-06,1.6600261806416903,4.033888258092588e-06
59.348,1.3200012794999827,1.3999763238067064,-0.19997857231981975,1.719946039070754,1.202575519165805e-06,1.660006828911528,-5.849077741260089e-06
59.358,1.3199977466706727,1.399970725457651,-0.199974795502591,1.7199790224132432,1.351892701784152e-06,1.659994429096229,3.5043604293960584e-06
59.368,1.320003701824505,1.4000002247735335,-0.19997853089375273,1.719810727954325,6.6085322876219266e-06,1.660121143999099,-7.938921562811174e-06
59.378,1.3200114592763628,1.400020066244008,-0.19998341704242772,1.7198072576890855,9.397469171723571e-06,1.6601102200519327,-2.083453963752646e-05
59.388,1.3200304646709613,1.3999384066605627,-0.19996646882420777,1.7202208297255464,-1.1354318369960481e-05,1.6597293298911344,-1.3002569817288645e-05
59.398,1.3199765944223154,1.399923317729522,-0.1999751329347701,1.7202397723786316,-1.0467277306247524e-05,1.659759697670685,2.9147151889397094e-05
59.408,1.3199634675952794,1.3999501625833934,-0.19997675987232189,1.719987707708217,1.3536905374422759e-06,1.65999587057627,3.309958032016169e-05
59.418,1.320004482856854,1.3999383535649166,-0.19998115467746036,1.7202536328524651,-5.798640613896566e-06,1.659696781956094,-1.0303372691922164e-05
59.428,1.3199838582507022,1.3999260741315034,-0.19995524487169902,1.7199269673227136,-3.2066083823778513e-06,1.6601036327252547,3.819196271059866e-05
59.438,1.3199873804764364,1.400015189272687,-0.19998884412131446,1.7195761113688235,1.360384137782944e-05,1.6603363558353301,-1.190031378062173e-05
59.448,1.320029887579663,1.399950212669367,-0.1999646737101468,1.7200440033631033,-1.2527393762340466e-06,1.659888693697149,-1.923163341199796e-05
59.458,1.3199945905715085,1.3999944567863034,-0.19998495951882056,1.7199685213130387,6.157596485145689e-06,1.6599597148249439,-4.376712499976065e-06
59.468,1.3200021537493276,1.399930759266696,-0.19996928695850702,1.720249329517177,-8.915151631150309e-06,1.6597495767035726,9.971736406377829e-06
59.478,1.3199775976134909,1.399942098962696,-0.1999640069669404,1.719861605225553,-4.921678188551937e-06,1.660169221684157,3.475505442906979e-05
59.488,1.3200008926067177,1.3999767417690698,-0.1999869764324318,1.7200403275173723,-1.5105385857694387e-06,1.6598780857759436,-1.9386011158140093e-05
59.498,1.319996609026104,1.399988172552896,-0.19996672813395566,1.719850679147072,1.0185568539711198e-05,1.6601198206977363,1.4843441386247491e-05
59.508,1.3200087766499813,1.3999542364490791,-0.19997830527589144,1.7199760341010695,-4.691582131677308e-06,1.6599789534715201,-9.27929267113825e-06
59.518,1.319996610346439,1.3999814185771804,-0.1999810591994935,1.7198970855078155,3.926526268571706e-06,1.660048505938124,-5.352344833120526e-06
59.528,1.3199964926732717,1.3999896539212484,-0.19996950687186565,1.7198124829610677,8.137905187055594e-06,1.6601310003426244,1.2841671609642447e-05
59.538,1.3200115457834354,1.3999508790398485,-0.1999780727377667,1.7200063782110178,-5.097535631826133e-06,1.65994293992222,-1.3264249354882907e-05
59.548,1.3199939538605356,1.3999920855484644,-0.19998261853713561,1.7198851459508298,6.420598068324068e-06,1.6600478805956946,-2.5982368603294503e-06
59.558,1.32000855797249,1.3999700947337814,-0.19997128918559248,1.7199886681144836,1.9065453678024369e-06,1.659953030032172,1.994817361072876e-06
59.568,1.3199964602886292,1.3999623486410453,-0.19997835792980112,1.7199674698018832,-2.7311295447418615e-06,1.6600071673076942,2.295296690491e-06
59.578,1.3199969072151099,1.3999768479873351,-0.19997972982140766,1.7199449957447648,2.1533767702308637e-06,1.6600107895305865,1.723322222701995e-07
59.588,1.3200023781608499,1.3999887954566077,-0.19997997107188947,1.7199481610535976,4.814187628987554e-06,1.6600035777713869,-2.727237664146287e-06
59.598,1.320001984693513,1.3999744943718548,-0.1999782986055969,1.719985478206473,-1.0280899251924325e-06,1.6599915596462287,3.516403195291673e-07
59.608,1.3199982874286285,1.3999817581475025,-0.19998374823122056,1.7199798876208163,1.0426914611727511e-06,1.6600018397214509,-9.852868680937377e-07
59.618,1.319999866255591,1.3999892033676256,-0.19998301624926373,1.7199562300121691,3.0936083268429115e-06,1.6600227786849624,7.09206834592635e-07
59.628,1.3200011666942633,1.3999836180138914,-0.19998352254181562,1.7199836405082074,4.3937903271284995e-07,1.6599995804468008,1.5630846039726976e-07
59.638,1.3199998596619134,1.3999834489283858,-0.19998711120284351,1.71998198238445,1.0060731083783025e-06,1.6600028808694054,-7.556905883276954e-07
59.648,1.320000270737527,1.399986745024635,-0.1999876858933316,1.71995418651119,2.444350742258905e-06,1.660022783047829,3.956896099666096e-07
59.658,1.3200011849005175,1.3999813880283787,-0.19998780436510089,1.7199804315028846,6.990823360197851e-07,1.6599936137417188,3.9937703899539656e-07
59.668,1.3200000720457465,1.3999805330224486,-0.1999908916460411,1.7199771312544705,1.6101541433499733e-06,1.6599964590352974,-1.8910618848622107e-07
59.678,1.320000459763893,1.399982910556452,-0.19999154670282326,1.7199503596632582,2.469344126510009e-06,1.660017660656961,2.066462174710182e-07
59.688,1.3200013692305008,1.399979220116017,-0.19999095217979868,1.7199774209537573,8.033543723584557e-07,1.6599897532841252,5.207796789363783e-07
59.698,1.3200002460808928,1.3999798561534416,-0.19999340543942346,1.7199758947633104,1.7432142804807427e-06,1.659994471488674,1.9751171453918914e-07
59.708,1.320000483934578,1.3999830511090972,-0.1999936889846845,1.719950729351309,2.3952994823162044e-06,1.6600182617121133,2.1642523595488683e-07
59.718,1.3200014053513165,1.3999803188390878,-0.19999228526129986,1.7199790193914524,7.535280097670238e-07,1.659991854158946,6.512530257296589e-07
59.728,1.3200002401753448,1.3999815977674102,-0.19999406482742543,1.7199780020774966,1.6961331610332309e-06,1.6599971680313548,3.330741993323727e-07
59.738,1.3200004304134412,1.3999846414619705,-0.19999373885795446,1.7199528358227845,2.2607883671810214e-06,1.660021023343707,2.2803078358890616e-07
59.748,1.3200013497646195,1.3999814814469458,-0.19999165740702107,1.7199806085692728,6.46979828822225e-07,1.6599939812069016,6.371868215282461e-07
59.758,1.3200001666625196,1.3999822495921368,-0.1999928652679106,1.719978805942219,1.6319238955730953e-06,1.6599981985421772,2.6131648667160334e-07
59.768,1.3200003399285016,1.3999846623007857,-0.19999205440528023,1.7199528392478634,2.243424682468742e-06,1.6600210265277928,1.1777719244321361e-07
59.778,1.3200012533633343,1.3999809827841023,-0.19998954967460048,1.7199799895562844,6.643769099312635e-07,1.6599931829491972,4.3711894370801474e-07
59.788,1.3200000608839373,1.3999815073194384,-0.1999904529301153,1.7199778260158212,1.6853695719021289e-06,1.6599969059601865,1.054956833002052e-07
59.798,1.3200002205882688,1.3999838840618137,-0.19998944469165636,1.7199518033365404,2.2969545039330796e-06,1.6600196616097023,-2.3263964621378364e-07
59.808,1.3200011469428672,1.3999803415609655,-0.19998683267929884,1.71997915547583,6.964602148329391e-07,1.6599920892631026,2.2879032890443796e-07
59.818,1.3199999418089412,1.3999811405005396,-0.19998778069637702,1.7199773419548752,1.699718347403234e-06,1.6599962667862735,-2.3792876469030944e-07
59.828,1.3200001217277428,1.3999838220518033,-0.19998687414868588,1.71995170492713,2.2969681197082537e-06,1.6600195324454354,-4.03373881852076e-07
59.838,1.3200010419315547,1.3999805237995684,-0.19998450143213997,1.719979391794455,6.776181509238199e-07,1.659992397059928,9.070175099878952e-08
59.848,1.3199998506677755,1.399981478263948,-0.1999857158423941,1.719977784349119,1.6705932521787759e-06,1.659996849557694,-3.6570143180369996e-07
59.858,1.3200000424171288,1.399984211622602,-0.1999851495371443,1.719952206212497,2.266743329037979e-06,1.6600201911770984,-4.968697675522549e-07
59.868,1.320000985924306,1.399980857255783,-0.19998316563663554,1.7199798258925245,6.519694117912422e-07,1.659992966862827,-1.0023344731990846e-07
59.878,1.319999819187486,1.3999816920307238,-0.1999847899562157,1.7199780634453425,1.647147361616419e-06,1.6599972177121955,-4.131554591779718e-07
59.888,1.3200000264976985,1.3999842848556492,-0.1999846548473414,1.7199522964668326,2.2550518705699574e-06,1.660020312206603,-5.267595630797928e-07
59.898,1.3200009926508276,1.3999807964285136,-0.1999830775804261,1.7199797494620146,6.551525366660371e-07,1.659992865828194,-9.723889959900589e-08
59.908,1.319999844189149,1.3999815424961684,-0.19998509647820129,1.7199778709790934,1.6606479897873783e-06,1.659996964562378,-3.7800135643806243e-07
59.918,1.3200000762697623,1.3999841035588192,-0.19998532759185572,1.719952054169216,2.270294976902676e-06,1.66001999730448,-4.767642698411123e-07
59.928,1.3200010414747494,1.399980623659813,-0.19998407840483967,1.719979529730347,6.673111911936758e-07,1.6599925741965773,9.036211423563145e-08
59.938,1.3199999082838119,1.3999814202364274,-0.19998635283236688,1.7199777165174694,1.676395519289997e-06,1.6599967610119366,-2.859021357437541e-07
59.948,1.3200001383693483,1.39998405077782,-0.19998678094927413,1.7199519863891286,2.284199862145897e-06,1.660019908417885,-3.5521925667580945e-07
59.958,1.3200011194571593,1.3999806339954857,-0.19998565052846562,1.7199795480593778,6.743674374476427e-07,1.6599925977076575,1.9719292065900618e-07
59.968,1.3199999826522113,1.399981480139611,-0.19998802106865554,1.7199777979980553,1.6741610107118277e-06,1.6599968661253595,-1.726772120846931e-07
59.978,1.3200002115309166,1.399984135272403,-0.19998844894448364,1.719952096784212,2.2830398096473914e-06,1.6600200568505814,-2.3613555821810905e-07
59.988,1.320001199487555,1.3999807161928937,-0.19998725315154253,1.7199796585482297,6.762705107021816e-07,1.6599927431850112,3.156406078730356e-07
59.998,1.3200000427673055,1.3999815411022931,-0.1999895185338021,1.7199778821892124,1.6755167271398363e-06,1.6599969750781218,-1.0840046993365604e-07
60.008,1.3200002690740469,1.399984167273523,-0.19998977635028403,1.719952138102144,2.2859273878239605e-06,1.6600201139740456,-1.5741770997834692e-07
60.018,1.3200012403958103,1.3999807140180218,-0.1999883972650398,1.7199796603077484,6.758895532144038e-07,1.6599927428421477,3.7165497879243503e-07
60.028,1.3200000757645842,1.3999815128203554,-0.19999041200991474,1.7199778498122136,1.6823979560598445e-06,1.659996932835491,1.0738995115389116e-07
60.038,1.3200002955782324,1.3999841294243058,-0.19999041908256565,1.7199520848190808,2.2928821321599457e-06,1.6600200456123622,-1.4148750615561312e-07
60.048,1.3200012531396483,1.3999806703626865,-0.19998876491263573,1.7199796063009742,6.805883270288859e-07,1.6599926710966662,3.856345180963672e-07
60.058,1.320000077435468,1.399981478461445,-0.1999905128470454,1.719977806089176,1.6854676916366884e-06,1.6599968746906208,1.0813889517180542e-07
60.068,1.3200002825951351,1.399984112939979,-0.1999902802866922,1.7199520574448215,2.2911899328903473e-06,1.6600200110710848,-1.6035400296487978e-07
60.078,1.3200012196480015,1.3999806640914176,-0.19998838925382856,1.7199796030555081,6.806413077597995e-07,1.6599926642233305,3.53848257361733e-07
60.088,1.3200000559804144,1.3999814891822755,-0.19998991193774618,1.7199778181495446,1.685430940590038e-06,1.6599968921194588,-1.0509033199213036e-07
60.098,1.3200002445939791,1.399984135663904,-0.1999895206117408,1.7199520792283156,2.285881496533193e-06,1.6600200408553185,-2.0050809101945788e-07
60.108,1.3200011826132068,1.3999806845424674,-0.19998748042939063,1.719979630146387,6.752834558199083e-07,1.6599926998911538,3.081747390609735e-07
60.118,1.32000001117619,1.399981508761246,-0.19998892553392889,1.7199778420152967,1.6770619710726464e-06,1.659996922424467,-1.2495052104100068e-07
60.128,1.3200001915504664,1.3999841508162243,-0.19998849192114054,1.7199520931196215,2.2796260799040624e-06,1.6600200607285336,-2.6143459663785507e-07
60.138,1.3200011374040876,1.399980689757328,-0.19998645710135055,1.7199796362263307,6.704718211736349e-07,1.6599927066603213,2.2266742494281289e-07
60.148,1.3199999650458079,1.399981506359529,-0.19998794227504746,1.7199778389974334,1.6731457153085216e-06,1.6599969180620802,-1.999726864099216e-07
60.158,1.3200001500540468,1.3999841444327146,-0.1999875432829663,1.7199520822042373,2.282473143822017e-06,1.66002004894814,-3.1692329471866287e-07
60.168,1.320001106156262,1.3999806816624734,-0.19998560138115362,1.7199796240298006,6.704586379413513e-07,1.6599926893813688,1.8084010022789698e-07
60.178,1.3199999298418748,1.3999814977840659,-0.19998721579251022,1.7199778278430902,1.6680871040009038e-06,1.6599969021376957,-2.345262766212386e-07
60.188,1.320000127438104,1.399984141357769,-0.19998696872070276,1.7199520723659454,2.2760793791931633e-06,1.6600200381698684,-3.557316849978065e-07
60.198,1.32000109006764,1.3999806786017626,-0.19998518634894857,1.719979621105633,6.680022561766918e-07,1.659992684376343,1.4981250284762382e-07
60.208,1.3199999226186279,1.3999814977379925,-0.19998695673633105,1.7199778294737236,1.6701257097295752e-06,1.6599969039840055,-2.487971944020728e-07
60.218,1.3200001256346665,1.399984146462936,-0.1999868743837272,1.719952075413964,2.2784449855706157e-06,1.6600200440105803,-3.5962659072907854e-07
60.228,1.3200010959904853,1.3999806816710212,-0.19998524640578985,1.719979627811142,6.683724445011308e-07,1.659992692033586,1.5729799240915554e-07
60.238,1.319999935236286,1.3999815010868035,-0.19998715853356064,1.7199778356770068,1.670052352409357e-06,1.6599969117982392,-2.2599889959451502e-07
60.248,1.3200001422779666,1.3999841513185167,-0.19998720569515172,1.7199520782976219,2.2787260620660277e-06,1.66002004943459,-3.250380036234901e-07
60.258,1.3200011190345569,1.3999806815739806,-0.19998568502865943,1.7199796306192177,6.692533665031419e-07,1.6599926946664212,1.974274494997985e-07
60.268,1.3199999709036474,1.3999815012517782,-0.19998769218210555,1.7199778352474837,1.6707364647317036e-06,1.659996911580932,-1.935807274477952e-07
60.278,1.3200001706004487,1.399984151448166,-0.19998782217466804,1.719952075208532,2.279296390739205e-06,1.6600200473257383,-3.0520143390333487e-07
60.288,1.3200011459238459,1.3999806757716584,-0.19998632726752774,1.719979629105909,6.732719217694694e-07,1.6599926914510066,2.3029428586340828e-07
60.298,1.3199999937912636,1.3999814959818169,-0.19998833764148927,1.7199778334133669,1.6771362965073422e-06,1.6599969078230874,-1.557225122184036e-07
60.308,1.3200001987216305,1.3999841504096606,-0.19998843801618715,1.7199520710058245,2.285307575178308e-06,1.6600200440524269,-2.4921865904303786e-07
60.318,1.3200011721081752,1.399980673221572,-0.19998691014167758,1.719979627984534,6.734092368176903e-07,1.659992688412724,2.8086183867515047e-07
60.328,1.3200000169024797,1.399981494296278,-0.19998886403370442,1.7199778331810656,1.6758665326577216e-06,1.6599969074244205,-1.236111932811923e-07
60.338,1.3200002175383885,1.399984152190508,-0.1999888898325235,1.719952070115248,2.286275075924493e-06,1.6600200447782782,-2.0709224024528794e-07
60.348,1.3200011865857082,1.3999806728048299,-0.19998727989107756,1.719979629941129,6.746288345738094e-07,1.6599926894243424,3.1711671599765623e-07
60.358,1.320000028073884,1.3999814942260125,-0.19998914150624536,1.719977835171182,1.6773350095533601e-06,1.6599969098315768,-1.1129019306110877e-07
60.368,1.3200002127675639,1.3999841538320617,-0.19998908835226104,1.7199520711249683,2.28521435552409e-06,1.6600200461918986,-2.0398471889393477e-07
60.378,1.3200012024607943,1.3999806738296776,-0.19998736309092724,1.7199796302141728,6.768481970453877e-07,1.6599926925032165,3.1276853462713916e-07
60.388,1.3200000199823414,1.3999814935197277,-0.19998914090998632,1.7199778366883542,1.6766891430819442e-06,1.6599969097790055,-1.1796789589624268e-07
60.398,1.3200002159570081,1.3999841560695847,-0.1999889657420768,1.7199520685633942,2.2889162378803007e-06,1.6600200475223232,-2.015084490381014e-07
60.408,1.3200011805307819,1.399980672184661,-0.199987176452054,1.7199796314949793,6.738792626137524e-07,1.6599926889432686,3.03194411799268e-07
60.418,1.3200000110442422,1.3999814934194337,-0.19998887701858514,1.7199778357172484,1.6739256691877813e-06,1.6599969093618778,-1.2774551017002977e-07
60.428,1.3200002014934409,1.3999841585127495,-0.19998865617087613,1.719952066681568,2.2855300496615882e-06,1.6600200464296178,-2.3071341193059425e-07
60.438,1.3200011637998186,1.3999806713944585,-0.1999868252021404,1.7199796319025396,6.727684800367228e-07,1.6599926885685612,2.6598350988393804e-07
60.448,1.3199999931794189,1.3999814929194132,-0.19998849710541577,1.719977836381048,1.6743971587018791e-06,1.659996909646149,-1.52473782932816e-07
60.458,1.3200001833409107,1.3999841612824824,-0.199988268233108,1.7199520655029676,2.285158450909819e-06,1.6600200467726376,-2.685478239783379e-07
60.468,1.3200011468564306,1.3999806711913916,-0.19998643904016333,1.719979632967604,6.714264859652985e-07,1.6599926888869785,2.2775747687830972e-07
60.478,1.3199999771073037,1.3999814931482932,-0.19998812771104735,1.719977837210589,1.6724400149215057e-06,1.659996910312163,-1.8134790291668423e-07
60.488,1.3200001687054623,1.3999841641998065,-0.19998793025582895,1.7199520644610686,2.2836056574604413e-06,1.660020047274874,-3.012200684437971e-07
60.498,1.3200011344512674,1.3999806707891889,-0.19998614050586205,1.7199796339428204,6.70456804741093e-07,1.6599926890653114,1.9966874553745129e-07
60.508,1.3199999568531675,1.399981490946824,-0.19998786895936416,1.7199778387092515,1.6734385326344636e-06,1.6599969110856616,-1.8698583836851412e-07
60.518,1.3200001622977586,1.3999841674322742,-0.19998772975006585,1.719952062739793,2.2835047834846023e-06,1.6600200468106454,-3.0852767629596656e-07
60.528,1.3200011290223266,1.3999806695344077,-0.1999859962370767,1.719979634327153,6.688477034444418e-07,1.6599926893561445,1.9860358690948487e-07
60.538,1.3199999646022231,1.3999814922187905,-0.19998779985867987,1.7199778383632314,1.6704367507003326e-06,1.6599969106718575,-1.9733943101840623e-07
60.548,1.3200001678259898,1.399984168883349,-0.19998771216441646,1.7199520607864258,2.2840091213893743e-06,1.6600200480053315,-3.07284291345411e-07
60.558,1.3200011324116288,1.3999806690553447,-0.1999860515083478,1.7199796356033126,6.692336809166477e-07,1.659992687683454,1.9893741587395652e-07
60.568,1.3199999587730211,1.399981488968372,-0.1999878986508543,1.719977839465912,1.672552467191224e-06,1.659996911589361,-1.8357879127961496e-07
60.578,1.3200001705389042,1.3999841704312699,-0.19998786186403272,1.7199520600875218,2.28570065896605e-06,1.6600200470743225,-2.8940030816215767e-07
60.588,1.320001142151737,1.3999806684354734,-0.19998624246122532,1.7199796354200991,6.686481048845394e-07,1.6599926873108242,2.0520962440429003e-07
60.598,1.319999981874573,1.399981489220468,-0.19998811551716322,1.71997783921719,1.6724697005088274e-06,1.6599969120068083,-1.7662068430013278e-07
60.608,1.3200001788634594,1.3999841713463939,-0.19998810260810895,1.7199520590160517,2.286425919706403e-06,1.6600200472270012,-2.7778626154884023e-07
60.618,1.3200011544257055,1.3999806665534917,-0.1999864793555579,1.7199796363401418,6.71280512065664e-07,1.6599926873492814,2.3211264110756247e-07
60.628,1.3199999924455579,1.3999814887104236,-0.19998835872931853,1.7199778394816292,1.6732997067947508e-06,1.6599969115435824,-1.5873396908006043e-07
60.638,1.320000188084653,1.3999841725875788,-0.199988337320395,1.719952057705239,2.2862306039428404e-06,1.6600200472537319,-2.5858480512397364e-07
60.648,1.320001165122414,1.3999806651550184,-0.19998669279868508,1.719979636909521,6.716216995883428e-07,1.659992687255028,2.5442771622863347e-07
60.658,1.320000000622768,1.3999814881490513,-0.1999885515694384,1.7199778398607997,1.673684597136571e-06,1.659996911292601,-1.4503752598926667e-07
60.668,1.3200001940180321,1.3999841740095302,-0.19998850111049116,1.7199520564550799,2.287065945516531e-06,1.6600200474466984,-2.442824840187541e-07
60.678,1.3200011708730228,1.399980663884386,-0.19998682125903233,1.7199796376221528,6.721971947953875e-07,1.6599926872027657,2.672525303282214e-07
60.688,1.32000000409821,1.3999814875742391,-0.1999886449628212,1.71997784030917,1.6739201562643302e-06,1.6599969113219881,-1.3898379069843259e-07
60.698,1.3200001952167817,1.399984175766579,-0.1999885570231683,1.7199520552026435,2.2872750147229226e-06,1.6600200475922984,-2.395435467761331e-07
60.708,1.3200011714450444,1.3999806629362839,-0.19998683859135014,1.7199796382984722,6.720701577478394e-07,1.6599926870668194,2.6879267878143764e-07
60.718,1.3200000024793157,1.3999814870653378,-0.19998862698141018,1.7199778407797677,1.6736463512856403e-06,1.659996911432584,-1.405539675758405e-07
60.728,1.3200001918094166,1.3999841776942397,-0.19998850606226526,1.719952053952241,2.287246118726216e-06,1.6600200477457516,-2.4476035154208375e-07
60.738,1.3200011677098482,1.3999806621625313,-0.19998675714393688,1.7199796389695194,6.717751155349561e-07,1.659992686921461,2.6031980748797423e-07
60.748,1.3199999970388694,1.3999814866231288,-0.1999885210148733,1.7199778412677968,1.6731384429036211e-06,1.6599969115803246,-1.4839634054908402e-07
60.758,1.320000185435327,1.3999841797433366,-0.19998838076333936,1.7199520527053398,2.286921764849126e-06,1.6600200479128526,-2.568934167612724e-07
60.768,1.320001161624056,1.3999806615050039,-0.19998661689931474,1.7199796396390479,6.712623097371306e-07,1.659992686767791,2.463132950936142e-07
60.778,1.3199999900852095,1.3999814862382127,-0.19998837298373573,1.7199778417635674,1.6724550171431929e-06,1.6599969117483786,-1.5974173983579476e-07
60.788,1.3200001783660147,1.3999841818217407,-0.19998823083321415,1.7199520514746993,2.286531464612551e-06,1.6600200481067642,-2.7126087598361437e-07
60.798,1.3200011555038786,1.39998066084976,-0.19998646934902897,1.7199796403181136,6.707643187553458e-07,1.6599926866133066,2.3201172361098088e-07
60.808,1.3199999839768477,1.3999814858365953,-0.19998823424798218,1.7199778422545116,1.6718270643423239e-06,1.659996911924713,-1.7079074510206738e-07
60.818,1.3200001727221267,1.399984183836013,-0.19998810554220103,1.719952050248727,2.2862409796431393e-06,1.6600200482963405,-2.831969867500561e-07
60.828,1.320001151361888,1.3999806601190201,-0.19998636002417758,1.7199796409844375,6.703849857458977e-07,1.6599926864334407,2.2171085234390375e-07
60.838,1.3199999804045346,1.3999814853483858,-0.19998814515519125,1.719977842722738,1.6713885058194933e-06,1.6599969120832112,-1.7798775253652366e-07
60.848,1.3200001698381048,1.3999841857149908,-0.19998803883240956,1.7199520490181257,2.2861764925607986e-06,1.6600200484506287,-2.894223243288252e-07
60.858,1.320001150308193,1.3999806592740436,-0.19998631560609326,1.7199796416246045,6.702077737230638e-07,1.6599926862231804,2.177542111070352e-07
60.868,1.3199999800114846,1.3999814847418577,-0.19998812455841453,1.7199778431681647,1.67121752081556e-06,1.6599969122188867,-1.7944255237267726e-07
60.878,1.3200001700030057,1.3999841874452912,-0.19998804147942373,1.7199520477862116,2.2863632791469968e-06,1.6600200485642276,-2.888627586017378e-07
60.888,1.3200011523266957,1.399980658326422,-0.19998633888354167,1.719979642241558,6.70223721854768e-07,1.6599926859926084,2.2028440316290698e-07
60.898,1.3199999824037763,1.3999814840362852,-0.19998816761964555,1.7199778436000521,1.6712818311503952e-06,1.6599969123415548,-1.7552769016049297e-07
60.908,1.3200001725545434,1.3999841890621951,-0.1999881016337195,1.7199520465606142,2.28674924684924e-06,1.6600200486531174,-2.8275438612723747e-07
60.918,1.320001156443415,1.3999806573118683,-0.1999864118180108,1.7199796428470808,6.703781876282733e-07,1.6599926857538323,2.2752254391633642e-07
60.928,1.3199999864336647,1.3999814832779487,-0.19998825111676766,1.719977844025811,1.6714901018843875e-06,1.6599969124615601,-1.6842958938667607e-07
60.938,1.3200001762233047,1.399984190624246,-0.19998819203037232,1.7199520453438684,2.287235711051494e-06,1.6600200487357473,-2.738900981569259e-07
60.948,1.3200011611967541,1.3999806562770898,-0.19998650429626785,1.7199796434497117,6.70584463513535e-07,1.6599926855125267,2.3655938452549208e-07
60.958,1.3199999906442024,1.399981482519899,-0.19998834334308313,1.7199778444489606,1.6717206445804322e-06,1.659996912583348,-1.6096261745701668e-07
60.968,1.320000179599151,1.3999841921917646,-0.19998828062546536,1.7199520441359688,2.2877076384375528e-06,1.6600200488254266,-2.6541178410610655e-07
60.978,1.3200011651819112,1.3999806552711123,-0.1999865851026792,1.7199796440542894,6.707523105831115e-07,1.6599926852752525,2.443851219169346e-07
60.988,1.3199999937403755,1.399981481806317,-0.19998841500442666,1.719977844874883,1.6718651103531101e-06,1.6599969127105068,-1.5542166575954752e-07
60.998,1.3200001815793119,1.3999841938115454,-0.1999883410246701,1.7199520429390454,2.2880689449777947e-06,1.6600200489316261,-2.5977285122991134e-07
61.008,1.3200011674676562,1.399980654332606,-0.1999866315301606,1.7199796446638942,6.708144839606689e-07,1.659992685051539,2.4880403959315345e-07
61.018,1.3199999949577652,1.399981481161622,-0.19998844770161384,1.7199778453099022,1.671859138241416e-06,1.6599969128461671,-1.5301435052350598e-07
61.028,1.3200001816593279,1.3999841955049268,-0.1999883595752845,1.7199520417557288,2.2882720047689986e-06,1.6600200490587067,-2.5816770676811984e-07
61.038,1.3200011677839543,1.3999806534750565,-0.19998663489367718,1.7199796452792668,6.707477764322789e-07,1.659992684846304,2.4898713313348253e-07
61.048,1.3199999942239602,1.3999814805855877,-0.1999884377500072,1.7199778457557287,1.6716958848306263e-06,1.659996912989973,-1.5385513663090933e-07
61.058,1.3200001799930803,1.3999841972651277,-0.1999883374431537,1.7199520405842446,2.2883261756589945e-06,1.6600200492041015,-2.604139197615041e-07
61.068,1.3200011664853841,1.399980652683909,-0.1999866008917488,1.7199796458973768,6.705727120248639e-07,1.659992684655677,2.455455021532771e-07
61.078,1.3199999920780803,1.3999814800591688,-0.1999883949187078,1.7199778462072501,1.6714148305396748e-06,1.6599969131375918,-1.5719083368281872e-07
61.088,1.3200001772394856,1.399984199063125,-0.1999882878753496,1.7199520394216705,2.288283371676414e-06,1.6600200493601323,-2.652198745067835e-07
61.098,1.3200011643467793,1.3999806519271267,-0.1999865455792893,1.719979646514128,6.703399764163009e-07,1.6599926844704056,2.40114289340454e-07
61.108,1.3199999894041587,1.3999814795529666,-0.19998833732982835,1.7199778466575975,1.6710842887235344e-06,1.6599969132847079,-1.6168558758522522e-07
61.118,1.3200001742809153,1.3999842008613985,-0.19998823027559176,1.7199520382648181,2.2882160877202296e-06,1.6600200495185753,-2.707300890136821e-07
61.128,1.3200011622748073,1.3999806511694448,-0.19998648887474957,1.719979647126145,6.701088466343208e-07,1.659992684282404,2.3465945186984527e-07
61.138,1.3199999870990808,1.3999814790366276,-0.1999882846628145,1.7199778471020455,1.6707766858914397e-06,1.6599969134280776,-1.6581313655450458e-07
61.148,1.3200001719182817,1.3999842026253528,-0.19998818337054214,1.7199520371127708,2.2881924515161245e-06,1.6600200496712851,-2.751606951179042e-07
61.158,1.320001161017335,1.3999806503840908,-0.1999864479335587,1.7199796477301987,6.699291326128787e-07,1.659992684087097,2.308153783658895e-07
61.168,1.3199999857981117,1.3999814784870948,-0.1999882519630285,1.7199778475383667,1.6705476957312726e-06,1.6599969135653563,-1.6833616722777833e-07
61.178,1.3200001706432918,1.3999842043328004,-0.1999881596599078,1.719952035965143,2.2882557626502376e-06,1.6600200498125757,-2.7732429064286634e-07
61.188,1.3200011609596212,1.3999806495586,-0.1999864324057885,1.7199796483240632,6.698264050086777e-07,1.6599926838827388,2.2946231847953413e-07
61.198,1.3199999857302656,1.3999814778955635,-0.19998824583930563,1.7199778479659145,1.6704198300132589e-06,1.6599969136957204,-1.686898114527935e-07
61.208,1.3200001705416762,1.3999842059795817,-0.19998816264078112,1.7199520348221746,2.2884152537372415e-06,1.66002004994096,-2.7690754311748833e-07
61.218,1.3200011620591932,1.3999806486954594,-0.19998644272838817,1.7199796489080086,6.697991388193714e-07,1.659992683670568,2.3059784126644445e-07
61.228,1.319999986719112,1.3999814772684802,-0.1999882638253112,1.7199778483862467,1.6703813336960138e-06,1.6599969138205317,-1.670937379572024e-07
61.238,1.3200001713337093,1.3999842075783375,-0.19998818719923772,1.719952033685006,2.2886498474150585e-06,1.6600200500601199,-2.744393370335274e-07
61.248,1.3200011639257596,1.39998064780894,-0.19998647147255255,1.7199796494848005,6.698239616298451e-07,1.6599926834539014,2.3347930433459396e-07
61.258,1.3199999883008617,1.3999814766232177,-0.1999882965786277,1.719977848802099,1.670395146646797e-06,1.6599969139427726,-1.643571385656628e-07
61.268,1.3200001725159405,1.3999842091517163,-0.19998822253172932,1.7199520325550708,2.2889190898212064e-06,1.6600200501764624,-2.7099122767992867e-07
61.278,1.3200011659982005,1.3999806469192215,-0.19998650684240804,1.7199796500578302,6.698658427950477e-07,1.6599926832369194,2.369578817607021e-07
61.288,1.319999989906619,1.3999814759804075,-0.199988331796761,1.719977849216452,1.6704145062718112e-06,1.6599969140653545,-1.615017755085546e-07
61.298,1.320000173547287,1.3999842107235043,-0.19998825631169836,1.7199520314335128,2.289178070213893e-06,1.6600200502960112,-2.677538697426485e-07
61.308,1.3200011677448416,1.3999806460458712,-0.19998653693024693,1.7199796506295968,6.698900198998103e-07,1.6599926830235034,2.3988333630597936e-07
61.318,1.3199999910484115,1.3999814753569177,-0.19998835840125828,1.7199778496317961,1.6703986558397332e-06,1.6599969141901374,-1.5939359254701913e-07
61.328,1.3200001740182774,1.399984212311323,-0.19998827865241076,1.7199520303209859,2.289391446197442e-06,1.660020050422622,-2.6565520627741535e-07
61.338,1.3200011688191138,1.399980645202107,-0.1999865533283849,1.7199796512012568,6.698724561715608e-07,1.6599926828163278,2.4145087529348075e-07
61.348,1.319999991454333,1.3999814747615407,-0.1999883696864071,1.7199778500495366,1.670324263791656e-06,1.6599969143177473,-1.5851667445332396e-07
61.358,1.3200001737544902,1.3999842139225178,-0.19998828470149643,1.7199520292175627,2.2895429161451375e-06,1.6600200505575504,-2.6512944462098176e-07
61.368,1.3200011691318787,1.3999806443914338,-0.1999865531070837,1.7199796517727641,6.698057344323161e-07,1.6599926826160418,2.4139405052636675e-07
61.378,1.319999991118375,1.3999814741939316,-0.19998836464335934,1.7199778504695544,1.6701895040327486e-06,1.6599969144476665,-1.5891463256423322e-07
61.388,1.3200001728320947,1.3999842155536975,-0.19998827529922814,1.7199520281226874,2.2896372424696665e-06,1.6600200506996554,-2.660709768065317e-07
61.398,1.3200011688353106,1.3999806436078375,-0.19998653882107398,1.71997965234317,6.696987302490243e-07,1.6599926824210565,2.399838514577368e-07
61.408,1.3199999902606585,1.3999814736462834,-0.1999883473518116,1.7199778508902988,1.6700109313205758e-06,1.6599969145785307,-1.6025785676276882e-07
61.418,1.3200001715146312,1.3999842171934604,-0.1999882558130439,1.7199520270353865,2.289695363089095e-06,1.6600200508460494,-2.679523083415347e-07
61.428,1.3200011682390613,1.3999806428392114,-0.19998651686046376,1.7199796529109612,6.695712402304821e-07,1.659992682228431,2.3785962177669262e-07
61.438,1.3199999892238656,1.3999814731067461,-0.19998832493442276,1.7199778513096007,1.6698156430905442e-06,1.6599969147086462,-1.6199065200339646e-07
61.448,1.3200001701430093,1.39998421882704,-0.19998823379367625,1.71995202595469,2.289745435035684e-06,1.6600200509931433,-2.7004704516997435e-07
61.458,1.3200011676933094,1.3999806420722392,-0.1999864949091883,1.7199796534745335,6.694461518463868e-07,1.6599926820352096,2.357725144008782e-07
61.468,1.319999988348827,1.3999814725634687,-0.19998830492091013,1.7199778517255737,1.669631616074696e-06,1.6599969148365572,-1.635205251204752e-07
61.478,1.3200001690199494,1.3999842204412403,-0.19998821634744424,1.7199520248799836,2.289813139988439e-06,1.6600200511377494,-2.716782097067494e-07
61.488,1.3200011674772822,1.3999806412967128,-0.19998647941930958,1.719979654032631,6.693419924985733e-07,1.6599926818394248,2.3433919071891296e-07
61.498,1.3199999878717428,1.3999814720081458,-0.19998829291065334,1.7199778521371538,1.6694791460380998e-06,1.65999691496142,-1.6440139205542437e-07
61.508,1.3200001683248974,1.3999842220282002,-0.19998820806283746,1.7199520238110644,2.289914303510443e-06,1.6600200512779812,-2.7241506295183626e-07
61.518,1.3200011677256525,1.3999806405079918,-0.19998647386106416,1.7199796545847228,6.692680525333117e-07,1.6599926816404222,2.3387941006092205e-07
61.528,1.319999987870487,1.3999814714380632,-0.19998829119210004,1.719977852544197,1.6693658402289202e-06,1.659996915083168,-1.6445359207750698e-07
61.538,1.3200001680799573,1.3999842235869897,-0.19998821002914102,1.7199520227481155,2.2900517571144974e-06,1.6600200514137011,-2.7216616516057e-07
61.548,1.3200011684100943,1.399980639707361,-0.19998647815334003,1.719979655131123,6.692231515614822e-07,1.6599926814387391,2.3436945895127792e-07
61.558,1.3199999882671456,1.3999814708561154,-0.19998829858264333,1.7199778529473395,1.669286288752403e-06,1.659996915202445,-1.6378258749227825e-07
61.568,1.3200001681685452,1.3999842251228234,-0.19998822006831318,1.719952021691558,2.2902166261218326e-06,1.660020051546355,-2.7115413558931323e-07
61.578,1.3200011693737608,1.399980638900674,-0.1999864892569203,1.7199796556728106,6.691977150197204e-07,1.6599926812357442,2.3550448968734372e-07
61.588,1.3199999888763854,1.3999814702690179,-0.19998831134117978,1.7199778533476788,1.669225807354735e-06,1.659996915320309,-1.6270031633069948e-07
61.598,1.3200001683925793,1.3999842266444809,-0.19998823391512577,1.7199520206419088,2.290392870030189e-06,1.6600200516782317,-2.697971996923343e-07
61.608,1.3200011703997596,1.3999806380959265,-0.19998650256486616,1.7199796562109633,6.691779468326331e-07,1.6599926810331418,2.3683413097330686e-07
61.618,1.3199999894780134,1.3999814696845974,-0.1999883247061831,1.7199778537464265,1.6691663935475276e-06,1.6599969154378247,-1.6159199311971406e-07
61.628,1.3200001685450875,1.3999842281610562,-0.19998824683793437,1.7199520195995923,2.290563212881125e-06,1.660020051811565,-2.6854995560654515e-07
61.638,1.320001171286731,1.3999806373005779,-0.1999865135433021,1.7199796567465384,6.691506140299452e-07,1.6599926808324685,2.3792053216453724e-07
61.648,1.319999989888668,1.3999814691092007,-0.1999883344956057,1.7199778541445419,1.6690927155948998e-06,1.659996915555718,-1.6078472420133494e-07
61.658,1.320000168474083,1.3999842296791662,-0.19998825514097973,1.7199520185648343,2.290714533614846e-06,1.6600200519478587,-2.6775999195649547e-07
61.668,1.320001171907066,1.399980636519368,-0.19998651908778875,1.7199796572800299,6.691069485142975e-07,1.6599926806346499,2.3846856223030954e-07
61.678,1.319999990011408,1.3999814685460485,-0.19998833827612472,1.7199778545424813,1.6689963100446903e-06,1.6599969156742276,-1.6046008521897193e-07
61.688,1.3200001681197477,1.3999842312013904,-0.19998825711384782,1.7199520175375973,2.2908411949629226e-06,1.6600200520875799,-2.675810968355563e-07
61.698,1.3200011722331961,1.39998063575326,-0.1999865182313103,1.719979657811436,6.690446170409814e-07,1.6599926804397835,2.3839293561422892e-07
61.708,1.3199999898514791,1.3999814679948006,-0.19998833581749764,1.7199778549401117,1.668877001037572e-06,1.6599969157931218,-1.6062644903058754e-07
61.718,1.3200001675178052,1.3999842327261671,-0.19998825322978142,1.7199520165176168,2.290945580796233e-06,1.660020052230216,-2.679587325360444e-07
61.728,1.3200011723296665,1.3999806349997082,-0.19998651209388196,1.7199796583403657,6.689674254545253e-07,1.6599926802472034,2.3781097091557513e-07
61.738,1.3199999894985135,1.3999814674522497,-0.19998832880931694,1.719977855336822,1.6687416097838081e-06,1.6599969159118526,-1.6114537704225995e-07
61.748,1.3200001667734274,1.3999842342489428,-0.19998824565330686,1.7199520155045,2.29103608084813e-06,1.6600200523745858,-2.686797788697959e-07
61.758,1.3200011723190341,1.3999806342540158,-0.19998650321049993,1.7199796588661975,6.688831595269562e-07,1.6599926800558267,2.3697446760451157e-07
61.768,1.3199999890858054,1.3999814669137374,-0.19998832004388056,1.719977855731809,1.668600785542651e-06,1.659996916029768,-1.6179501383106754e-07
61.778,1.3200001660182945,1.399984235764034,-0.19998823731639348,1.7199520144978528,2.29112359484418e-06,1.660020052519271,-2.694616476617284e-07
61.788,1.32000117233585,1.3999806335111264,-0.19998649453976203,1.7199796593883008,6.688005900201688e-07,1.659992679864554,2.3617155964217318e-07
61.798,1.3199999887429241,1.399981466374748,-0.19998831239713155,1.7199778561243555,1.668465203330527e-06,1.6599969161463228,-1.6234833744022126e-07
61.808,1.3200001653666025,1.399984237266473,-0.19998823091090312,1.7199520134974264,2.2912178190281907e-06,1.6600200526630786,-2.7004826730347986e-07
61.818,1.3200011724842486,1.3999806327671704,-0.19998648850331957,1.7199796599062402,6.687266562721561e-07,1.6599926796726425,2.3563374007551374e-07
61.828,1.3199999885571838,1.3999814658322336,-0.19998830794749445,1.719977856514081,1.6683423478269788e-06,1.659996916261215,-1.6264238045238244e-07
61.838,1.3200001648834014,1.3999842387534516,-0.19998822811481887,1.7199520125031391,2.2913245381062097e-06,1.6600200528053506,-2.7028323934530363e-07
61.848,1.3200011728112564,1.3999806320204708,-0.1999864863411478,1.7199796604198916,6.686646711884237e-07,1.659992679479835,2.35475385856887e-07
61.858,1.3199999885541915,1.399981465285336,-0.19998830747642504,1.7199778569009503,1.6682347503405026e-06,1.659996916374448,-1.6261851243370984e-07
61.868,1.3200001645728952,1.3999842402248275,-0.19998822924825976,1.719952011515062,2.291444507029894e-06,1.6600200529460878,-2.7014147452320003e-07
61.878,1.3200011733016241,1.3999806312716494,-0.19998648792657114,1.7199796609294289,6.686139224498788e-07,1.659992679286355,2.356783452839295e-07
61.888,1.3199999887000962,1.399981464735304,-0.199988310440256,1.7199778572852296,1.6681400083484732e-06,1.659996916486289,-1.6232441879537873e-07
61.898,1.3200001643869355,1.3999842416827644,-0.19998823339424732,1.7199520105333406,2.2915740336415524e-06,1.6600200530858702,-2.697158762998697e-07
61.908,1.320001173892389,1.3999806305230704,-0.19998649202326302,1.7199796614352234,6.685705180586865e-07,1.6599926790927642,2.3611865973549584e-07
61.918,1.3199999889213014,1.3999814641847683,-0.19998831534635375,1.7199778576673594,1.6680522918477436e-06,1.6599969165971507,-1.61882399929425e-07
61.928,1.3200001642478876,1.3999842431307075,-0.19998823887343953,1.719952009558142,2.2917067994399076e-06,1.6600200532255691,-2.691702709611832e-07
61.938,1.3200011744995965,1.3999806297778505,-0.19998649683590664,1.7199796619377228,6.685290765418017e-07,1.6599926788997434,2.3662068038277084e-07
61.948,1.3199999891329242,1.3999814636367187,-0.19998832035540737,1.719977858047816,1.6679646712702834e-06,1.659996916707441,-1.614396127891382e-07
61.958,1.3200001640767374,1.399984244572157,-0.1999882438728946,1.719952008589619,2.2918362203583342e-06,1.6600200533660256,-2.686784101868511e-07
61.968,1.320001175047004,1.3999806290388221,-0.19998650064149714,1.7199796624373107,6.684846249882526e-07,1.659992678707864,2.3701809492848724e-07
61.978,1.3199999892661136,1.399981463093555,-0.19998832389204946,1.7199778584270113,1.6678715226703389e-06,1.6599969168173763,-1.6111933653917276e-07
61.988,1.3200001638170988,1.3999842460095913,-0.19998824701457618,1.7199520076279136,2.2919575934921e-06,1.6600200535076812,-2.683699751315771e-07
61.998,1.3200011754883123,1.399980628307647,-0.1999865022968912,1.7199796629342181,6.684338123008615e-07,1.6599926785171855,2.3720295239115785e-07
62.008,1.3199999892869458,1.3999814625563394,-0.19998832507688302,1.7199778588050805,1.6677695686695415e-06,1.6599969169267785,-1.6098758592875129e-07
62.018,1.320000163449384,1.3999842474438111,-0.19998824770021528,1.7199520066728695,2.2920685864846746e-06,1.660020053650535,-2.6829798027705465e-07
62.028,1.3200011758154933,1.3999806275845623,-0.1999865014921287,1.71997966342839,6.683760265246974e-07,1.6599926783278613,2.3714868291335733e-07
62.038,1.3199999891997383,1.399981462024929,-0.1999883238824065,1.7199778591818387,1.667658806603356e-06,1.6599969170358548,-1.6104330757826801e-07
62.048,1.3200001629888272,1.3999842488742376,-0.19998824617026223,1.7199520057243056,2.2921703441980412e-06,1.6600200537946455,-2.684366329219756e-07
62.058,1.3200011760551122,1.3999806268684791,-0.19998649871036722,1.7199796639196805,6.683129489815087e-07,1.6599926781397958,2.3690500849937735e-07
62.068,1.3199999890406042,1.3999814614979638,-0.1999883210038238,1.7199778595572397,1.6675427714218927e-06,1.659996917144431,-1.6122986945532602e-07
62.078,1.3200001624773927,1.3999842502990516,-0.19998824329393194,1.7199520047822876,2.2922669842273535e-06,1.660020053939534,-2.6870053471128585e-07
62.088,1.3200011762556336,1.3999806261576335,-0.19998649495426335,1.719979664408024,6.6824784816788e-07,1.6599926779525038,2.365711386786984e-07
62.098,1.3199999888616425,1.399981460973696,-0.19998831753305968,1.7199778599310012,1.6674252156789748e-06,1.6599969172521565,-1.614598685861779e-07
62.108,1.3200001619661306,1.399984251716095,-0.19998824020717532,1.7199520038465188,2.2923620699444314e-06,1.6600200540845762,-2.6897985261342683e-07
62.118,1.3200011764688568,1.3999806254500058,-0.19998649136057534,1.719979664892989,6.681836968169819e-07,1.659992677765577,2.3625791367720694e-07
62.128,1.3199999887122127,1.3999814604503227,-0.19998831456638833,1.7199778603026488,1.6673099798580893e-06,1.659996917358919,-1.6164663474427243e-07
62.138,1.3200001614981014,1.3999842531234634,-0.19998823792764675,1.719952002916747,2.292459241992617e-06,1.6600200542294603,-2.691778782093479e-07
62.148,1.3200011767335411,1.3999806247441509,-0.1999864888362337,1.7199796653743817,6.681231479177541e-07,1.659992677578872,2.3605193533171587e-07
62.158,1.3199999886244242,1.3999814599267753,-0.19998831287310992,1.7199778606720884,1.6671999016892869e-06,1.6599969174647704,-1.6173039529832067e-07
62.168,1.32000016109673,1.3999842545202528,-0.19998823706643964,1.7199520019930645,2.292560638217367e-06,1.6600200543740105,-2.6923795548583485e-07
62.178,1.3200011770659543,1.3999806240395616,-0.19998648782115502,1.719979665852371,6.680673667602832e-07,1.6599926773922489,2.3599362997117623e-07
62.188,1.3199999886063285,1.3999814594028521,-0.1999883127156057,1.719977861039471,1.667095847146527e-06,1.6599969175695373,-1.616920970448632e-07
62.198,1.3200001607619152,1.3999842559064986,-0.19998823770873653,1.7199520010755123,2.292666519743136e-06,1.660020054518066,-2.69154229570745e-07
62.208,1.320001177458595,1.3999806233364342,-0.19998648823020648,1.7199796663269442,6.680160593575124e-07,1.6599926772056675,2.3607247179313617e-07
62.218,1.3200000858621364,1.3999829418721337,-0.19998795135641956,1.7199532841941618,2.1367995959309383e-06,1.6600204338205327,1.025334555038171e-07
62.228,1.320001203394237,1.3999753759682427,-0.19998534427004788,1.7199216631834133,2.1561051628538053e-06,1.6600522231351613,1.5774606225704702e-06
62.238,1.32000133017507,1.3999697117587413,-0.19998495499922786,1.7199427389739874,1.7015800448660912e-06,1.660015557814126,-4.4886341932226514e-07
62.248,1.3200002872112213,1.3999682901719295,-0.19998447739121694,1.7199320642227,4.146942715443913e-06,1.6600140859779016,4.954890373554122e-07
62.258,1.3200008945135213,1.3999648303606422,-0.19998273924659316,1.7199022205048422,3.859310068854427e-06,1.6600330532784735,2.976884996286344e-07
62.268,1.3200014289213833,1.3999593216302584,-0.19998030197845384,1.719925695917798,1.8452807770685808e-06,1.6600037241394494,-3.642560066907663e-07
62.278,1.3200004875180058,1.3999606417246362,-0.19997969208454958,1.7199233136392866,3.427533339817046e-06,1.6600057641600925,1.424389184379038e-07
62.288,1.3200005010482965,1.3999639436083324,-0.19997829284018565,1.7198981670706548,4.004534884138877e-06,1.6600316712676335,-3.751950350405764e-07
62.298,1.3200013112189737,1.3999616490190663,-0.19997519508307438,1.7199285038974406,2.107998437139713e-06,1.660007569492291,-3.7370417871329664e-07
62.308,1.3200001208990884,1.399965024008238,-0.19997515887830541,1.7199291493602118,3.2458537360113837e-06,1.6600152974080258,-3.157381902596512e-07
62.318,1.3200001656575253,1.39996965796439,-0.19997382764825122,1.7199058266465919,3.641559318090515e-06,1.6600413940291974,-5.7594130620231e-07
62.328,1.320001101444813,1.3999670130079034,-0.19997086519975493,1.7199350681576924,1.7093164483839018e-06,1.6600163421704508,-2.3768826906689355e-07
62.338,1.3199999242330884,1.399968333330647,-0.19997151569880245,1.7199339284015522,2.7800936450717018e-06,1.6600210953033647,-4.922820018293805e-07
62.348,1.3200000201203341,1.3999709121798602,-0.19997071081915863,1.7199077277574446,3.480741287198441e-06,1.6600436000346246,-7.510783310848979e-07
62.358,1.3200010473531298,1.3999663698847096,-0.1999683671058312,1.7199345232156773,1.8237452685809785e-06,1.6600148111687245,-3.7401714436668954e-07
62.368,1.319999881054212,1.3999661934084928,-0.1999698327368975,1.7199315283725767,2.9528772298448303e-06,1.6600172230181975,-7.391726777328245e-07
62.378,1.3200000623032384,1.399968094608969,-0.19996970841072326,1.7199045913384907,3.6522705180175308e-06,1.6600385566084466,-9.153254278970735e-07
62.388,1.3200011224880095,1.3999637464699468,-0.19996810931336828,1.7199315617723343,1.97366061893689e-06,1.660009898611908,-4.447731933865384e-07
62.398,1.3199999692493316,1.399964249005392,-0.19997031749380234,1.7199295569386006,3.0512110864577835e-06,1.6600134560518063,-7.489842186458873e-07
62.408,1.3200001682040314,1.3999671117198158,-0.1999708497323196,1.7199039603350634,3.702225773949408e-06,1.660036493095176,-8.234660802131089e-07
62.418,1.320001233840837,1.3999637625903638,-0.19996984626025505,1.71993228592941,1.9750815249963694e-06,1.6600094701991708,-2.769660127910356e-07
62.428,1.3199924967684762,1.4003555353342199,-0.2001047549421333,1.7201042403805502,6.413091049761732e-05,1.6596721713244618,-0.0001349469804603487
62.438,1.320022116050822,1.3999528143899136,-0.19991916835285028,1.7204601716335368,-1.8927913076893788e-05,1.6601439846712962,0.00012180212743206908
62.448,1.3199930723560174,1.4001281675497035,-0.20006913646714697,1.7199308437764387,-1.7886777915698815e-05,1.6604908828634661,-5.4262666145277194e-05
62.458,1.3200136328724215,1.4001649090799297,-0.20004509389819347,1.720198317407565,8.179709888977982e-06,1.6600950186440473,-5.071385419164187e-06
62.468,1.3199986519959523,1.4000870136176928,-0.20003301649233052,1.7199283182889573,8.551219280228395e-06,1.6602552309515568,4.238744959561558e-05
62.478,1.3200023007664026,1.3999501627294606,-0.20006790858494217,1.7200217547199372,-1.5819952027484874e-05,1.6600765186808815,-7.225448389824862e-06
62.488,1.3200026027900487,1.3999578656655443,-0.2000659331315502,1.719833309495172,9.084595365749237e-06,1.6600175128921748,-1.759171444071228e-06
62.498,1.3200089369816759,1.399915064363995,-0.2000531173863065,1.7198852197721983,1.5373431883958233e-05,1.6598545533428384,1.5149909768474856e-05
62.508,1.3200043269933266,1.399906741413652,-0.20006938116969586,1.719729353641199,1.0103823032459047e-05,1.6599653838933959,-1.040394298801317e-05
62.518,1.3200130787367081,1.3998681045081938,-0.2000479808894946,1.7199431038034572,7.577240106471095e-07,1.6598079060673543,3.184212223672489e-06
62.528,1.3199990226032927,1.3999285604285667,-0.2000484714971451,1.719865973111995,9.69579131471221e-06,1.6599171921310374,6.965309345297044e-06
62.538,1.3200078954793675,1.3999477730117258,-0.2000313445453159,1.7198661318988933,4.027273784679153e-06,1.6600005897870487,2.808313205093782e-06
62.548,1.3200041629119506,1.3999698753768985,-0.20002607537109718,1.719901022081725,1.9602866485612935e-06,1.6600617000694324,2.984340001788155e-07
62.558,1.3199929686942378,1.3999956061950103,-0.20001294898349542,1.719931148191849,4.603727430385618e-06,1.6601145767002654,1.0531979981465156e-05
62.568,1.320009762466869,1.3999906843607919,-0.19999516429343434,1.7200490375464526,-4.295997431569276e-06,1.6599959206285746,-2.254353624664418e-06
62.578,1.3199911278959178,1.3999935114088418,-0.19998818015807363,1.720047325027224,-6.733322388541296e-07,1.6600338757249276,8.457029930575288e-06
62.588,1.3200035450698904,1.3999752859638894,-0.19996326551433263,1.719973988468702,-2.733877559002451e-06,1.6600593311862895,6.814055647730299e-06
62.598,1.3199981908065181,1.4000081851205737,-0.19996816426788744,1.7198246046155852,7.5396340566413755e-06,1.6601290489171623,-1.1950885832057168e-05
62.608,1.3200055000649211,1.3999563832712427,-0.19994166994272078,1.719947648043524,1.7000467966710175e-06,1.6599976462688035,2.376918279978213e-07
62.618,1.3199971490953395,1.3999793792733914,-0.19994532461782644,1.7198088938004812,8.045442776882794e-06,1.6600803267043185,-1.0198960078255936e-05
62.628,1.3200049940495617,1.3999862454237801,-0.19993354444224476,1.7197133246380893,1.1271121271860807e-05,1.6601489211925475,-1.4182390497552433e-05
62.638,1.3200114236844627,1.3999920443487612,-0.1999348629328983,1.7197833283064554,9.455621459153463e-06,1.6600572803769946,-2.6344375888776028e-05
62.648,1.3200118620201113,1.399964112252575,-0.19992609219493485,1.7199775438952685,2.0314871598259288e-06,1.6598964498229094,-1.7247653322449708e-05
62.658,1.3200012841331343,1.3999078812166408,-0.19991181081718423,1.720164330700598,-8.886786289963311e-06,1.6597828601279012,1.0232100580154224e-05
62.668,1.3199877045130375,1.3999418958469798,-0.19992723611310748,1.72011852942053,-1.8727832200582384e-06,1.6598279966533909,2.7255810719495344e-06
62.678,1.319996100395489,1.399912999754143,-0.19991582257418905,1.7202317719785167,-7.152280375066766e-06,1.659774898881957,1.4657074787649549e-05
62.688,1.319982941840812,1.3999168627936776,-0.19992645884994165,1.7201503744080906,-6.6441999857502765e-06,1.6598944190991762,1.812217815366779e-05
62.698,1.319985260550662,1.3999426430874182,-0.19993522923312756,1.720050858845159,-7.891475943822002e-07,1.6599739778759828,9.263482083632368e-06
62.708,1.319994768165011,1.3999698598751449,-0.19993715140506474,1.7198662328429162,3.766357747458926e-06,1.6601187842670422,4.949520991281986e-06
62.718,1.3200015068048323,1.399990143378984,-0.19995371880976975,1.719821720265573,5.558408749273269e-06,1.6601244296957525,-1.169316640048379e-05
62.728,1.320003807810953,1.399960910612558,-0.19995545476531262,1.7199022762566472,1.9940277153907005e-06,1.6600584732032129,-5.782162428857873e-07
62.738,1.3199965187909193,1.399981766544074,-0.19997278915186012,1.719861368418849,6.738471408418434e-06,1.660062725877494,-5.499829116573096e-06
62.748,1.3200061412698814,1.3999599447671445,-0.1999724077520959,1.7199593131684985,2.726149695320146e-06,1.659968443120862,-1.8228591258662163e-06
62.758,1.319998947441241,1.3999604377361274,-0.19998100109859962,1.7199263824064488,2.1430709278291715e-06,1.6600142574943568,3.862508648921903e-06
62.768,1.3200058434022468,1.3999692066139913,-0.19998737568545355,1.7199114317925925,2.3290832409372797e-06,1.6600150391155069,-2.9081799617358683e-06
62.778,1.320005551092545,1.399948758445615,-0.19998934551293424,1.7199955617004665,-1.7765423629967358e-06,1.6599574936498822,5.885884974077271e-06
62.788,1.3199998367055459,1.3999842542676602,-0.20000345471853365,1.7198233331805604,6.940554656331699e-06,1.6601021681072803,-7.931570955577172e-07
62.798,1.3200076812394155,1.3999706047137188,-0.20000338179948507,1.7199366346121892,3.373786939597778e-06,1.6600008751389428,-9.157416416272213e-07
62.808,1.320002396492642,1.3999590088663165,-0.20000711612234134,1.7199860927238522,8.525997934327734e-07,1.6599728359940693,3.7857330577040216e-06
62.818,1.3200003149635764,1.39995551528221,-0.2000086220054662,1.7200198006020457,8.225187944077561e-07,1.6599422885860138,4.61906264614953e-06
62.828,1.3200008931471583,1.3999528372891215,-0.20000585583124852,1.720011088177099,9.622828125444016e-07,1.6599501782217114,7.0124046347430635e-06
62.838,1.3200022003824579,1.3999552822275092,-0.200003803216795,1.719974571908164,4.240786850573386e-07,1.6599757121453793,4.606232162807089e-06
62.848,1.3200042279592523,1.399986106769811,-0.20000773326153887,1.7198587645123258,7.0971132748454124e-06,1.6600614993078375,-4.8705197928100574e-06
62.858,1.3200078043260834,1.3999466932936464,-0.19999627099394512,1.7200134493375945,-1.363514822827483e-06,1.6599414675906088,3.826712544174882e-06
62.868,1.3199958945411563,1.400003168394326,-0.20000190567760523,1.7196978559723988,1.1653867299621368e-05,1.660216303287208,-2.3328375382547506e-06
62.878,1.3200128875491606,1.3999480541465008,-0.19998653578103998,1.7200001011672938,-1.357757176911889e-06,1.6599408404257252,-1.8690619736361214e-06
62.888,1.3199932783542874,1.3999734764946625,-0.19999320213120075,1.7199256017511395,5.04845754178973e-06,1.660016667849633,1.0978449651588562e-06
62.898,1.3200039767314662,1.3999486439585054,-0.1999756903217822,1.7200225614142752,-4.240830815405161e-07,1.659934235241229,4.368944582111567e-06
62.908,1.3199962624632828,1.3999577164474104,-0.1999789018785627,1.7199883953314448,1.137650178506533e-06,1.659979647064267,3.1776259810101237e-06
62.918,1.3200038732929524,1.3999495090880991,-0.1999673616956894,1.7199729700634023,-1.0321023147241704e-06,1.6599802890838502,1.1995899189543024e-06
62.928,1.3199964400554176,1.3999841654497072,-0.19997084470289206,1.71986564620088,7.557567179183877e-06,1.6600642287663225,-1.8871796001462826e-06
62.938,1.3200056872457395,1.3999576975411943,-0.19995971194775208,1.7199506962868583,1.4906371710310395e-06,1.6599961655926778,-1.369818471097517e-06
62.948,1.319999808972299,1.399985808223395,-0.19996528845686523,1.7198396954260495,6.32702892122694e-06,1.6600846126536277,-8.214880158341487e-06
62.958,1.3200024308135276,1.39995107035808,-0.19995122884890115,1.7199978149684725,-3.930943091035033e-07,1.6599636873213814,3.558800083958147e-06
62.968,1.3199937200571332,1.3999460739252871,-0.19996015345265583,1.7201235221938251,-1.9771641746046953e-06,1.6598565950871071,1.8003286035295218e-06
62.978,1.3199900161198892,1.3999244183552184,-0.1999442741208286,1.7200247575208039,-3.089013037360644e-06,1.6599925808970122,2.1968877088163197e-05
62.988,1.3200054520384912,1.3999826169081322,-0.1999729102746386,1.7201091620531272,2.1222850552504724e-06,1.6597960757114087,-2.7668786057866157e-05
62.998,1.3199942079282554,1.3998782742630898,-0.19993186400619578,1.7202993864608302,-1.2224448965980628e-05,1.6597587333083839,4.011231492651035e-05
63.008,1.3199708624868558,1.3999242922242692,-0.19995749417848518,1.7199672847085061,-1.7592032008906244e-06,1.6600536335461298,2.1553432609344725e-05
63.018,1.3200026510328753,1.3999647341210162,-0.19995822320208045,1.7199139976602922,4.449766263903143e-06,1.6600212892024606,-9.573891644798493e-06
63.028,1.3200005906326622,1.3999914567082214,-0.199961206143759,1.7197345555490084,1.2097923757004025e-05,1.6601858560616645,-2.578674783038082e-06
63.038,1.3200147314419297,1.399952499350884,-0.1999683947450599,1.7200343997834153,-2.556773877948615e-06,1.6598781299311929,-1.9320516353005246e-05
63.048,1.3199922966182145,1.3999642782589028,-0.1999644937741767,1.7199151772055234,5.021041181940689e-06,1.6600305117730487,9.948413953075885e-06
63.058,1.3200039379993962,1.3999737194248363,-0.1999651598350578,1.7198964241068069,3.957685295929991e-06,1.6600327943718636,-3.651693596395944e-07
63.068,1.3200075084735063,1.399974866719706,-0.19997472167718477,1.7198774590204557,2.521179187198186e-06,1.6600623194847648,-8.899261436212669e-06
63.078,1.3200016861177764,1.399973831418193,-0.19997555734709938,1.7199274608267672,3.3342750391796017e-06,1.6600206269902182,3.354784547937584e-07
63.088,1.3200029252328997,1.399962070595353,-0.19997736080611972,1.7200068073932613,1.1768971530656813e-06,1.659950674951273,2.3212024320429236e-06
63.098,1.3199991794896624,1.3999558439647615,-0.1999834057829446,1.7200331167848013,-6.049403786789753e-07,1.65993265599921,1.002149566886601e-06
63.108,1.3200000826528262,1.3999573948162736,-0.19998017995620554,1.7199613966180962,2.039724328106729e-06,1.6599990307090486,5.778219684948738e-06
63.118,1.320003030298686,1.3999742176758758,-0.1999839250491684,1.7198821386522454,3.7525013842909516e-06,1.6600495371364339,-2.050220142990611e-06
63.128,1.3200068712529625,1.3999628159360409,-0.199984655684597,1.7199151204900822,2.390291276022083e-06,1.660017846869704,-2.0667498530357875e-06
63.138,1.3199969540835648,1.3999613379339797,-0.19998672332889633,1.7199219204560734,3.4903469678937427e-06,1.6600253753668452,5.974301509503732e-06
63.148,1.320000502743258,1.3999629704656016,-0.1999890120674248,1.7199503737333295,3.5087103080755355e-06,1.659992249523782,-3.0930733796452614e-07
63.158,1.3200026925126087,1.3999621126973096,-0.19998789839385456,1.719949656091213,2.8075908042879405e-06,1.6599936452184023,-1.2330812779737244e-06
63.168,1.3200057124796176,1.3999702861421914,-0.19998428684124292,1.7199169161121404,2.2557071117645933e-06,1.6600099775030692,-2.4797072359916683e-06
63.178,1.3200055105402466,1.3999610876088129,-0.19998055033443496,1.7199405330202175,8.07298711436033e-07,1.6600004401731399,2.2012471765364694e-06
63.188,1.3200004859238792,1.3999556618044586,-0.1999862028443946,1.720030484200425,5.00864766550535e-07,1.6599226214027638,-6.064008370998408e-07
63.198,1.3200004253427444,1.3999699160917256,-0.1999779384295275,1.7198617986313849,4.508386287405131e-06,1.660084373451867,6.029337372481791e-06
63.208,1.3199971912222805,1.3999461913450215,-0.19998280158742965,1.720089913456011,-1.3219621548543614e-06,1.6598912903380683,2.919011445001729e-06
63.218,1.3199905444777063,1.399948642968429,-0.19997241172399782,1.7198951532012003,2.2634551068989595e-06,1.6601047928932946,1.7775336306868894e-05
63.228,1.3200098027292464,1.3999671208676077,-0.19998377269929435,1.719985994813623,8.108873625900515e-07,1.6599228295493207,-1.8813817685092715e-05
63.238,1.3199984921665733,1.39997390629987,-0.1999772594771354,1.7199886334669259,6.3084373316257825e-06,1.659951509540079,1.5729728142233057e-06
63.248,1.3200043534476293,1.3999186589511483,-0.19996066950953129,1.7199926613301315,-4.867957552612268e-06,1.6599875086754832,1.358834537512621e-05
63.258,1.3199940991933126,1.3999766530986681,-0.19998770497411034,1.7198171350938587,6.73112786131469e-06,1.660105710359371,-1.5949660229885865e-05
63.268,1.320011226574013,1.3999439318509763,-0.19996797265481892,1.7199012784850325,4.848907256160828e-06,1.6600319156318921,-3.771592625767539e-06
63.278,1.3200005507348846,1.3999071981827331,-0.1999754381711698,1.719910146644942,-1.8869587616876515e-06,1.6600539523886164,-1.593403718302966e-06
63.288,1.3199964529800186,1.3998655020387742,-0.19999041734300427,1.7200791473624353,-3.735451469033535e-06,1.6599028313704514,-9.928734020725472e-06
63.298,1.3199938328473273,1.3998271263440065,-0.1999989729178102,1.7202012340993704,-2.949570961696679e-06,1.6598051440749586,-7.906716961159077e-07
63.308,1.3199808430789544,1.3997188244924716,-0.19999369283417412,1.7200247115962455,-1.0926274696565486e-05,1.6600811922894074,3.265467787283427e-05
63.318,1.319991824467424,1.3997358075742952,-0.2000605056873912,1.7199968897366418,-2.207064736303721e-06,1.6599479635910912,-4.107374945494513e-05
63.328,1.319994760345451,1.399660860304146,-0.20006596020129397,1.7199876181478722,5.674847436409891e-06,1.6599847090993975,-8.461633838052762e-06
63.338,1.3199936175214955,1.399527588793629,-0.20010644906983988,1.7200436142551006,-9.559860307817303e-06,1.6599625336748334,-9.978162936796764e-06
63.348,1.3199757497250646,1.3994392514720735,-0.20017871887673078,1.720040687906387,-5.563367611038927e-06,1.6599931545775366,-2.100835926555078e-05
63.358,1.3199903762999154,1.3993211366635547,-0.20022845154945035,1.7199754954197424,-3.2781388608071893e-06,1.6600259399613693,-1.4988409440697126e-05
63.368,1.3199772513843824,1.3992059845442268,-0.20032888104630953,1.7199226695874117,-6.170234891911264e-07,1.6600774747280056,-2.862759527832992e-05
63.378,1.319981153048161,1.3990480024139051,-0.20042535195649247,1.7199089663317846,-1.1701978772649113e-06,1.6601013219661303,-3.3616471351471944e-05
63.388,1.3199893390055575,1.3988576190605668,-0.2005476266504198,1.72010360857222,-8.045063245809558e-06,1.6599018694926642,-4.390895749217805e-05
63.398,1.3199726329130446,1.3986541251987274,-0.20068018499252194,1.720004072228905,-6.447203252157863e-06,1.660033604077138,-2.475904160270659e-05
63.408,1.3199691200316757,1.3984473502405974,-0.20085319123270917,1.720072828048199,-5.46603727524797e-06,1.659958599397446,-4.0125524431111614e-05
63.418,1.319971957797918,1.3981746452735466,-0.20103393412699067,1.7203029607415115,-1.4203680470004088e-05,1.6597816741785003,-3.516463641073386e-05
63.428,1.3199541049792964,1.3979492193298313,-0.20122700442056374,1.7196313734992756,-2.059562387302094e-06,1.6604596985916098,-9.781673171005423e-06
63.438,1.319989062417796,1.3977121318355126,-0.2014967522634139,1.7197475314860995,-1.3003148957579924e-06,1.6601957538695524,-9.038199565480909e-05
63.448,1.3199771216735359,1.3974234353035415,-0.20175011131473486,1.7196432051188744,1.0703987855187336e-05,1.6603172730224438,-5.845863964282216e-05
63.458,1.3199795881367349,1.3970620996242724,-0.2020435263177971,1.719720892338966,1.9715275278997524e-06,1.6602492734135854,-6.462344559476918e-05
63.468,1.3199823475466346,1.3966848955690443,-0.20237450541943236,1.719916091214639,-5.802909408991752e-06,1.6600605247103388,-8.154847190500192e-05
63.478,1.3199753336557283,1.3962691003775847,-0.20270503938096507,1.7199709603842006,-6.736628336945216e-06,1.660031856217314,-5.050758822822132e-05
63.488,1.3199632157867462,1.395827438658297,-0.20309187246466553,1.720114523734253,-1.1789155424324349e-05,1.6599244012252532,-4.997022399955142e-05
63.498,1.3199612942158545,1.3953930443682756,-0.20350128990588434,1.7200334137249982,-1.0424418622534404e-05,1.6600153303880498,-5.22011375565512e-05
63.508,1.3199637519262808,1.3949102536604725,-0.20394257840566166,1.7200910815486683,-1.0805222173004836e-05,1.659992103288423,-5.007047515004359e-05
63.518,1.3199678701697684,1.3944122255669837,-0.20441573004346747,1.7199862721424886,-1.1571603341309356e-05,1.6600760838282334,-5.6938407204221164e-05
63.528,1.3199588440773473,1.3938975007707635,-0.20492717792668902,1.719926861529684,-4.904830014140771e-06,1.6601302782347283,-5.750937242066101e-05
63.538,1.3199669049216292,1.3933187397150553,-0.20545968885122523,1.7199471344411439,-6.749897053737186e-06,1.6601155349287904,-5.932506014882932e-05
63.548,1.3199669308812956,1.3927077302389916,-0.20603470701498683,1.7199960665848053,-1.0376427171721048e-05,1.6600630101471872,-6.709619058753447e-05
63.558,1.31996531500869,1.3920722240802332,-0.20663155054834714,1.7199892273710464,-8.763734684613667e-06,1.6600614997360408,-6.074539182954197e-05
63.568,1.3199672455262155,1.3914267011728958,-0.2072693585200307,1.7198378347669205,-2.542128385130127e-06,1.6601873607746693,-6.655882573003424e-05
63.578,1.3199677455109287,1.3907145659229405,-0.20793325565528686,1.7197317429567605,-3.6292357306066947e-06,1.6603060112054324,-6.448949310833285e-05
63.588,1.3199686180288834,1.39000656982068,-0.20864914314095007,1.7197179256449147,1.8485303332482772e-06,1.6602777914321543,-8.462134137232624e-05
63.598,1.3199831224565353,1.3892010940425221,-0.20937610264623796,1.7199247233122392,-5.588920351407012e-06,1.660078296514599,-8.3642669032713e-05
63.608,1.3199717438276348,1.388351220662945,-0.2101431798555291,1.7200323688616734,-1.3558063944429932e-05,1.6600088845561913,-6.872528308043968e-05
63.618,1.3199662328596062,1.3874720994601075,-0.2109462164693392,1.7201728448181406,-1.857689421846942e-05,1.659887562811316,-6.364122873669942e-05
63.628,1.3199584401272615,1.3865584761702783,-0.21178063586996299,1.7202501258951486,-2.1023290733168665e-05,1.6598448067124068,-4.9911503652744216e-05
63.638,1.3199488200370473,1.38563404793062,-0.21265598377636064,1.720082912248742,-1.7434458624343563e-05,1.66002785739229,-4.50428518057322e-05
63.648,1.3199568745752206,1.384709902803242,-0.21358741195631215,1.7200286356111327,-1.0347477652494774e-05,1.6600299682328883,-7.916063530721829e-05
63.658,1.319968585672508,1.383695993035917,-0.21452867081404303,1.7200039021539304,-1.6469109017869243e-05,1.6600648229198276,-7.671333062386765e-05
63.668,1.3199577870086152,1.382623946070722,-0.21551456628522825,1.7201056892403734,-1.8058796205089322e-05,1.6600034578433052,-6.148064327682334e-05
63.678,1.3199506114728239,1.3815456550093055,-0.2165488493100538,1.7200656220090664,-1.3655076576135627e-05,1.660043013429246,-6.433417577689227e-05
63.688,1.3199553405223439,1.3804104361149578,-0.21762193104480598,1.7201402769012795,-1.655334454753188e-05,1.6599652161431582,-7.625681546485907e-05
63.698,1.3199531597777012,1.3792240338908401,-0.21871900241033426,1.7200648124309268,-1.8264746556084788e-05,1.6600587981738961,-6.0549389417019484e-05
63.708,1.3199489226007524,1.3780397920513332,-0.21988551731401085,1.7199758441988884,-1.2732699920192658e-05,1.660106006223245,-8.10021512833714e-05
63.718,1.3199623527649846,1.3767772646461873,-0.2210680721711915,1.7199755096800722,-1.4645764987442078e-05,1.6600913955956038,-8.232283372944238e-05
63.728,1.319956653952171,1.3754513349072885,-0.22231259328231534,1.7200609274278449,-2.3293841976190777e-05,1.6600285966328139,-8.449233367535669e-05
63.738,1.3199495559226548,1.3741503797562382,-0.22358971063707056,1.7198128634500058,-7.000260629830279e-06,1.6602432745765698,-7.832880814806487e-05
63.748,1.319956831443668,1.372792520092628,-0.22491902279230747,1.7197082015634209,3.2207834648190214e-06,1.660332666028956,-9.015042507520832e-05
63.758,1.3199745002835126,1.371237836625709,-0.22627875272479603,1.7202125051409105,-3.162917860421999e-05,1.6598884499838498,-9.490699043102069e-05
63.768,1.319920283514663,1.369836601850401,-0.2277103950018331,1.7199160857886078,-7.579287231607168e-06,1.6601655965322157,-7.17027418835059e-05
63.778,1.3199658660461084,1.3682629469717957,-0.22914352565705354,1.720122798938334,-2.0909982536565508e-05,1.6599655269421572,-7.787264754099965e-05
63.788,1.3199418175132918,1.3667101406464743,-0.2306705566075573,1.719990174859003,-1.8109150966338916e-05,1.6601196236128999,-8.303666281772593e-05
63.798,1.3199529286649856,1.365082057790004,-0.23221383255067973,1.7201063616500427,-2.1776492729053132e-05,1.6599882910199995,-8.900358924801566e-05
63.808,1.319936310785553,1.3633973676754385,-0.2338177323681121,1.7202118630894017,-2.7245748657200863e-05,1.659957955817422,-7.014790894555034e-05
63.818,1.3199301727608823,1.3617743275755485,-0.23545242717221004,1.7195167720945896,-2.3761351188866797e-06,1.660590469954034,-6.194528967284896e-05
63.828,1.3199852309271138,1.3600211164189853,-0.23716534779851361,1.7197708934108338,-7.850600834302668e-06,1.6602222451685016,-0.00013924255312769418
63.838,1.3199521019571758,1.3582241131819925,-0.23890611502617443,1.719755771596228,-1.2062658614198085e-06,1.660267908126829,-0.00010232913872698646
63.848,1.319963593101348,1.356347079979682,-0.2406854837098651,1.7198888988422603,-9.245800023371942e-06,1.6601460678930913,-0.00010165624352520553
63.858,1.3199736181927246,1.3543439113920845,-0.24250029228582815,1.720227002737655,-3.6052576103173806e-05,1.6598881692967637,-8.100488186091326e-05
63.868,1.3199253398155983,1.3524488383175362,-0.24440279171533508,1.7199952830322651,-2.2197466339690664e-05,1.660077842636861,-7.65183858186802e-05
63.878,1.3199502059884702,1.3504461149864957,-0.24631736198425802,1.7200703923451677,-2.0696168710365725e-05,1.6600152820775111,-7.75152162999504e-05
63.888,1.3199528547436525,1.3483931153048188,-0.24829917362253884,1.7200793842316493,-2.2760483942896315e-05,1.6600349969681778,-8.267222707125654e-05
63.898,1.3199434787753939,1.3463021130277175,-0.25033828647986756,1.7200792155907898,-2.8581900608060096e-05,1.660039690774914,-9.821325125258795e-05
63.908,1.319948794592686,1.3441710017523745,-0.2523851578968985,1.7200115930451076,-2.0407151966495007e-05,1.6600970300017428,-7.138569842712883e-05
63.918,1.319945881212691,1.3419678942860918,-0.25451572566431313,1.7201221122483012,-2.440852991014708e-05,1.6600055485316778,-8.012360918829842e-05
63.928,1.3199386476787547,1.3397167270591668,-0.25667994077419554,1.7200398387369802,-3.214514551341807e-05,1.660097325584081,-7.625171766711958e-05
63.938,1.319952249990556,1.33745589927583,-0.2588951567399844,1.7199881129024277,-1.8072299624805055e-05,1.660099460997535,-8.815537603457102e-05
63.948,1.3199490721336486,1.3350912966233244,-0.2611707645435333,1.720084826605241,-3.46953338246081e-05,1.6600203540286644,-9.78831839226757e-05
63.958,1.3199454663300614,1.3327013081702654,-0.2634620858988166,1.7200098483980604,-2.3029214458070157e-05,1.6601033709114974,-7.036616114675098e-05
63.968,1.3199412620144253,1.3302642935071125,-0.2658443003690367,1.7200175514322815,-2.8956519937395342e-05,1.660091235753848,-9.427806703055097e-05
63.978,1.319957042161648,1.3277660720740387,-0.26823271631975576,1.72005094577454,-2.7732115817080683e-05,1.660035815242856,-8.698740025536722e-05
63.988,1.3199453697772432,1.3252265587005043,-0.27069865694646555,1.7200297546578298,-2.9313404789732544e-05,1.660066211377809,-8.332839972435835e-05
63.998,1.3199447869562793,1.322625158751081,-0.2731985766948375,1.7200561224098863,-3.095407032205344e-05,1.6600513098064091,-7.912012986643902e-05
64.008,1.319940527546251,1.3199605211416623,-0.2757736743133412,1.7202542686744948,-4.288934800911193e-05,1.6598958136744084,-8.953304548686702e-05
64.018,1.3199235776415463,1.317271311526997,-0.2783422220532623,1.7200238679286635,-3.1238431473568085e-05,1.6601568055433633,-3.3246719712387574e-05
64.028,1.319948994626877,1.3145478868014857,-0.2810417377499901,1.7201274502653554,-4.002059493046772e-05,1.6599634242946903,-0.00011642016691038037
64.038,1.3199458216857547,1.3117733084149057,-0.28371907374973926,1.7199923872415361,-2.3406694060312816e-05,1.660101612279707,-7.782184568583261e-05
64.048,1.3199405258724237,1.3089038846646366,-0.2864813387513587,1.7200884543654276,-3.7171256139778563e-05,1.6600256640193072,-8.429117627972715e-05
64.058,1.3199306424018298,1.3061214082260486,-0.289288192741858,1.7195492061093738,1.9336873862130233e-06,1.66051496654074,-8.40252843321565e-05
64.068,1.3200059586491593,1.3030351038209593,-0.29213809018987913,1.7203024974341226,-5.504246257093115e-05,1.659766255903591,-0.00013899565255393043
64.078,1.3199043287750118,1.3001219773031485,-0.29505641443932173,1.719912293640295,-2.07658390802834e-05,1.6601712767914023,-6.365327662560816e-05
64.088,1.3199705037013292,1.2970352646806935,-0.2979800864939053,1.7200375892692783,-3.168676424447625e-05,1.6600342029111044,-9.23872576086282e-05
64.098,1.3199462860857158,1.293938236890317,-0.3010056470694371,1.720016700094451,-3.623138957120631e-05,1.6600937517909937,-9.08572405968755e-05
64.108,1.319945217092334,1.29081819924967,-0.3040505013985557,1.7199591461663886,-2.5968218670513465e-05,1.6600984683166917,-9.043252682072733e-05
64.118,1.3199372866073533,1.287622438498242,-0.3071568911364837,1.7198853693660858,-2.887312749244586e-05,1.660212806721023,-7.848951795530468e-05
64.128,1.3199723368201104,1.2843499861158572,-0.3103124328776614,1.7200856755634462,-3.6409255725011747e-05,1.6599893443225913,-0.00011304441142812038
64.138,1.3199349490763685,1.2811164611978834,-0.3135174059767243,1.719754148806043,-1.5367606959415525e-05,1.6602913389443978,-8.042582116551955e-05
64.148,1.31997545070693,1.2777134251093623,-0.3167611292350676,1.7200017258336047,-3.3615767429218124e-05,1.660050683034239,-0.00010415729261659123
64.158,1.3199279919066962,1.2743235442504544,-0.3200694251450935,1.7199093568692163,-2.835314684279666e-05,1.6601861498517527,-6.6557645154397e-05
64.168,1.3199638627501482,1.2708672362122284,-0.32343186209247055,1.7200581695897021,-3.725435955725942e-05,1.6599947960307908,-0.00011325936662753833
64.178,1.319960184879104,1.267397097942598,-0.32682075892218077,1.7198697659710795,-2.30395171580966e-05,1.6601831714595585,-8.649280991335218e-05
64.188,1.319958365788402,1.2638836183533906,-0.3302955429248202,1.7198155040953242,-1.808287905102901e-05,1.6601956186372684,-0.00012168869365147827
64.198,1.3199922703574183,1.2602124926118963,-0.33376472878507446,1.7200721510351222,-4.134868234029199e-05,1.6599864588259061,-9.921479473451456e-05
64.208,1.319945784628703,1.2565961850059901,-0.3373390270867267,1.7199388076235849,-3.502471525429485e-05,1.6600895586819409,-9.59738624706219e-05
64.218,1.3199690342431607,1.2529025737420048,-0.340934373189568,1.7200202451784499,-2.6639211106349592e-05,1.6600194750724988,-0.00011443385919740479
64.228,1.3199602493073073,1.2489930667657871,-0.3445173574278533,1.7204652602381856,-8.164661221243819e-05,1.6597247704111044,-1.0925244620985097e-05
64.238,1.3198878706961965,1.2453298070979448,-0.3482876334432481,1.7200037205932937,-5.2915165157152444e-05,1.6600770747857894,-6.586839677247269e-05
64.248,1.3199873115754936,1.2414192709958458,-0.3519703429723888,1.7203420468338564,-5.558613592082651e-05,1.659777042780357,-7.737554168141259e-05
64.258,1.3199214062644877,1.237574921010009,-0.3557720649271241,1.7200346123461507,-4.85133902969892e-05,1.6600689136488622,-3.262114931601445e-05
64.268,1.31995560251758,1.2336379249303162,-0.35961425489215504,1.7200812537357617,-5.264948276018089e-05,1.6599835998326444,-8.782896114212235e-05
64.278,1.3199418349264391,1.2296817600823369,-0.36349852797685234,1.7199917520946393,-3.3977905389726004e-05,1.6600776138134448,-7.33899817211281e-05
64.288,1.3199682425503347,1.225614763423418,-0.3674019646446096,1.7200810895973078,-4.419145800493851e-05,1.6599976438486213,-6.235879683469392e-05
64.298,1.3199344145046084,1.221545896254324,-0.37141331891775753,1.7200249205315927,-5.6272805731616415e-05,1.6600427050267852,-8.330085805230425e-05
64.308,1.3199480779428052,1.217405608858967,-0.3754089583482729,1.7200598887459542,-4.593779750816651e-05,1.6600425972791157,-5.779472016431697e-05
64.318,1.3199688728159016,1.2132734626879946,-0.3794829143877996,1.7199163485981135,-2.8623873608246697e-05,1.6601085822901922,-8.474834686289512e-05
64.328,1.319946056329739,1.2090571503693193,-0.38361148784631194,1.719834883575615,-3.859062755307008e-05,1.6601859750145884,-8.581720885736388e-05
64.338,1.3199593742802813,1.2047345863411882,-0.3877558174780775,1.7200304401818656,-4.973018042520039e-05,1.66003277057996,-7.512774087370389e-05
64.348,1.3199428416828978,1.2005501690157407,-0.39196925599176513,1.7194960956799576,6.9116884233721976e-06,1.6604688015561626,-7.35356268117826e-05
64.358,1.320011217576634,1.1960146179714384,-0.3962226063584646,1.720251984484939,-6.781145291334667e-05,1.6597850660621267,-0.00012692643408307447
64.368,1.3198856411987476,1.1917707600188523,-0.40052780644919483,1.7194336155686187,-4.0583345315425845e-06,1.6605458331981975,-2.6595589278421983e-05
64.378,1.320061635751947,1.1871453442546605,-0.4048554210753492,1.7203073029387692,-5.814784974944587e-05,1.6597081740525894,-0.00016329454182884007
64.388,1.319900194231117,1.182715275974032,-0.40925814407457306,1.719828139894421,-4.5063531010747226e-05,1.6602027172104528,-2.515074146813845e-05
64.398,1.3199698166489817,1.1781152855665402,-0.4136629214822056,1.720119330840454,-5.1759644474458355e-05,1.6599227454107934,-7.870321150882376e-05
64.408,1.3199546969648601,1.173545307590918,-0.41815860265464,1.7200376640715422,-5.3785560501395935e-05,1.6600302024233464,-6.35580972074834e-05
64.418,1.319965086977657,1.1689496697165973,-0.4226870370077682,1.7199410576561718,-4.1000927780032725e-05,1.6600703227080027,-9.475216871379644e-05
64.428,1.3199768727353405,1.164317672825205,-0.4272280971407172,1.7197809258305323,-1.3839909290602748e-05,1.6601981638500645,-7.610251169865023e-05
64.438,1.3199919582055077,1.159602117368256,-0.4318704039740462,1.71981668961201,-2.2569448911546885e-05,1.6601379877960545,-0.0001305576620982407
64.448,1.3200040302686276,1.154769514048442,-0.4365188347930511,1.7200634045168854,-4.9054262156289496e-05,1.659943738063462,-0.00011364573712313586
64.458,1.3199534943400737,1.1498424841808612,-0.44114829833912506,1.72032155163045,-9.004039501192551e-05,1.6597805762060043,1.357274073665593e-05
64.468,1.3199129401668683,1.1450249757263018,-0.44592141169816646,1.7201613612010984,-8.935327552439531e-05,1.6599094036075215,-2.6657053222578497e-05
64.478,1.319962560857019,1.1401292502503795,-0.4506602177798831,1.7201898306824006,-7.163409610289051e-05,1.6598885631821032,-1.964215562555438e-05
64.488,1.319964590734604,1.1352285647633034,-0.45553100277427294,1.720124891143275,-7.119745860251214e-05,1.6598984023525682,-9.110984551785606e-05
64.498,1.3199509728631753,1.1301686883077346,-0.4603391091692428,1.7203715623178493,-9.605577903926132e-05,1.6597529871971046,1.6584284825427176e-06
64.508,1.3198856005172734,1.1252299510723693,-0.4651952846659997,1.7199607758466087,-7.011549919866411e-05,1.6601110300483626,7.202148329987779e-05
64.518,1.3200215046479205,1.12023800341714,-0.4702337347033927,1.7200157609279714,-5.391615293071084e-05,1.6599375986237286,-0.00018677787797116707
64.528,1.319950886330438,1.1151771048329513,-0.47515298805285955,1.7197609561933564,-2.6575431788522508e-05,1.6602065301039204,-2.987180805469336e-05
64.538,1.3199813149997128,1.1098857484043565,-0.48018495858081334,1.720350662592633,-9.589240241059116e-05,1.6597368534577894,-6.763740946080787e-05
64.548,1.3198891340000474,1.1048291833608515,-0.485182360381887,1.7197707945583236,-4.2005591928351294e-05,1.6602633811424692,6.989535324031237e-05
64.558,1.3200443839876694,1.0996350403506012,-0.49037346263753445,1.7199816774336796,-4.6082955175386076e-05,1.6599342329135602,-0.00021426132478730153
64.568,1.3199669293776077,1.094370063590655,-0.49543907878465543,1.7198707860786904,-3.807949711287506e-05,1.660104216865924,-1.3514589793928167e-05
64.578,1.319938547280934,1.0890313817755581,-0.5005839187218042,1.7199660577412352,-5.614797595399068e-05,1.6600227970688914,-3.896253439883424e-06
64.588,1.3200025953830137,1.0837748833801095,-0.5058502446540105,1.7198586585563778,-2.68915462253716e-05,1.6600713468621278,-0.00011816328455793723
64.598,1.3199690600282885,1.0783303153206445,-0.5110578606434837,1.720032158298773,-6.512805821579093e-05,1.6599665615760806,-3.5377249000489996e-05
64.608,1.3199630805690488,1.0729564101757871,-0.5163181210956553,1.7199290187876777,-4.934703455461431e-05,1.660030339386494,-2.689986038539871e-05
64.618,1.319987386595809,1.0675372683348252,-0.5216597866341042,1.7199225671712348,-4.502536795669698e-05,1.6600237675469254,-7.339501713410357e-05
64.628,1.3199747565828606,1.0620524786380363,-0.5269982735962584,1.7199241457002081,-5.028147389918303e-05,1.6600292192208386,-4.7758803448871845e-05
64.638,1.3199744297150655,1.0565118180386532,-0.5323714221548022,1.7200224689679189,-6.119597187481673e-05,1.659959929318818,-3.6378670253967016e-05
64.648,1.319974272787558,1.0510054554632804,-0.5377955710278899,1.7199036276824664,-4.876798657615922e-05,1.66003676236818,-4.6613103679149503e-05
64.658,1.319998616464214,1.045468170488765,-0.5432631496098415,1.7198362788566541,-2.4400088440401646e-05,1.6600688685341405,-8.530707213338928e-05
64.668,1.319985534475732,1.0398153366213156,-0.5487299365760405,1.7199358547099983,-4.1453793294898844e-05,1.6600083556656466,-3.9428872754321276e-05
64.678,1.3199728898394794,1.0341390405467257,-0.5542449462076844,1.720002355204798,-6.54325638453912e-05,1.6599645261755445,-2.8550601282262278e-05
64.688,1.319982091154655,1.0284525869579602,-0.5597985011614925,1.7200339782414922,-7.019075436964783e-05,1.659938707794261,-4.385590465449951e-05
64.698,1.3199717568976057,1.022738476350594,-0.5653752786063917,1.7200250926877114,-7.728868265921562e-05,1.6599453268174758,-2.9648895850442614e-05
64.708,1.319983561971262,1.017077960106426,-0.5709765935002062,1.7198232688739292,-2.379261956697576e-05,1.6600750870701066,-3.603205958668809e-05
64.718,1.3199911609837018,1.0112731911407034,-0.576625457292546,1.7199272886960717,-4.385176303500771e-05,1.659996361476904,-4.761779822182177e-05
64.728,1.3199774169035265,1.0054538785614087,-0.58230513356943,1.719946159990137,-6.348967918778925e-05,1.6599928804572395,-4.159117435520443e-05
64.738,1.3199938002505593,0.999613330840222,-0.5880004720627818,1.7200029044552885,-5.806501470928538e-05,1.6599417997136827,-4.05233237081859e-05
64.748,1.3199790371941367,0.9937252528540421,-0.593733396232019,1.720043225414873,-8.209634173717006e-05,1.6599166516345853,-2.434880885804347e-05
64.758,1.3199715606301963,0.9878499981607733,-0.5994626316026563,1.719979884991936,-6.542986599011869e-05,1.6599634690054916,7.341762260359985e-06
64.768,1.319977978618045,0.9818929116235848,-0.6052862514677431,1.7200973573722038,-9.779172799806446e-05,1.659884674470974,-3.564544014000859e-05
64.778,1.3199772769063678,0.975976957391544,-0.611070112321312,1.7200255281198782,-6.664168641101753e-05,1.6599349527636909,1.8447587310177482e-05
64.788,1.3200075120370833,0.9700644083831458,-0.6169768291732582,1.7199041566107418,-4.5779278739388474e-05,1.6599845802836883,-9.476748536485502e-05
64.798,1.3199997573850615,0.9639627154127135,-0.6227856058911589,1.7201709536808085,-9.178137134568942e-05,1.6598074607592928,2.1160727309066374e-05
64.808,1.3199485019846264,0.9579877733756783,-0.6286774871632632,1.7199078988838394,-7.383656307435871e-05,1.6600178444437752,1.7418370245714243e-05
64.818,1.3200218043154042,0.9519364180154808,-0.6346139470490391,1.7200680404056286,-5.943464230728779e-05,1.6598548725979123,-4.7190605229729954e-05
64.828,1.3199764307266841,0.9458858033694453,-0.6405431347376398,1.7198887196116814,-5.8744771319396705e-05,1.6599999895276785,1.541842054031406e-06
64.838,1.3200090909502702,0.9397959977919728,-0.6465562846376836,1.7199375743702756,-4.921089671494627e-05,1.6599530319940898,-7.827213074484973e-05
64.848,1.3200013123789986,0.933626389005771,-0.6525043471457108,1.720057713000383,-6.667919312519643e-05,1.6598737098666083,1.2051205480645422e-05
64.858,1.319965694301131,0.9274680493395833,-0.65851222572467,1.7199788376487923,-9.35083611270926e-05,1.6599489274127919,1.0687449992552445e-05
64.868,1.3200096909365628,0.9213515631704512,-0.6645570910313205,1.7199418881849873,-4.48550427050165e-05,1.6599400491025564,-3.0537002934316604e-05
64.878,1.3199978244331367,0.9151766907554348,-0.6706169258663435,1.7198921944833963,-3.9691070947256435e-05,1.659979658905267,-7.966411498472326e-06
64.888,1.3200103661116271,0.9090073199871247,-0.6767350023014425,1.7197945522258529,-1.7289992960911604e-05,1.6600380940524309,-7.209620857473453e-05
64.898,1.320010367975625,0.9026696955779956,-0.6828082290945412,1.720056138822203,-7.02777535925847e-05,1.6598639248771203,-4.571478733339518e-06
64.908,1.3199802959624574,0.8964876637224242,-0.6888971435959279,1.7198215463882374,-3.138633188193296e-05,1.660028782039757,3.1215232439762985e-05
64.918,1.3200234520876197,0.8902268818475791,-0.6951023514558043,1.7198535080018154,-3.0372898139674476e-05,1.6599808598345218,-8.770601273333511e-05
64.928,1.320022837084462,0.8838906978991394,-0.7012427944560597,1.7199728335127187,-4.47496662037139e-05,1.6599015191005835,-1.8381467626227277e-05
64.938,1.319982055196192,0.877531195392355,-0.7073858499437184,1.7199879067911361,-8.071500668815901e-05,1.659916290987006,3.577812121235979e-05
64.948,1.3200046634585423,0.8712752413947014,-0.7135852881223643,1.7198716344475748,-3.139517992778451e-05,1.6599643199315572,-5.461097269510162e-06
64.958,1.3200372970669063,0.8649968914809021,-0.7198524961573058,1.7197857101379395,8.043511087407751e-06,1.6600052110133943,-8.204241800591205e-05
64.968,1.3200166210275146,0.8585703557127067,-0.726065851658384,1.7198922118009712,-3.2975589371098124e-05,1.659956673852724,-1.8870275407145698e-05
64.978,1.3200070565709385,0.852219470809449,-0.7322727396400373,1.7198218987013316,-1.3087240732012617e-05,1.6599875668875779,9.7420297473505e-06
64.988,1.3200192555862822,0.8458171382475284,-0.7385557458543373,1.7198544127093207,-2.391253709532748e-05,1.6599697791423536,-3.033628764281815e-05
64.998,1.320020630694251,0.8393429779284629,-0.7448514713553935,1.7199872840544632,-7.848299837398542e-05,1.6598825589139405,-3.855789703788304e-05
65.008,1.3200128730988485,0.8330191446504527,-0.751105467963483,1.7197888195800868,9.447772432835677e-06,1.6600145312812131,1.046065348031533e-05
65.018,1.320019461137191,0.826614637598083,-0.7574219459144151,1.719724414872374,2.39517950682e-05,1.6600364400731982,-3.916029406081378e-05
65.028,1.3200777623956323,0.8201645037326157,-0.7638184663226921,1.719868726438559,1.7215986896523816e-05,1.6599080686709913,-0.00011841724729055869
65.038,1.320005586881786,0.8137436233753634,-0.7700513966987925,1.719616231283677,4.836410221997767e-05,1.6601343595764124,1.8097828992758025e-05
65.048,1.3200495819488616,0.8071635717882737,-0.7764076291349715,1.7199803937125218,-2.7593509319245868e-05,1.6598335090899203,-2.9390387555672248e-05
65.058,1.3200024699995216,0.8006393744508431,-0.7827588496690909,1.719878220981613,-7.417743338766769e-05,1.6599737593440667,-8.020816872900127e-06
65.068,1.3200452149576805,0.7942863138001703,-0.7891324799511397,1.7197654028162699,5.5489964963406635e-05,1.6599923792593572,-5.1952942818012104e-05
65.078,1.3200665444877746,0.7878286183020853,-0.7956170802566271,1.7196982484924526,7.500707406382645e-05,1.6600377001416966,-0.000168284185259715
65.088,1.3200707860731598,0.7811462317030733,-0.8019273058597198,1.7201233090276915,-4.436817875941301e-05,1.659756345996053,2.4267181841786112e-05
65.098,1.3199446852301913,0.7744440509232549,-0.8081191476239509,1.7201124362577325,-0.00019492501062856604,1.659867833410087,0.0002423226908323528
65.108,1.3199910397831331,0.7680754385159743,-0.8145193605566314,1.7199339851966862,-8.347234819439109e-05,1.6599027309957188,9.355465057403478e-05
65.118,1.3200652156947505,0.7615672458307268,-0.8211142980478394,1.7199861809548818,-8.052866374619327e-05,1.65982553475276,-0.00015492144800255403
65.128,1.3199846211470536,0.754855208583531,-0.8274000145150611,1.7201877003394515,-0.0001765837376650481,1.6597768474098773,0.00013629924993807663
65.138,1.3199218886070803,0.7486149635055019,-0.8336158827311921,1.7195472816413133,8.018913399077121e-05,1.6601646630541662,0.0002523268204894791
65.148,1.3201575565726191,0.742254877006121,-0.8404581579736119,1.7196556871228772,0.00016151856508983542,1.6599431904332818,-0.0003606695219167122
65.158,1.3200539670570999,0.7356791581793827,-0.8467663988079943,1.7194454239108659,0.00014269366911445758,1.660206170167461,-5.596144879227438e-05
65.168,1.3201229417407676,0.7290635943954991,-0.8532546365578453,1.7198141210712485,0.00011563786838308943,1.659872441666625,-0.0001483274820133218
65.178,1.3200115941817296,0.7223439437981556,-0.8594749180340111,1.719790950804935,-6.217792732243765e-06,1.6599962264158519,0.00016118637719575446
65.188,1.3200144017780904,0.7159282918956249,-0.8660053142616109,1.7194511978020905,0.00011592400040960626,1.6602079829495322,-0.00013710926284904446
65.198,1.3201587675874045,0.709487182829009,-0.8725673315529834,1.719787560970662,0.00023298142279770673,1.659833376499754,-0.00014174859302240606
65.208,1.320004586889378,0.7026528420310578,-0.8787820116749971,1.7197233703149166,-1.3952394518845779e-05,1.6600566186042824,0.00015679112287259045
65.218,1.3200297577467826,0.6962348871527526,-0.8853369856184008,1.7195155209195985,0.00010676142150245482,1.6601575532277666,-0.00013923956741379584
65.228,1.3201628261470928,0.6897208024183454,-0.8918603922596811,1.7199602037535193,0.00016842148788498434,1.6597184698420575,-5.4432667351278496e-05
65.238,1.3199967339748033,0.6829578763069177,-0.898085405567504,1.719683006057366,-2.8457574634543903e-05,1.6601273550068063,0.0001991514129642269
65.248,1.3200810658354758,0.6764890617792245,-0.9047783621008962,1.7197622739336182,3.741151870428894e-05,1.6599596821863827,-0.00024355582301716083
65.258,1.3200672692941513,0.6698489658236477,-0.9110765266831455,1.7200490725305357,1.8713882599996623e-05,1.659748458254346,0.0001648695308444914
65.268,1.3199739468493679,0.663176201676996,-0.9172956773413938,1.719844593088954,-9.018447510200645e-05,1.6600068384107791,0.000288849800868185
65.278,1.320098546729196,0.6568424212919206,-0.9241457433318034,1.7196988724366005,5.6218530741780626e-05,1.6600108644707818,-0.00036796279862016945
65.288,1.320077484750092,0.6502141246019901,-0.9303733533820866,1.7200575014053374,5.208480684082417e-05,1.659719805512263,0.00017741438885376937
65.298,1.3199770090344707,0.6433748519441709,-0.9366197386106672,1.7200934589022907,-0.00022644366580415465,1.6598636685397032,0.00032328057822628153
65.308,1.3199792750110442,0.6369823146171454,-0.9429429152765669,1.7198982192693784,-0.00011723422504150705,1.659919764785732,0.0002515423692432961
65.318,1.3200948803403332,0.6306110993312286,-0.9497250293242816,1.7198716702324344,-6.109395535247586e-06,1.6598416224154828,-0.00024421052398082566
65.328,1.3200552548583833,0.6240526209817903,-0.9559981755176095,1.7199184912113203,7.22915003770197e-06,1.659868157528705,8.92783651078588e-05
65.338,1.3200148271689365,0.6173380848660264,-0.9623430090647824,1.7200720488297598,-0.00015074840046658267,1.659816115746973,0.00010927140515537559
65.348,1.3199843189290688,0.611001953963858,-0.9685735978493666,1.7198149564799472,6.203331643916954e-06,1.65996258558327,0.0002515002609841943
65.358,1.3200780734435007,0.6045883630203042,-0.9752287631257142,1.7198314921560929,3.153211860418281e-05,1.6598807980114447,-0.00017947732698608831
65.368,1.320071147828286,0.5980535789454775,-0.9815814932310678,1.7198982054547685,-2.040535711067548e-06,1.6598897776946773,-2.2156257294625448e-05
65.378,1.3200201381695837,0.59142314215367,-0.9877333935526229,1.7200380669848663,-0.00010553392479639712,1.6598135900061761,0.00022602083712275345
65.388,1.320003642378631,0.5849994841771666,-0.9941045004414795,1.7198671573831703,-8.031955331500029e-05,1.6599352627864254,0.00010155202897710325
65.398,1.3200744745961277,0.578630870177741,-1.0005795900933334,1.7199653194676099,-9.729210039388647e-06,1.6597949239533936,-5.086471832704831e-05
65.408,1.3200611731361889,0.5723431247506996,-1.0069020609319557,1.719675112225934,0.0001266734958980109,1.6600254305276119,-3.314656802810845e-05
65.418,1.3200707785372883,0.5658141376238239,-1.0131953654881274,1.7198971109648813,4.7234850837796216e-05,1.6598570336754577,1.8533550386834463e-05
65.428,1.3200340355571658,0.5592996544304514,-1.0194400359761415,1.719875800776137,-4.361259419027874e-05,1.6599156743034964,6.599386974848187e-05
65.438,1.320047092391623,0.5528515730829993,-1.0257299956871515,1.7199749574644123,-6.947609562235613e-05,1.6598317434632284,4.439452536963984e-05
65.448,1.3200364650330645,0.5465033749045682,-1.0319788784675312,1.7199032646928742,-2.3868667015314315e-05,1.6598888698868048,9.59539380245289e-05
