marzuk-umich/fetch_joint_controls/test/actual_all_joints_accln.csv
Time,Joint_0,Joint_1,Joint_2,Joint_3,Joint_4,Joint_5,Joint_6
55.082,1.3199991170147003,1.3999859317672492,-0.19998918380880504,1.7199619118614269,2.369684724001786e-06,1.660008002979314,-8.03935131798994e-07
55.092,1.3200012419303437,1.3999798985320684,-0.19998627254949675,1.7199749987002786,1.3616110097203205e-06,1.6599987072042959,1.0841816688866857e-06
55.102,1.320000157360841,1.3999861303166767,-0.19999002523422504,1.7199578871498495,2.283697761562564e-06,1.6600128157495027,-2.16236903582967e-06
55.112,1.3200013589475361,1.399977652241935,-0.19998588246959859,1.7199836493542744,6.80935419161699e-07,1.6599927277439814,1.4829225030155158e-06
55.122,1.3199987044146386,1.3999851177846612,-0.19998915973099418,1.7199622631458773,2.0390683239668306e-06,1.660008454957942,-1.9150738594930772e-07
55.132,1.3200001427263048,1.3999796706992385,-0.19998909510981022,1.7200088592705391,1.5672832089919098e-06,1.659969304291928,-5.49418797568535e-07
55.142,1.3200001911152084,1.3999781435392338,-0.19998649248263156,1.7199748455948374,7.692405272763381e-07,1.660003571018219,2.021197191837132e-06
55.152,1.3199991364467856,1.3999841302951177,-0.1999893816437437,1.719967211748063,1.8465953548485459e-06,1.6600030515749769,-1.1459693380899694e-06
55.162,1.3200012092829105,1.3999817637838161,-0.19998656163290018,1.7199733827040866,1.7870646242812427e-06,1.6599996488340167,6.658595621544805e-07
55.172,1.3199994195124471,1.399984904732448,-0.19998846847728835,1.7199471818656562,2.1097471885056507e-06,1.6600270479986312,-1.1643449759901614e-07
55.182,1.32000252758378,1.3999789974367651,-0.19998736515948856,1.7199839117172822,6.937922805150265e-07,1.6599889125893128,-1.8313680598680548e-06
55.192,1.3199995107023534,1.3999853985079405,-0.1999881751927166,1.7199624799095474,2.376201147846757e-06,1.6600082296765857,3.9707125232268936e-07
55.202,1.3199999085837835,1.3999792371150495,-0.19998923798472124,1.7200075813340856,1.426966752759995e-06,1.6599705682580739,-2.566980539242536e-07
55.212,1.3199999269238338,1.3999778712269189,-0.19998692523830996,1.7199760947625151,6.647510408797075e-07,1.6600023840138336,1.526920970107426e-06
55.222,1.3199992189569993,1.3999845663610655,-0.19998903107762356,1.7199660063418136,2.0346634892476345e-06,1.6600036983381656,-6.69960453336671e-07
55.232,1.3200012982997285,1.3999814405041349,-0.1999866392741998,1.7199742372379987,1.6593751341886787e-06,1.6599990677506575,5.274199255111967e-07
55.242,1.319999303766938,1.3999850276322334,-0.1999886292983879,1.7199466353477426,2.0797725364118946e-06,1.6600276090991608,-2.2830857471234367e-07
55.252,1.320002626608182,1.3999790024762158,-0.19998715092971775,1.7199843568417155,7.277977029929161e-07,1.6599885501066272,-1.6063535177579524e-06
55.262,1.3199994418896104,1.399985496522901,-0.19998830864178974,1.7199622586566718,2.376683967852955e-06,1.6600085345752706,3.0309741116951727e-07
55.272,1.3199999226382664,1.3999791819693295,-0.1999892186968415,1.7200078052981915,1.4129913523674986e-06,1.6599705029105776,-2.7758822795931337e-07
55.282,1.3199999370721827,1.3999779409583866,-0.19998687521371838,1.719975996920816,6.797590907936524e-07,1.6600025043585767,1.5927594825271285e-06
55.292,1.3199992076723719,1.3999845660702928,-0.19998905612650653,1.719966080309586,2.0198610846122733e-06,1.66000362534532,-7.106098065534638e-07
55.302,1.3200012954107843,1.3999814236844257,-0.1999866180277996,1.719974189644569,1.6566233256298801e-06,1.6599991122332378,5.317709153018768e-07
55.312,1.319999310431978,1.3999850108604273,-0.19998860166370136,1.7199466337584965,2.085585532718426e-06,1.660027562410189,-2.1787830473130043e-07
55.322,1.3200026184980205,1.3999789961539664,-0.19998714972995035,1.7199843193038795,7.305056746176319e-07,1.6599885222429336,-1.624006754852303e-06
55.332,1.3199994450301409,1.3999854719257154,-0.19998828252951295,1.7199622463212165,2.3788986434070125e-06,1.660008508070339,3.0727678979047823e-07
55.342,1.3199999212488986,1.3999791722659713,-0.19998920337482762,1.7200077947302415,1.413724672438832e-06,1.6599704834332156,-2.7901098054172735e-07
55.352,1.3199999353648657,1.3999779377727384,-0.19998686154692802,1.7199760062348801,6.790423228153486e-07,1.6600024799996431,1.5877702139732719e-06
55.362,1.3199992070801567,1.3999845695247846,-0.1999890382681624,1.7199660744157779,2.0196613732537116e-06,1.66000363954561,-7.073600754026188e-07
55.372,1.3200012948923447,1.399981427785133,-0.19998660600441553,1.7199742039426233,1.6550103847379205e-06,1.6599991199800277,5.297826284333951e-07
55.382,1.3199993082448742,1.3999850206464703,-0.19998859240709965,1.7199466360371094,2.0862899505758037e-06,1.6600275873294734,-2.1906989555731116e-07
55.392,1.3200026189620226,1.3999790057096897,-0.19998714068478396,1.7199843301375104,7.305941140955952e-07,1.6599885323178523,-1.6239370301818212e-06
55.402,1.3199994445923338,1.399985476633443,-0.19998827719312118,1.719962254399622,2.3777654263312797e-06,1.660008519127853,3.067865890216126e-07
55.412,1.3199999202097192,1.3999791745658179,-0.19998920141517917,1.720007806318705,1.4133299224283746e-06,1.6599704808870817,-2.7934207036395264e-07
55.422,1.3199999363542165,1.3999779340901508,-0.199986859756347,1.71997602437321,6.786662432034518e-07,1.6600024608661306,1.5887249142920723e-06
55.432,1.3199992051113636,1.3999845701247375,-0.1999890415975436,1.7199660584515364,2.020156902204917e-06,1.6600036456900646,-7.068044540758933e-07
55.442,1.3200012960690053,1.3999814207309056,-0.19998660927651812,1.719974206353692,1.6544886447533713e-06,1.6599991075983809,5.302309897814439e-07
55.452,1.3199993071691125,1.3999850173140675,-0.19998859966473148,1.7199466188586907,2.0877720157130852e-06,1.6600275955547792,-2.1865301391699177e-07
55.462,1.3200026200134234,1.3999790049939858,-0.19998714907149573,1.7199843270118418,7.310188427922526e-07,1.6599885214470325,-1.6247156864324097e-06
55.472,1.3199994453441244,1.3999854740252164,-0.19998828546735847,1.7199622527057556,2.3774818664890063e-06,1.6600085179595716,3.0824835750564716e-07
55.482,1.3199999196070404,1.3999791737485863,-0.19998921296231043,1.720007816579173,1.4132008425704612e-06,1.6599704721164503,-2.7914550848606723e-07
55.492,1.3199999378268812,1.3999779311851253,-0.19998686892092898,1.7199760491683609,6.781960060209258e-07,1.6600024399880828,1.590167927112418e-06
55.502,1.3199992031415109,1.3999845762658705,-0.19998905306986003,1.7199660454778485,2.020611540309858e-06,1.6600036623177337,-7.047844992058572e-07
55.512,1.320001297613218,1.3999814188274966,-0.19998661813237995,1.719974218376354,1.6532400772817368e-06,1.659999104044049,5.312305324522981e-07
55.522,1.3199993057839814,1.3999850197093604,-0.199988610156427,1.7199466065515807,2.0889096292719955e-06,1.6600276163793817,-2.1797894866892875e-07
55.532,1.3200026211889604,1.399979008748784,-0.1999871576156531,1.7199843294541246,7.312411067772473e-07,1.6599885162807855,-1.6254265169379778e-06
55.542,1.3199994459791338,1.3999854731066979,-0.19998829135487117,1.7199622534254306,2.3768550754255102e-06,1.6600085203838058,3.0958595775842923e-07
55.552,1.3199999186348252,1.3999791724933184,-0.1999892200515605,1.72000782775625,1.4129773155957537e-06,1.6599704618388955,-2.7941950886400946e-07
55.562,1.319999939129814,1.3999779259351897,-0.1999868712491173,1.7199760744646522,6.777771615062989e-07,1.660002412811803,1.5909921620149703e-06
55.572,1.319999200494963,1.399984580245925,-0.19998905636506148,1.7199660268777368,2.0213891200882017e-06,1.6600036759760464,-7.0351593617346e-07
55.582,1.3200012988823833,1.3999814136141344,-0.19998661730809175,1.71997422803922,1.6520601207048458e-06,1.6599990948454435,5.312388831058001e-07
55.592,1.319999303752562,1.3999850201509627,-0.19998861043933225,1.7199465899846498,2.0903199109412185e-06,1.6600276352026162,-2.1823275098142858e-07
55.602,1.3200026219871503,1.399979011640455,-0.19998715538918255,1.719984330618022,7.315694912080062e-07,1.6599885083919501,-1.627218231270433e-06
55.612,1.319999446188632,1.3999854720213953,-0.19998828643780708,1.719962253979057,2.376210479937413e-06,1.6600085229372965,3.1011999368502075e-07
55.622,1.3199999171134484,1.3999791719450458,-0.1999892169680315,1.7200078403419603,1.4126649503509725e-06,1.659970452588401,-2.804424052982313e-07
55.632,1.3199999400320506,1.399977921869068,-0.1999868640222946,1.7199761024285234,6.772831078194486e-07,1.6600023867678644,1.5911216015851437e-06
55.642,1.3199991973696017,1.3999845858045719,-0.19998905128013256,1.719966009369342,2.022068520624032e-06,1.6600036926021753,-7.027995581054824e-07
55.652,1.3200012998753472,1.3999814093432805,-0.1999866093890299,1.71997423962992,1.6507007565280674e-06,1.6599990873020154,5.307187986858253e-07
55.662,1.3199993014538816,1.3999850213824416,-0.19998860520608464,1.7199465740816215,2.091666724268748e-06,1.6600276553594808,-2.1885717416125772e-07
55.672,1.3200026226571566,1.3999790147008753,-0.19998714920197536,1.7199843321357093,7.318912427223268e-07,1.6599885006415827,-1.6292567313058726e-06
55.682,1.319999446328005,1.3999854706541122,-0.1999882793008032,1.7199622540900137,2.375583847857854e-06,1.6600085251278127,3.1050340432159373e-07
55.692,1.3199999156320015,1.399979170832781,-0.19998921328455932,1.7200078516581705,1.4123812226429777e-06,1.6599704428285627,-2.814812072315931e-07
55.702,1.3199999409989518,1.3999779173760754,-0.19998685786686643,1.7199761284303499,6.768596705342134e-07,1.6600023606068337,1.5913391155919498e-06
55.712,1.3199991945279121,1.3999845905501411,-0.1999890486314202,1.7199659918134227,2.0227803361194674e-06,1.6600037076124066,-7.018750745046987e-07
55.722,1.320001301029989,1.3999814048236479,-0.19998660533543777,1.719974250298133,1.6494126278132626e-06,1.6599990794213921,5.305325965210272e-07
55.732,1.3199992995269145,1.3999850224503687,-0.19998860474788938,1.7199465589977798,2.09288340347058e-06,1.660027673851328,-2.190643479949017e-07
55.742,1.3200026235491897,1.399979017569036,-0.19998714868882583,1.7199843338007916,7.322002320009346e-07,1.6599884934489193,-1.6306320516079609e-06
55.752,1.3199994467071976,1.399985469579538,-0.19998827858073653,1.7199622544115876,2.374997567500259e-06,1.660008527661473,3.113538946664107e-07
55.762,1.3199999145680756,1.3999791700873807,-0.1999892160625949,1.720007861972615,1.4120926508098819e-06,1.6599704347450253,-2.8198148971370074e-07
55.772,1.3199999421123145,1.3999779137222523,-0.1999868585521778,1.7199761517138352,6.764959756822009e-07,1.660002337921564,1.5920892959542243e-06
55.782,1.3199991922713084,1.3999845949003609,-0.199989052336643,1.7199659765497355,2.0234156581366847e-06,1.6600037212047605,-7.005379218938401e-07
55.792,1.3200013022877561,1.3999814008785982,-0.19998660748440855,1.7199742598503995,1.6482814260143641e-06,1.6599990726169267,5.308308468343625e-07
55.802,1.319999298058768,1.3999850234218059,-0.19998860954327835,1.7199465460284884,2.0939337481706843e-06,1.66002768955898,-2.188705723327189e-07
55.812,1.3200026244685255,1.399979019870436,-0.19998715275646806,1.7199843352294941,7.324833228850025e-07,1.6599884870686843,-1.631406337132546e-06
55.822,1.3199994471237604,1.3999854685231083,-0.19998828176019678,1.7199622544339483,2.374528300208567e-06,1.6600085296874232,3.123340031052635e-07
55.832,1.3199999137733895,1.3999791693281,-0.19998922126786578,1.720007869990841,1.4118597739809502e-06,1.6599704281391503,-2.8222118775289573e-07
55.842,1.3199999429948628,1.399977910787646,-0.19998686120993003,1.7199761701337373,6.762417870120885e-07,1.6600023196250708,1.592834628638684e-06
55.852,1.3199991904361816,1.3999845983235533,-0.19998905649165089,1.7199659642927294,2.023977295984025e-06,1.6600037319837844,-6.994057555331779e-07
55.862,1.320001303220236,1.3999813977025495,-0.19998660950752178,1.7199742675012732,1.6474093822438363e-06,1.659999067212027,5.310408717207338e-07
55.872,1.319999296793803,1.3999850243036311,-0.19998861281530278,1.7199465360982167,2.0947462440190634e-06,1.6600277015944727,-2.1879908729260933e-07
55.882,1.3200026250231751,1.399979021667571,-0.19998715463008487,1.7199843365225131,7.327104869503387e-07,1.6599884822196396,-1.6320917763934517e-06
55.892,1.319999447253771,1.3999854677927512,-0.19998828231746568,1.7199622544497295,2.37418500415032e-06,1.6600085314429815,3.12892709963819e-07
55.902,1.3199999129999673,1.399979168815551,-0.1999892227118263,1.7200078755761936,1.411674513285277e-06,1.6599704237096997,-2.8258632145394813e-07
55.912,1.319999943384241,1.3999779088530548,-0.1999868603751258,1.7199761829473772,6.760803969996232e-07,1.6600023069329382,1.5931212038466924e-06
55.922,1.3199991889412859,1.399984600704788,-0.1999890563424893,1.719965955771416,2.024364081698593e-06,1.6600037395022929,-6.988674705610265e-07
55.932,1.320001303619561,1.3999813954585232,-0.19998660771035226,1.7199742728265157,1.6467803716224694e-06,1.6599990634423998,5.30879415094887e-07
55.942,1.3199992957154416,1.3999850249546473,-0.19998861176515703,1.719946529530791,2.095268785140547e-06,1.6600277093379079,-2.1901898161758027e-07
55.952,1.3200026251556611,1.3999790227668854,-0.19998715261513045,1.7199843374601116,7.328607036782842e-07,1.6599884789327097,-1.632755889602322e-06
55.962,1.319999447092826,1.3999854673012004,-0.19998827966383903,1.719962254336501,2.3739619052776106e-06,1.660008532635187,3.129909664778552e-07
55.972,1.3199999123089574,1.3999791684791436,-0.19998922078792347,1.7200078786041644,1.4115409259218836e-06,1.6599704212940036,-2.830058045688588e-07
55.982,1.319999943368873,1.3999779078511319,-0.19998685741780342,1.7199761900155046,6.760074189315901e-07,1.6600022998610644,1.5930967718347233e-06
55.992,1.3199991879108106,1.3999846020195337,-0.1999890541163074,1.7199659510429335,2.0245778635796796e-06,1.6600037436938413,-6.987275993353137e-07
56.002,1.3200013036398897,1.3999813941971864,-0.19998660501382481,1.7199742758189274,1.646415464406914e-06,1.6599990613808808,5.306308565877771e-07
56.012,1.319998822765439,1.399983303833122,-0.19998823168668256,1.7199513943057845,1.8219181985301702e-06,1.6600250127423788,8.094366563682343e-07
56.022,1.3200021132962485,1.3999800750696263,-0.19998769337581823,1.7199812261017708,9.562736149604234e-07,1.6599907246865246,-1.906069040380487e-06
56.032,1.3199999517207361,1.399984871111525,-0.199987853904517,1.7199643748678213,2.321945564709438e-06,1.6600067993299534,3.3802499022073107e-07
56.042,1.320001045434135,1.3999845067502497,-0.1999886133590998,1.7199626522879221,2.0611766826661437e-06,1.660008294280404,-1.049958609833368e-06
56.052,1.320000836101646,1.3999773157571633,-0.19998667950365512,1.7199810844647399,5.410468606470431e-07,1.6599966012819936,9.550385495771252e-07
56.062,1.3199987539975915,1.3999853630935357,-0.1999891278410777,1.7199631564513602,2.177653631640908e-06,1.6600064808474375,-3.115155147170867e-07
56.072,1.3200013633868242,1.3999807538400129,-0.1999864826762101,1.7199758093583277,1.4933989209708898e-06,1.6599978440009444,6.362557130046298e-07
56.082,1.3199985492858293,1.3999817022244674,-0.19998796233683436,1.7199567803530584,1.494130389190218e-06,1.6600211134171596,1.4344058918425162e-06
56.092,1.3200014689381918,1.3999812099364517,-0.1999880957142972,1.7199777721245049,1.1873831731179507e-06,1.6599933477090527,-1.8364376712654007e-06
56.102,1.3200005302843358,1.3999839953776894,-0.19998717548386846,1.7199666645943843,1.981706571285713e-06,1.660004770344126,5.206435638172024e-07
56.112,1.3200002469851473,1.3999822917194447,-0.19998947780562037,1.7199780460791345,1.8448030436601925e-06,1.6599962604513143,-1.0331601423274606e-06
56.122,1.3200011230741602,1.3999850096970352,-0.19998658366564204,1.7199148584274653,2.440982474816167e-06,1.6600523140156733,2.8816014374655197e-07
56.132,1.3199978404066206,1.399977849766059,-0.19998777072578822,1.719960042171607,1.664497290221334e-06,1.6600165375191258,1.8825548471212983e-06
56.142,1.320000893486255,1.3999785913270157,-0.19998802250094094,1.7199677487971172,2.128933748402062e-06,1.6599937496346788,-3.1727688982741142e-06
56.152,1.3200045989703746,1.3999706539203292,-0.19998456677647436,1.7200039142226728,6.954829316896394e-07,1.6599517794865335,-1.941430889829121e-06
56.162,1.319998538767985,1.3999638857832784,-0.19998572151252336,1.7200438257677604,-8.527779522538026e-07,1.6599205441976723,1.8715884149145268e-06
56.172,1.31999998860881,1.3999892096616877,-0.19998720925056457,1.7199274520195633,4.378893934564587e-06,1.6600098076148528,-3.4656831706669777e-06
56.182,1.3200165893726714,1.3999740055069463,-0.1999861377428136,1.7201439504998213,-2.6086640483313772e-06,1.6597903365553375,-1.5906751886340942e-05
56.192,1.3199860251445452,1.39988127609527,-0.19996218155104106,1.7202966206032144,-1.7439895580118048e-05,1.6597688479297297,4.366408821621093e-05
56.202,1.3199515790616916,1.3999647040263028,-0.1999960898418358,1.7199398086280695,2.8803196734372705e-06,1.6600441760732387,2.3018538704455693e-05
56.212,1.3200005087243927,1.3999709427120095,-0.19996444752070897,1.7197882657748007,7.683440743200265e-06,1.6601529427397255,6.4120885054919086e-06
56.222,1.3200250300327685,1.3999652802524212,-0.19997779642452418,1.7199662886050255,6.673730323925042e-07,1.6599316526555103,-2.894505477613052e-05
56.232,1.319998440362129,1.3999669689053134,-0.19997324215326628,1.7199800929218796,2.972372213250196e-06,1.6599615620834998,6.871432560728863e-07
56.242,1.319998062472247,1.3999591564173883,-0.19996610716977248,1.7199300021437054,1.0137380579422484e-06,1.660013701471403,9.57404876800183e-06
56.252,1.3199967661356435,1.3999610562202722,-0.19997629326253552,1.7200132030362028,-1.5255531282676316e-06,1.6599398502219236,-6.7728356807350565e-06
56.262,1.3199999900846198,1.399972768319663,-0.19996562348781666,1.719949982273432,2.4664872730895127e-06,1.659998717977964,3.8263771227065035e-06
56.272,1.3200024049226773,1.3999531617801608,-0.19996439418285927,1.719995998721366,-2.8368068143436176e-06,1.6599659189669556,2.285462613826894e-06
56.282,1.3199933841290425,1.3999749687065943,-0.1999731538272025,1.7199450870072717,2.329162553493802e-06,1.659999105877425,-4.36699719141842e-06
56.292,1.3200061650433463,1.3999620831037145,-0.1999609671165139,1.720007410354139,7.429588153584632e-07,1.6599333773703426,6.452337650841855e-07
56.302,1.320001435210214,1.3999326362011377,-0.1999570376701696,1.7200090153898024,-6.80066550362568e-06,1.6599487863835645,7.4742174627218105e-06
56.312,1.3199913171968412,1.4000060723764474,-0.1999754802119078,1.7197283361434987,1.0838805348356573e-05,1.6601541066105447,-1.0446492899163218e-05
56.322,1.3200132720250455,1.3999368549804778,-0.19994997551173377,1.7200277914192306,-2.2594500261874373e-06,1.6599120125521525,4.552705865634721e-06
56.332,1.3199919020783204,1.3999566402123822,-0.19996956175230451,1.7199212552898686,-5.475020268264075e-07,1.6600126125424248,-1.7776155027959817e-06
56.342,1.3200022038074035,1.399969822304068,-0.19996058903665315,1.7198526154390663,4.6192047307158646e-06,1.660048915195877,-2.937753186493808e-06
56.352,1.3200008005726813,1.3999575985047805,-0.19996023771709392,1.719955473963985,1.6839476035812595e-06,1.659976616439562,2.933822817574594e-06
56.362,1.3200052226357304,1.39996794624268,-0.19996595660427108,1.7199032185642924,8.990426598742829e-07,1.6600066191667064,-1.0700865404444926e-05
56.372,1.3200108792972918,1.4000076762352114,-0.19997439201813982,1.7199567466923824,7.394229148083298e-06,1.65992868303353,-2.3136153056491082e-05
56.382,1.3199971718432693,1.3998328569006366,-0.1999263523303112,1.7202878718754597,-2.464375877142544e-05,1.6597853459577347,5.3848558108526845e-05
56.392,1.3199451055247327,1.4000056167041786,-0.20000044839045383,1.719721727214548,1.0977381879939685e-05,1.660184325230718,-1.6874584174431106e-06
56.402,1.3200249760052696,1.3999311249262911,-0.19993697402987554,1.7200333183615548,2.8132665841340554e-06,1.6598804815296884,3.0570711233579573e-06
56.412,1.3199970915796957,1.3999645804089438,-0.19997240176623787,1.7198838626254034,2.2465483127120933e-06,1.6600373246807054,-8.560903469678749e-06
56.422,1.3200055949469656,1.3999469520293992,-0.1999578717071806,1.7198968774040608,-1.348968511116766e-06,1.6600176723928897,-4.628718860644199e-06
56.432,1.3199947612972665,1.3999621733332024,-0.1999600207769916,1.7199270151168768,3.882095797713703e-06,1.6599978516819087,8.907910607369729e-06
56.442,1.32000146223535,1.3999464786858686,-0.19996101094731156,1.719989427103373,-3.2899816497788947e-06,1.6599405468304562,-1.4815895088560183e-06
56.452,1.3199957486966465,1.399972310631643,-0.19996708486810721,1.719920645920718,3.1915940983395785e-06,1.660012358778424,-2.2028282016250955e-06
56.462,1.320003096016344,1.3999700394705998,-0.1999627941951836,1.719963107545487,2.1133237355641654e-06,1.6599866075306435,1.3171515789167643e-07
56.472,1.319997723055443,1.3999860043062178,-0.19997149241830758,1.7199575955808335,1.857401929150626e-06,1.6600093917662742,-3.5732973602264906e-06
56.482,1.3200011262162885,1.3999819999539032,-0.19996998401339106,1.7199915107103365,7.718592582861561e-07,1.6600022311116174,3.0574755083279115e-07
56.492,1.319998895592299,1.3999949402946328,-0.19997712346930818,1.7199552693935782,1.8979031226606935e-06,1.6600418675031632,-1.2951075882838836e-06
56.502,1.320000995396157,1.399989777513123,-0.19997762657184026,1.7199946372749864,-5.450166229437059e-07,1.660005485649541,-1.0110496440063343e-07
56.512,1.319999729228618,1.3999894778105109,-0.19998317514229846,1.7199851314396923,1.2299538845184088e-06,1.6600134380737375,4.730165281685572e-07
56.522,1.3200001584709389,1.399988252335131,-0.19998724512264943,1.7199595675254873,1.7927107025528244e-06,1.6600271764402335,-4.3913048841659474e-07
56.532,1.3200012198204938,1.3999824113239772,-0.19998882406042018,1.7199800466276223,7.917902546950017e-07,1.6599954823787133,6.558581020499332e-07
56.542,1.3200004787693445,1.3999794131453465,-0.19999365181856366,1.7199758741097302,1.801700673098594e-06,1.659993397881646,5.31224361388638e-07
56.552,1.3200006116532172,1.399980250750808,-0.19999677488223888,1.7199467017004473,2.491478232613531e-06,1.6600139031125742,1.9260135530885236e-07
56.562,1.3200018215744151,1.399976184038315,-0.19999714150621095,1.7199738733256034,1.0079138110796748e-06,1.6599847120591171,1.0908647505303293e-06
56.572,1.3200006632475754,1.3999775437422057,-0.2000009565319214,1.7199724412331303,2.0183000204454515e-06,1.6599901392874123,7.971600650691357e-07
56.582,1.3200008961836556,1.3999813445524705,-0.2000021662250937,1.719948702302199,2.5086973982624272e-06,1.6600154327747125,7.447898520140939e-07
56.592,1.320001855941186,1.3999797126318168,-0.20000113125260377,1.7199782536281774,8.230653669727417e-07,1.6599910181845052,1.426117390401771e-06
56.602,1.3200006490811216,1.399982057373765,-0.20000312012949006,1.7199785772788871,1.7250552106773398e-06,1.659997816220529,1.0769317242420584e-06
56.612,1.3200008083059664,1.399985723247294,-0.20000258366784873,1.7199542570502224,2.223968093240103e-06,1.6600229164281197,9.460622312218447e-07
56.622,1.3200017067837777,1.399982814309367,-0.19999994145368305,1.7199824152808816,5.935053408734348e-07,1.6599963612328077,1.3713628783662557e-06
56.632,1.320000468207855,1.3999835281345057,-0.20000036865121373,1.719980456405299,1.562899003992868e-06,1.6600003771430334,8.759901000132686e-07
56.642,1.3200006072622896,1.3999855451678718,-0.19999848699093548,1.7199540217272613,2.1918904771212055e-06,1.6600225573159442,5.869561752191998e-07
56.652,1.320001469508786,1.3999813648136117,-0.19999476516676662,1.7199804964174952,6.473181324295751e-07,1.6599938709018875,8.40398861612357e-07
56.662,1.3200002181691515,1.3999814079600172,-0.1999943309931531,1.719977696773281,1.6966267448736971e-06,1.6599967367475328,2.817543141020451e-07
56.672,1.3200003336496557,1.3999834138747298,-0.19999189930229644,1.719951203167632,2.3381931741894846e-06,1.6600188655425931,-1.4078224808145023e-07
56.682,1.3200011689594762,1.3999796989718192,-0.19998789251087334,1.719978313356327,7.371502093178606e-07,1.6599909865212448,2.082475889508828e-07
56.692,1.3199999336585426,1.3999805078494036,-0.19998740971522722,1.7199765059420251,1.754027047162765e-06,1.6599951753814643,-3.2430725038778974e-07
56.702,1.3200000339048206,1.3999833347422372,-0.1999852501509256,1.7199510805732174,2.3267141093796795e-06,1.660018695513874,-6.092290076864515e-07
56.712,1.3200008982686997,1.3999802817561564,-0.19998171513361207,1.7199790608655228,6.851240854643947e-07,1.6599919687341922,-2.659828899354011e-07
56.722,1.3199996784383554,1.3999814810577886,-0.19998193259782315,1.719977771427338,1.6606772339500253e-06,1.6599968349223104,-6.889224488659806e-07
56.732,1.3199998281516612,1.3999843978331237,-0.1999806054861626,1.719952456621268,2.231011118070114e-06,1.6600205071778644,-9.033455476981089e-07
56.742,1.32000074417535,1.399981165181667,-0.19997803266958947,1.7199802097138104,6.210406731099738e-07,1.6599934785532566,-4.829674429274178e-07
56.752,1.319999570063504,1.3999820189623442,-0.199979302405497,1.7199784723845024,1.6040665320460334e-06,1.6599977577745664,-8.498349224339563e-07
56.762,1.3199997790995877,1.3999845412425662,-0.19997904177821724,1.71995263893254,2.209811126085981e-06,1.6600207520014347,-9.814400083740793e-07
56.772,1.3200007498602266,1.3999809604078868,-0.19997754527181044,1.719979943365038,6.283626543535092e-07,1.6599931281867528,-4.918381799612348e-07
56.782,1.3199996234456872,1.399981586996808,-0.19997984969952132,1.7199779115496696,1.635802600929992e-06,1.6599970206699801,-7.898709988296559e-07
56.792,1.3199998763391134,1.3999840319293453,-0.19998054036966373,1.719951973067836,2.255426383435122e-06,1.6600198804469226,-8.460550580124959e-07
56.802,1.3200008818433258,1.399980503122677,-0.19997989154310325,1.7199793532530112,6.643085370683366e-07,1.6599923501538418,-2.945974868495682e-07
56.812,1.3199997797822505,1.3999812774484441,-0.19998290696398424,1.7199775159283597,1.6739603729831742e-06,1.6599964987186695,-5.27077386180963e-07
56.822,1.3200000527717881,1.3999839129465004,-0.1999841617102307,1.7199518208511542,2.282065469039196e-06,1.6600196809368608,-5.39983854963566e-07
56.832,1.3200010721312312,1.3999805553869384,-0.19998390543761158,1.7199794320998514,6.748481675700191e-07,1.6599924518557652,1.0508110204199284e-07
56.842,1.3199999716095538,1.3999814540404376,-0.19998714739403844,1.7199777574265909,1.6784982790341019e-06,1.659996814917089,-1.899657338100269e-07
56.852,1.320000240472896,1.3999841475129449,-0.19998845554120592,1.7199521328543224,2.2815338347470515e-06,1.6600200925984412,-2.0435415759578746e-07
56.862,1.3200012607922469,1.3999807770053332,-0.19998809993354882,1.71997972969573,6.724387864309733e-07,1.659992842559908,3.913204444927487e-07
56.872,1.3200001355033786,1.3999816113745878,-0.19999108536036925,1.7199779742880743,1.6803602447268418e-06,1.6599970991424549,1.6870727392870322e-07
56.882,1.3200003928898774,1.3999842214459317,-0.19999199511529042,1.7199522325256567,2.2903847067823335e-06,1.6600202262019028,1.407350289639453e-07
56.892,1.3200013791244647,1.399980760021414,-0.19999113655112044,1.719979718178303,6.831839449716881e-07,1.6599928248193558,6.01156935786662e-07
56.902,1.3200002431298667,1.3999815309925125,-0.1999935222095912,1.7199778735948215,1.6950129779758072e-06,1.6599969681126208,3.198019999928192e-07
56.912,1.3200004609793767,1.3999841093267253,-0.19999379388966965,1.7199520845596403,2.3039892704801446e-06,1.6600200337795563,2.2949334166355584e-07
56.922,1.3200014187270979,1.3999806439945255,-0.19999225571126367,1.7199795703346332,6.926236331139535e-07,1.6599926293568839,6.707282844686802e-07
56.932,1.320000250157265,1.3999814420439707,-0.19999397429332966,1.719977758219347,1.701514932506143e-06,1.6599968153834723,3.285219074555812e-07
56.942,1.3200004379590515,1.3999840639058876,-0.19999359453515808,1.719952020095164,2.306622682191062e-06,1.6600199510440925,1.9336473400244358e-07
56.952,1.3200013707373532,1.3999806396005576,-0.1999914474126694,1.7199795646023208,6.909615111183598e-07,1.6599926205634405,5.831472291717432e-07
56.962,1.3200001776528794,1.399981474509036,-0.19999262745800905,1.7199777983605635,1.6937811713191309e-06,1.6599968674335264,2.0578438242324637e-07
56.972,1.3200003437383465,1.3999841202833707,-0.1999917891210341,1.7199520858762813,2.295440701516327e-06,1.6600200392254978,-1.1342185501916902e-07
56.982,1.3200012699593042,1.3999806984624632,-0.1999892510755128,1.7199796380591934,6.818989239931739e-07,1.6599927177801828,4.080040376663874e-07
56.992,1.3200000561084568,1.3999815253848666,-0.19999017852857737,1.7199778604604496,1.6798093431802386e-06,1.6599969466724103,-1.0835934549646709e-07
57.002,1.320000219229918,1.3999841540481581,-0.19998915633815173,1.719952122106914,2.283359599175583e-06,1.6600200906144478,-2.3410756089248252e-07
57.012,1.320001143648942,1.3999807097092036,-0.19998657007537535,1.7199796497190576,6.725201266988279e-07,1.6599927301292663,2.2225142615184268e-07
57.022,1.3199999342258062,1.3999815182105566,-0.19998754650368866,1.719977847591048,1.6680625716247732e-06,1.6599969297561268,-2.440614119691986e-07
57.032,1.3200001168680915,1.3999841384259888,-0.19998666557802824,1.7199520912037514,2.2748487698009967e-06,1.6600200528204638,-4.0172476278854674e-07
57.042,1.3200010458472953,1.3999806863607063,-0.19998432756454054,1.7199796160726457,6.647236698853476e-07,1.659992684138028,8.877862711642592e-08
57.052,1.3199998561903055,1.399981495902641,-0.1999855840299274,1.7199778173670879,1.664648811683378e-06,1.659996891140783,-3.7561723509327294e-07
57.062,1.3200000495564135,1.3999841270716047,-0.19998506106875524,1.7199520694208097,2.273358410853632e-06,1.6600200252452106,-5.063506582914101e-07
57.072,1.3200010016295378,1.3999806815168538,-0.19998311656232381,1.7199796087315846,6.609709739535674e-07,1.659992673446701,-1.0642212799893969e-07
57.082,1.3199998342998285,1.399981499938363,-0.1999847866917932,1.7199778216015496,1.6606580039990604e-06,1.6599968968837162,-4.208537065508722e-07
57.092,1.3200000398470904,1.3999841393355101,-0.1999846955270943,1.7199520806808657,2.269370877883148e-06,1.660020041419262,-5.292153204550232e-07
57.102,1.3200010126976425,1.3999806920284836,-0.19998315076593887,1.7199796260006082,6.616480314747264e-07,1.6599926953443482,-9.606506878867549e-08
57.112,1.3199998614047947,1.399981510156902,-0.19998520502024242,1.7199778376765664,1.663437855015104e-06,1.6599969173498783,-3.686898653043613e-07
57.122,1.3200000899361468,1.3999841498887182,-0.19998546568284947,1.7199520896165215,2.2704432725006995e-06,1.6600200561253162,-4.613790700602749e-07
57.132,1.3200010622097151,1.3999806922077234,-0.19998423085848138,1.7199796324526986,6.630945552643652e-07,1.6599927014557077,9.741448625533167e-08
57.142,1.3199999257678527,1.399981505828202,-0.19998652137220052,1.719977837344409,1.6694787543514167e-06,1.6599969167039728,-2.6641380479475174e-07
57.152,1.320000152495112,1.3999841439534197,-0.19998695820102874,1.7199520833169615,2.279636897029036e-06,1.6600200483145562,-3.349058692592166e-07
57.162,1.3200011406495902,1.3999806823922905,-0.19998581996468534,1.7199796246625922,6.707831676777687e-07,1.6599926910392586,2.1572833563965332e-07
57.172,1.3200000009287827,1.3999814974895797,-0.19998818552561382,1.7199778295479398,1.6719797804043424e-06,1.6599969046903515,-1.5793716645617906e-07
57.182,1.3200002260486086,1.3999841379503408,-0.1999886037598113,1.7199520752174884,2.284928892315463e-06,1.6600200411868045,-2.2237528973789722e-07
57.192,1.3200012194271453,1.3999806773625902,-0.19998738361516555,1.7199796211962308,6.779203429729819e-07,1.6599926865790424,3.286099046206914e-07
57.202,1.3200000596995851,1.3999814943238444,-0.1999896298937749,1.7199778296830281,1.6783147609444882e-06,1.6599969030728206,-1.0611526590764697e-07
57.212,1.3200002866496945,1.3999841403955102,-0.19998988068670354,1.7199520752264945,2.2890155877419716e-06,1.6600200435840007,-1.661868509472697e-07
57.222,1.3200012579662594,1.3999806766301663,-0.1999884618117891,1.719979625843692,6.777650103373389e-07,1.6599926905985214,3.64591731916164e-07
57.232,1.3200000900741236,1.3999814937864246,-0.1999904401549628,1.7199778341427514,1.6862115526095067e-06,1.65999690914341,1.0970776997965004e-07
57.242,1.3200003016256332,1.399984143736078,-0.19999043286501372,1.7199520773163677,2.2937604313710835e-06,1.6600200470530417,-1.4375080326090028e-07
57.252,1.3200012654589095,1.3999806767938212,-0.19998874343588824,1.7199796281545368,6.783565211776477e-07,1.6599926927526223,3.8150638115297397e-07
57.262,1.320000086681322,1.399981494072466,-0.19999046698851064,1.7199778348640749,1.6828979667593558e-06,1.6599969096576377,1.0774936676227753e-07
57.272,1.3200002864060663,1.3999841461906817,-0.19999021982449605,1.7199520750826665,2.290231332580106e-06,1.660020046003945,-1.656476174005661e-07
57.282,1.320001229558276,1.3999806737633822,-0.19998830457731742,1.7199796285982494,6.788653141853729e-07,1.6599926906934073,3.446074980928415e-07
57.292,1.3200000622012888,1.399981493954149,-0.19998981569833063,1.7199778330092474,1.6839056646844597e-06,1.6599969087509354,-1.0611698098017541e-07
57.302,1.3200002475802375,1.3999841496399101,-0.19998941883188248,1.7199520721418438,2.2865092041968182e-06,1.6600200436186334,-2.109048393705848e-07
57.312,1.320001191853449,1.399980673423368,-0.19998736714705512,1.7199796280597273,6.746308223171127e-07,1.6599926899446098,2.9558074565727566e-07
57.322,1.3200000171521191,1.3999814957984205,-0.19998881374357413,1.7199778335011082,1.6764786430201184e-06,1.6599969082076473,-1.3195546522126733e-07
57.332,1.3200001949362195,1.399984153429859,-0.19998838618618642,1.7199520714831245,2.281129421355388e-06,1.6600200444370747,-2.724804701870198e-07
57.342,1.320001147091098,1.3999806753830342,-0.19998635219683525,1.719979629827197,6.702678927439365e-07,1.6599926909167362,2.1242520897857275e-07
57.352,1.3199999620674152,1.39998149521141,-0.1999878408479372,1.7199778361318199,1.6742480415388172e-06,1.6599969105398227,-1.9227712577674083e-07
57.362,1.320000156075264,1.3999841562464495,-0.199987459822891,1.7199520712098675,2.2836601676345936e-06,1.6600200464407147,-3.1295106950324225e-07
57.372,1.3200011160239926,1.3999806778780268,-0.1999855413344429,1.7199796306035253,6.672544596852958e-07,1.6599926905119435,1.6954782910971744e-07
57.382,1.3199999404017069,1.3999814968528304,-0.19998716556764862,1.7199778361545839,1.6672032607800702e-06,1.6599969109837724,-2.3428291484606234e-07
57.392,1.3200001346973949,1.3999841587252115,-0.1999869418949638,1.7199520700017707,2.277939080030933e-06,1.6600200466835338,-3.5514796881130906e-07
57.402,1.3200011027714567,1.3999806768635743,-0.19998517508706115,1.7199796312052413,6.673792611877616e-07,1.6599926901757485,1.4742164733405616e-07
57.412,1.319999934745586,1.3999814960370305,-0.19998696142213923,1.7199778363933191,1.6694960116581115e-06,1.6599969105771963,-2.460581915997295e-07
57.422,1.3200001349440722,1.3999841598818943,-0.19998689904258704,1.719952068340504,2.2793846232715964e-06,1.6600200464572712,-3.5642519158329833e-07
57.432,1.3200011116875423,1.3999806751677157,-0.1999852800732782,1.719979631512178,6.677127766252511e-07,1.6599926895930572,1.5991873336673734e-07
57.442,1.3199999488850356,1.3999814950086167,-0.199987205616047,1.7199778364794582,1.6696062985488425e-06,1.6599969100710492,-2.20760735025749e-07
57.452,1.320000152903881,1.3999841609632782,-0.19998726557578372,1.7199520668591646,2.2803454262643186e-06,1.6600200461850534,-3.191939077495931e-07
57.462,1.320001136034807,1.3999806732866134,-0.19998574592892115,1.719979632146444,6.692049421275215e-07,1.6599926894869768,2.0312728388205414e-07
57.472,1.319999975206664,1.3999814944147468,-0.19998777591592365,1.7199778370894272,1.6684164174662897e-06,1.659996909372003,-1.99279127421903e-07
57.482,1.3200001830753383,1.399984161597402,-0.19998788906727505,1.7199520654970186,2.2836998514463858e-06,1.6600200479738705,-2.9666965417618485e-07
57.492,1.32000116435061,1.3999806705734654,-0.1999863897180596,1.7199796333202535,6.740235916069537e-07,1.6599926893504557,2.366709974666037e-07
57.502,1.3200000061841797,1.399981492572862,-0.19998840310114563,1.7199778371960193,1.675110158139148e-06,1.659996909769382,-1.5471997549809657e-07
57.512,1.3200002097470538,1.3999841626439622,-0.19998849350300496,1.7199520640068702,2.2860648698497243e-06,1.6600200471219528,-2.421493512372308e-07
57.522,1.3200011879940954,1.3999806687355418,-0.19998695415135348,1.7199796335799746,6.728653172416443e-07,1.6599926884157012,2.8571106192032403e-07
57.532,1.3200000290183294,1.399981491136355,-0.19998890255474144,1.7199778372806946,1.6750774118889922e-06,1.6599969097309,-1.221555958608178e-07
57.542,1.320000226745254,1.3999841640745165,-0.19998891902612215,1.7199520624912772,2.2878048211438795e-06,1.6600200467466157,-2.0384540100337745e-07
57.552,1.3200012009182878,1.399980667056786,-0.1999872937121907,1.7199796343589853,6.743416909316124e-07,1.6599926880628342,3.187716250963035e-07
57.562,1.3200000384251434,1.39998149098468,-0.1999891649937613,1.7199778378059989,1.674781781701995e-06,1.6599969090561029,-1.1932098686884274e-07
57.572,1.3200002326579643,1.399984165087175,-0.1999890718072681,1.7199520611874988,2.289518855391748e-06,1.6600200479610665,-1.9956365893136763e-07
57.582,1.3200011951738597,1.3999806660081822,-0.19998735914651533,1.7199796359587438,6.745108427352875e-07,1.6599926869536459,3.113913367158716e-07
57.592,1.3200000354657568,1.399981489377235,-0.19998910920212953,1.7199778379311859,1.6772677300380678e-06,1.6599969110672559,-1.171718775339059e-07
57.602,1.320000225092051,1.3999841680589977,-0.19998893525131933,1.7199520600773894,2.2892203235258535e-06,1.660020047172078,-2.020587919204786e-07
57.612,1.3200011907831657,1.3999806664380765,-0.19998714075660118,1.719979635594644,6.72036398974285e-07,1.6599926872224113,2.958586238221983e-07
57.622,1.3200000205559714,1.3999814890672484,-0.199988833716791,1.7199778389865497,1.673612757713272e-06,1.6599969109312243,-1.2836564611262702e-07
57.632,1.3200002075984507,1.399984170695184,-0.19998861564433223,1.7199520587208426,2.28701050719593e-06,1.6600200473969222,-2.341157827601137e-07
57.642,1.3200011751774232,1.3999806658872203,-0.19998677956936373,1.7199796365409288,6.72174808258319e-07,1.6599926875449444,2.6018308929565137e-07
57.652,1.3200000024667888,1.3999814890149729,-0.19998845278127497,1.7199778396377443,1.6735957011349e-06,1.659996911291521,-1.5476542447601105e-07
57.662,1.3200001895915934,1.3999841732272005,-0.1999882298385618,1.7199520575787446,2.2858947321680034e-06,1.6600200476466753,-2.720326550686991e-07
57.672,1.3200011588885996,1.3999806655383775,-0.1999863990103865,1.719979637228512,6.707040292042166e-07,1.6599926875858797,2.2386822795539274e-07
57.682,1.3199999867755379,1.399981489101794,-0.1999880944465522,1.7199778401172026,1.6716192314802925e-06,1.6599969113138577,-1.8351326325216633e-07
57.692,1.3200001756274835,1.399984175684522,-0.1999879056826801,1.7199520562642139,2.2846352054628483e-06,1.6600200478480485,-3.0357433100647313e-07
57.702,1.3200011473366065,1.399980664903251,-0.19998611674949096,1.719979637960618,6.699928460918159e-07,1.6599926874818642,1.976020804761447e-07
57.712,1.3199999673335112,1.3999814868612406,-0.19998785420553844,1.7199778414668572,1.6726903018238204e-06,1.659996911860138,-1.8778991428547442e-07
57.722,1.3200001701883552,1.3999841788149885,-0.1999877244798718,1.7199520545944296,2.2845006695249026e-06,1.6600200474068956,-3.0897032932131197e-07
57.732,1.3200011428741414,1.3999806637338486,-0.19998599211886248,1.7199796384027426,6.68388314473134e-07,1.6599926879353086,1.9851984855989713e-07
57.742,1.3199999759046994,1.3999814882589927,-0.19998780450493392,1.7199778412761475,1.669733044273869e-06,1.6599969115985793,-1.9648061932997507e-07
57.752,1.320000176413167,1.3999841802766575,-0.1999877251413995,1.7199520528443752,2.2850919885186727e-06,1.660020048844431,-3.0581473176027885e-07
57.762,1.320001146940669,1.3999806633361151,-0.1999860639955191,1.7199796398184226,6.688451890113356e-07,1.6599926864093488,2.0043662551927355e-07
57.772,1.3199999706715584,1.399981485074834,-0.19998791771831392,1.7199778424045054,1.6719101232354205e-06,1.659996912617756,-1.815133492399923e-07
57.782,1.3200001796981198,1.3999841817603444,-0.19998788663860978,1.7199520522200054,2.2867900995038326e-06,1.6600200478992315,-2.8688951481115055e-07
57.792,1.3200011570323866,1.3999806627117133,-0.1999862639405503,1.71997963952359,6.682648363565136e-07,1.6599926860275689,2.0753590224131813e-07
57.802,1.3199999938921536,1.3999814852682277,-0.1999881405847992,1.7199778420960534,1.6718321704800587e-06,1.65999691291106,-1.7411860397942291e-07
57.812,1.3200001879985228,1.3999841825368362,-0.1999881302480464,1.7199520511192112,2.2875355991658353e-06,1.660020047969108,-2.7498719212815104e-07
57.822,1.3200011691901485,1.3999806608096828,-0.19998650073049262,1.7199796403676118,6.709099507062888e-07,1.6599926859583434,2.3440969521004718e-07
57.832,1.3200000043010158,1.3999814847545426,-0.1999883808369045,1.7199778422942344,1.6726558795809865e-06,1.6599969123979594,-1.567114491507482e-07
57.842,1.3200001969367205,1.399984183723638,-0.19998835940846593,1.7199520498514005,2.2873121201527624e-06,1.6600200479847214,-2.5640063938681124e-07
57.852,1.3200011794453017,1.3999806594638198,-0.1999867064188372,1.7199796409289654,6.712279612131056e-07,1.6599926858885263,2.5597670560983943e-07
57.862,1.3200000119972959,1.3999814842476725,-0.1999885640914103,1.719977842695636,1.673000555868498e-06,1.6599969121865996,-1.4387245439451135e-07
57.872,1.320000202365165,1.3999841851416814,-0.1999885122441576,1.7199520486886186,2.2880945662606678e-06,1.6600200482355971,-2.4316378244293446e-07
57.882,1.320001184623468,1.3999806582699854,-0.19998682306127513,1.7199796416538682,6.7176737417185e-07,1.659992685889879,2.676351531505361e-07
57.892,1.3200000148883886,1.3999814837225628,-0.19998864525518556,1.7199778431588832,1.6731903489386468e-06,1.6599969122451705,-1.3870680959371384e-07
57.902,1.320000203033807,1.3999841868721754,-0.1999885559917045,1.7199520474958625,2.2882490409159573e-06,1.660020048400658,-2.3957418360254223e-07
57.912,1.3200011846680333,1.3999806573687978,-0.19998682875355378,1.7199796423024623,6.716081246693761e-07,1.659992685758274,2.6800890484679485e-07
57.922,1.3200000127772213,1.3999814832310538,-0.19998861652219713,1.719977843607058,1.6728812557431638e-06,1.6599969123343161,-1.4102062184662145e-07
57.932,1.320000199239133,1.3999841887454023,-0.19998849550792208,1.7199520462766262,2.2881795631590762e-06,1.660020048536695,-2.4568584944262284e-07
57.942,1.3200011805854786,1.3999806566232937,-0.1999867393146495,1.7199796429317296,6.712943365627666e-07,1.6599926855964933,2.587602558890012e-07
57.952,1.320000007074869,1.399981482800409,-0.1999885042722589,1.7199778440709093,1.672354280835009e-06,1.6599969124599312,-1.4934694991808328e-07
57.962,1.3200001927163223,1.3999841907392172,-0.19998836576259738,1.7199520450714125,2.2878326264574866e-06,1.6600200487000913,-2.5822863136681917e-07
57.972,1.3200011744001792,1.3999806559969645,-0.19998659655399287,1.7199796435767087,6.707781192716311e-07,1.6599926854462481,2.445539815099096e-07
57.982,1.3200000001278136,1.399981482433338,-0.19998835561254946,1.719977844558933,1.6716702262442595e-06,1.6599969126290262,-1.607863362451667e-07
57.992,1.3200001857449903,1.39998419276331,-0.19998821700157343,1.7199520438964804,2.287439397008484e-06,1.660020048907766,-2.724729624148381e-07
58.002,1.320001168417913,1.3999806553702419,-0.19998645186502806,1.7199796442388529,6.702922892287688e-07,1.6599926853044815,2.3057307707574637e-07
58.012,1.3199999942409715,1.3999814820427918,-0.19998822120135884,1.719977845042731,1.671060562813409e-06,1.6599969128074505,-1.7151578557417224e-07
58.022,1.320000180376904,1.399984194711747,-0.1999880972484247,1.7199520427214647,2.287162296887857e-06,1.660020049103177,-2.83868349271188e-07
58.032,1.3200011645700256,1.3999806546569076,-0.19998634906081758,1.7199796448793165,6.699356669415124e-07,1.659992685126232,2.2092009732688211e-07
58.042,1.3199999909977587,1.399981481553981,-0.19998813928747072,1.7199778454949168,1.6706516996478626e-06,1.6599969129553287,-1.781188609939477e-07
58.052,1.320000177835439,1.3999841965155175,-0.19998803806748633,1.7199520415343095,2.287117928823079e-06,1.6600200492514494,-2.893568433748328e-07
58.062,1.3200011638461966,1.3999806538249242,-0.19998631226918828,1.7199796454886105,6.697835495117488e-07,1.6599926849113071,2.1769741742616588e-07
58.072,1.3199999909232627,1.3999814809458755,-0.19998812610055872,1.719977845923001,1.6705108336623198e-06,1.6599969130784586,-1.789451280487242e-07
58.082,1.320000178298634,1.3999841981740566,-0.1999880476424467,1.7199520403471986,2.2873213643137547e-06,1.6600200493612727,-2.881237390894853e-07
58.092,1.3200011661153361,1.3999806528957945,-0.19998634180921915,1.7199796460789365,6.698194434662241e-07,1.6599926846815043,2.2082206196927245e-07
58.102,1.3199999935288762,1.3999814802461898,-0.1999881745384391,1.7199778463427577,1.6705963368224275e-06,1.659996913194905,-1.745947049158758e-07
58.112,1.320000181024115,1.3999841997283102,-0.19998811213466627,1.7199520391704528,2.287714332638302e-06,1.6600200494537871,-2.816111024372958e-07
58.122,1.320001170331767,1.399980651906672,-0.1999864179815063,1.7199796466618498,6.699851944347301e-07,1.659992684448099,2.283610012199233e-07
58.132,1.3199999976174794,1.3999814795006884,-0.1999882600872489,1.7199778467579279,1.6708128320885862e-06,1.6599969133116579,-1.6736833874375634e-07
58.142,1.3200001847113914,1.3999842012346875,-0.19998820338308487,1.7199520380022388,2.2881951409203793e-06,1.6600200495417674,-2.7269137969909707e-07
58.152,1.320001175022706,1.3999806509017256,-0.19998651018328406,1.7199796472413649,6.701925023833155e-07,1.6599926842113994,2.373601164507022e-07
58.162,1.3200000017344857,1.399981478759499,-0.19998835095263967,1.7199778471691918,1.671038812212089e-06,1.659996913428289,-1.6005553504783165e-07
58.172,1.320000187970071,1.3999842027510851,-0.19998828963961124,1.7199520368408763,2.288650024162564e-06,1.6600200496355653,-2.644591825529119e-07
58.182,1.3200011788240458,1.3999806499290592,-0.19998658784758305,1.719979647821912,6.703530290863569e-07,1.659992683977805,2.448721829750866e-07
58.192,1.3200000046324893,1.399981478065535,-0.1999884187984362,1.7199778475831273,1.6711700023819276e-06,1.6599969135496684,-1.5483881909972297e-07
58.202,1.3200001897558904,1.399984204323192,-0.19998834572467494,1.7199520356903708,2.288987178467039e-06,1.660020049746299,-2.592416086244498e-07
58.212,1.3200011808742058,1.3999806490266407,-0.19998662968068004,1.719979648408085,6.704035948601472e-07,1.6599926837592536,2.4883783567020146e-07
58.222,1.3200000056201544,1.399981477441786,-0.199988446774233,1.7199778480073142,1.671147941806339e-06,1.6599969136809278,-1.5279802401124698e-07
58.232,1.3200001896374554,1.3999842059701404,-0.19998835960380656,1.7199520345537849,2.2891651108025712e-06,1.660020049879182,-2.580809752572577e-07
58.242,1.3200011809754688,1.3999806482051227,-0.19998662862258332,1.7199796490003845,6.703259654017302e-07,1.659992683560473,2.485891990033906e-07
58.252,1.3200000046974223,1.39998147688571,-0.19998843276810163,1.719977848442234,1.670971323974868e-06,1.6599969138207564,-1.5394413654945538e-07
58.262,1.320000187831143,1.399984207681464,-0.1999883339080455,1.7199520334289673,2.2891984485795547e-06,1.6600200500299502,-2.6066098790522574e-07
58.272,1.3200011795362148,1.3999806474467986,-0.19998659168340183,1.7199796495950164,6.701448329593518e-07,1.6599926833752168,2.448682909772515e-07
58.282,1.320000002451824,1.3999814763759701,-0.19998838766774885,1.7199778488818076,1.670683976939813e-06,1.659996913963539,-1.574525461123244e-07
58.292,1.3200001850307377,1.3999842094266173,-0.1999882827801267,1.7199520323118165,2.2891425208726446e-06,1.660020050189834,-2.656081452556691e-07
58.302,1.3200011773558131,1.3999806467183555,-0.1999865355715862,1.7199796501877973,6.699123229481074e-07,1.6599926831936207,2.3937165760656853e-07
58.312,1.3199999997799168,1.3999814758827327,-0.19998832999720229,1.7199778493194948,1.6703550871355333e-06,1.6599969141048057,-1.6195392227302818e-07
58.322,1.320000182119065,1.399984211168082,-0.19998822577333542,1.7199520312000693,2.2890701991684637e-06,1.6600200503505684,-2.7105446687158974e-07
58.332,1.3200011753321412,1.39998064598554,-0.19998648011109843,1.7199796507756009,6.69687661769558e-07,1.659992683008496,2.340484934748588e-07
58.342,1.3199999975578862,1.3999814753764435,-0.19998827911357964,1.719977849751178,1.6700562763816151e-06,1.6599969142420354,-1.6593825424848774e-07
58.352,1.3200001798694263,1.3999842128725346,-0.1999881810894566,1.719952030093019,2.289047359660401e-06,1.6600200505049916,-2.752664238769853e-07
58.362,1.320001174178831,1.399980645223173,-0.1999864417600863,1.7199796513554801,6.695180410076773e-07,1.659992682815881,2.3046084329791938e-07
58.372,1.3199999963794564,1.3999814748356334,-0.199988249228082,1.719977850174704,1.669839647000515e-06,1.6599969143732354,-1.6823154069811608e-07
58.382,1.320000178730421,1.3999842145196881,-0.1999881602957574,1.7199520289902885,2.289113656850361e-06,1.6600200506477076,-2.771468343709671e-07
58.392,1.320001174234541,1.399980644420312,-0.19998642917694465,1.7199796519253265,6.694261447393046e-07,1.6599926826143356,2.293925529528451e-07
58.402,1.3199999964275584,1.3999814742529963,-0.19998824593818565,1.7199778505896628,1.6697240265983737e-06,1.6599969144975724,-1.6835525684655295e-07
58.412,1.320000178744941,1.3999842161072156,-0.1999881658967091,1.7199520278920915,2.2892748736680346e-06,1.6600200507776597,-2.7647962586030417e-07
58.422,1.3200011754145597,1.3999806435808368,-0.19998644185910752,1.7199796524855913,6.694077754332284e-07,1.6599926824051554,2.307524935574179e-07
58.432,1.319999997489326,1.3999814736363696,-0.1999882659225003,1.7199778509976262,1.6696943569982636e-06,1.6599969146165803,-1.666035345238015e-07
58.442,1.3200001796032073,1.3999842176491422,-0.19998819203439755,1.719952026799577,2.289507267327906e-06,1.6600200508989147,-2.738656315059984e-07
58.452,1.3200011773032552,1.3999806427199069,-0.1999864717651576,1.7199796530391787,6.694378935634404e-07,1.659992682191863,2.3374099988870967e-07
58.462,1.319999999082956,1.3999814730037992,-0.1999882993722233,1.719977851401456,1.6697119971098573e-06,1.6599969147333757,-1.6382229350853095e-07
58.472,1.3200001807913333,1.399984219168589,-0.19998822759396973,1.71995202571423,2.2897694194057294e-06,1.6600200510180434,-2.704037820322469e-07
58.482,1.3200011793363062,1.399980641857912,-0.19998650694554154,1.7199796535894905,6.694811034435588e-07,1.659992681978733,2.3719584163472973e-07
58.492,1.320000000642473,1.3999814723757416,-0.1999883339854982,1.7199778518041455,1.6697303371060457e-06,1.6599969148508347,-1.6102654676330985e-07
58.502,1.320000181777588,1.3999842206888884,-0.19998826039512085,1.7199520246371662,2.290017001804756e-06,1.6600200511408767,-2.672669090486579e-07
58.512,1.320001180998096,1.3999806410139062,-0.1999865357711741,1.7199796541388572,6.6950349975059e-07,1.659992681769542,2.399946161801836e-07
58.522,1.3200000016998672,1.3999814717682506,-0.19998835907722423,1.7199778522080624,1.6697102420693e-06,1.659996914970641,-1.590447604726819e-07
58.532,1.320000182175817,1.3999842222265952,-0.19998828103813704,1.7199520235689398,2.2902165266458496e-06,1.6600200512709309,-2.653340649416691e-07
58.542,1.3200011819690518,1.3999806402000958,-0.1999865503923557,1.7199796546882524,6.694827456854568e-07,1.6599926815667354,2.413873163575886e-07
58.552,1.3200000020117608,1.3999814711890846,-0.1999883685462871,1.7199778526144431,1.6696307048036374e-06,1.6599969150932594,-1.5831220956386005e-07
58.562,1.320000181839589,1.3999842237878388,-0.19998828529681134,1.7199520225095526,2.290354020217933e-06,1.6600200514091767,-2.649795627363005e-07
58.572,1.3200011821879931,1.3999806394188985,-0.19998654850337605,1.7199796552375268,6.694132848039658e-07,1.6599926813707135,2.411687187731104e-07
58.582,1.3200000015992082,1.3999814706370062,-0.1999883619831362,1.7199778530230052,1.6694920841331395e-06,1.659996915218084,-1.5882820125767694e-07
58.592,1.320000180868517,1.3999842253682422,-0.19998827456521262,1.7199520214584005,2.290436248664207e-06,1.660020051554274,-2.660460367565065e-07
58.602,1.3200011818277302,1.3999806386634912,-0.19998653315001125,1.719979655785668,6.693054208639637e-07,1.6599926811797188,2.39657462763887e-07
58.612,1.3200000006998076,1.3999814701036533,-0.1999883438814365,1.7199778534321108,1.669312392316158e-06,1.659996915343707,-1.6023326399050575e-07
58.622,1.320000179538603,1.399984226955877,-0.19998825453681413,1.7199520204145013,2.290485277001153e-06,1.6600200517032375,-2.679761132995395e-07
58.632,1.320001181206349,1.399980637921459,-0.1999865109537149,1.7199796563311516,6.691795579882864e-07,1.6599926809907544,2.3751414524042502e-07
58.642,1.3199999996602134,1.399981469577046,-0.19998832149738455,1.719977853839584,1.6691191389028859e-06,1.6599969154684429,-1.6196168850513004e-07
58.652,1.3200001781902309,1.39998422853599,-0.199988232798753,1.7199520193769118,2.2905293013408823e-06,1.6600200518524817,-2.700408838762769e-07
58.662,1.3200011806696317,1.399980637179695,-0.19998648954181686,1.7199796568723862,6.690583376212089e-07,1.6599926808009329,2.3548265204453855e-07
58.672,1.3199999988127962,1.3999814690456178,-0.19998830221834218,1.7199778542436057,1.668939704657646e-06,1.6599969155908818,-1.634317472465341e-07
58.682,1.3200001771149,1.399984230095865,-0.1999882162394373,1.719952018345051,2.2905931222894083e-06,1.660020051998936,-2.715849340972909e-07
58.692,1.3200016137373733,1.3999795825360764,-0.19998571441348378,1.719976606522664,5.642815308348759e-07,1.6599965343551464,5.080847014227174e-07
58.702,1.3200015494007893,1.3999718031103576,-0.19998489821180243,1.719970877575566,5.735055870204064e-07,1.660005876119091,1.814605283811943e-06
58.712,1.3200013640126604,1.3999707184322325,-0.19998516124993593,1.7199404663817344,1.316517380445248e-06,1.6600213086374103,2.761161805864276e-07
58.722,1.320002392030081,1.3999645788869692,-0.19998181324946263,1.7199610119843403,7.06033128849981e-07,1.659985746188327,1.1169072218208953e-06
58.732,1.3200016435246429,1.3999597934474846,-0.1999817083841977,1.7199548159599267,1.3983888802471256e-06,1.6599849044021333,1.0101930971728734e-06
58.742,1.3200015359596735,1.3999597312174021,-0.19998074316021164,1.7199254974198723,1.7354262205060422e-06,1.6600047649501022,-1.5751651805118172e-07
58.752,1.3200026139511918,1.3999561000372935,-0.19997692130366396,1.719952027447853,5.579224593432741e-07,1.6599751519410582,7.238114454466427e-07
58.762,1.3200013737245504,1.39995738323538,-0.1999770566257899,1.719950958745013,1.4779568013878475e-06,1.6599809828145284,3.6492303134849635e-07
58.772,1.320001361757856,1.3999614293161589,-0.19997558428063833,1.7199274007796905,1.854095191156091e-06,1.6600073596336857,-2.41985754989571e-07
58.782,1.3200023245313632,1.3999601651699907,-0.19997204286639114,1.7199576008060014,4.2452291459937896e-07,1.6599834768079997,4.6209723869594654e-07
58.792,1.3200010329472391,1.3999629938014442,-0.1999724183682714,1.719958245033915,1.0642318271081308e-06,1.6599909781521145,1.3832302503402616e-07
58.802,1.3200011067873465,1.399966971758393,-0.19997105867061826,1.7199340854140317,1.593737465555023e-06,1.660016683174355,-1.8965492998290756e-07
58.812,1.320002076572754,1.3999639685206668,-0.1999681403381146,1.7199624048429314,-4.331718379546601e-07,1.6599903717225644,3.229605853860562e-07
58.822,1.3200008240730705,1.399964697665915,-0.19996913116454618,1.7199602668861989,1.1102589319023082e-06,1.6599943973713325,-2.000811338831454e-07
58.832,1.320001009904451,1.3999667355178103,-0.1999683348690393,1.719933382571277,1.6580924713238687e-06,1.6600164714832149,-3.415684943774977e-07
58.842,1.3200020256758558,1.3999621823829225,-0.19996619155436068,1.7199596113293296,-4.387461691734984e-07,1.6599875518822298,1.411012808816281e-07
58.852,1.3200008404046981,1.3999621007641467,-0.19996790784519813,1.7199563976307584,1.147993534900138e-06,1.6599902551750079,-3.162061608108502e-07
58.862,1.3200010333787384,1.3999641496089499,-0.19996796334909384,1.7199294445469455,1.8565867723197016e-06,1.6600123238564546,-4.536673872124197e-07
58.872,1.32000205959147,1.3999601785215523,-0.19996661768752588,1.7199564336196254,4.342561412684631e-07,1.6599845019279957,8.712077814720942e-08
58.882,1.3200008984382237,1.3999610465121686,-0.19996900767788972,1.7199544238696216,1.2559541060497281e-06,1.6599889088113846,-2.825634890513129e-07
58.892,1.3200011035602595,1.3999641411471888,-0.1999696752161606,1.719928737756975,1.847924465003814e-06,1.6600127369498265,-3.027753923134924e-07
58.902,1.3200021436086882,1.3999610039030639,-0.19996885090833327,1.719956749178488,4.2608162065249644e-07,1.6599863661694796,2.6851368062352776e-07
58.912,1.3200009834461524,1.3999623375530073,-0.19997167365911128,1.719955324205504,1.2266982247766123e-06,1.6599916600807338,1.0484971468827098e-07
58.922,1.3200011874131254,1.3999655332280714,-0.19997267932083673,1.7199297203262276,1.8519981264120133e-06,1.6600157075796877,-1.1853211745460612e-07
58.932,1.3200022435932208,1.3999621780583036,-0.19997200514643776,1.7199573868389706,4.3160179430401513e-07,1.659988994000292,5.048253148842718e-07
58.942,1.3200010823628077,1.3999630887887857,-0.19997486430229827,1.7199553526592837,1.2905253692352403e-06,1.6599935949913398,2.6182584189626823e-07
58.952,1.3200012900013363,1.3999658018395422,-0.19997575664732903,1.7199290571708463,1.9524463086284527e-06,1.6600168474146892,2.1936917704579173e-07
58.962,1.3200023355287973,1.39996202746232,-0.19997489018485215,1.719956124399996,4.798949539974728e-07,1.6599894444225658,7.045607590683289e-07
58.972,1.3200011655841637,1.3999626712601723,-0.19997746872113797,1.71995368477695,1.4542085571278562e-06,1.6599936192155456,4.123981263148835e-07
58.982,1.3200013553529084,1.3999652993407894,-0.19997800895010975,1.7199272239975727,2.140143411821782e-06,1.6600167598281121,3.2350757450672063e-07
58.992,1.3200023770993328,1.3999616024395314,-0.19997672907012554,1.7199543469331768,5.976884605018995e-07,1.6599895258131667,7.843284697273134e-07
59.002,1.320001180916802,1.3999624417661103,-0.19997885351398192,1.7199521100580348,1.6264193094528423e-06,1.6599940645894362,4.597388540972247e-07
59.012,1.3200013432500581,1.3999653124473461,-0.1999789177975746,1.719925912659125,2.294273880210085e-06,1.6600176483566829,3.403117805333977e-07
59.022,1.320002339121702,1.399961835863821,-0.19997715727348186,1.719953280148598,7.02637693805741e-07,1.6599908254307696,7.719840500186592e-07
59.032,1.320001117307359,1.3999628337111334,-0.19997881759135527,1.7199512038763736,1.749782200910488e-06,1.659995664241558,4.157994508702245e-07
59.042,1.3200012577781441,1.3999657774223389,-0.19997844682814225,1.7199250553907284,2.4168466961072e-06,1.6600193985159661,2.672821244331658e-07
59.052,1.32000223700146,1.3999622863034293,-0.19997629508909576,1.719952366653839,8.094771990485583e-07,1.6599925811879306,6.611141456502878e-07
59.062,1.3200010001586735,1.3999632103541275,-0.19997762394622498,1.7199501537281137,1.8837643036562213e-06,1.659997317388533,2.7945774583315597e-07
59.072,1.3200011303686523,1.3999660506061353,-0.19997698577302891,1.7199238292697068,2.5625386763650226e-06,1.6600208941384675,1.3391997644163212e-07
59.082,1.320002106206342,1.3999624535115638,-0.19997464159471257,1.7199509708511282,9.49624570978358e-07,1.6599939191553768,4.688607857517013e-07
59.092,1.3200008604161662,1.3999632984501558,-0.19997583913918948,1.7199486235657169,2.0577633526031036e-06,1.6599985420673011,1.2775471436299313e-07
59.102,1.320000995713185,1.399966097521454,-0.19997517809335807,1.719922219996123,2.7052203614985615e-06,1.660022071166174,-1.7913828020965639e-07
59.112,1.320001966716072,1.3999625004152678,-0.19997282645573655,1.7199493323817663,1.0278994171386557e-06,1.6599951203414571,3.1318022220006014e-07
59.122,1.320000757307687,1.3999633899037978,-0.19997411537797571,1.7199470074331664,2.094222006476798e-06,1.659999802342357,-1.244802048105953e-07
59.132,1.3200008707321746,1.3999662446648902,-0.19997365004477352,1.7199206450596911,2.762763894992304e-06,1.6600234471269841,-3.1352156071307036e-07
59.142,1.320001853593146,1.399962692715837,-0.19997151425884763,1.7199478243145805,1.139693261542618e-06,1.659996602477614,1.970843213072726e-07
59.152,1.3200006439772913,1.399963625381945,-0.19997306246119173,1.7199455363810845,2.240744553461127e-06,1.6600013821599475,-2.085408166152547e-07
59.162,1.3200007772463742,1.399966510919052,-0.19997286588497953,1.7199191988003726,2.9400026768655607e-06,1.660025072619077,-3.7995279011937555e-07
59.172,1.3200017765597138,1.3999629634228583,-0.19997105713700325,1.719946373456093,1.3115653345607825e-06,1.6599982483281748,1.2798251614043465e-07
59.182,1.3200005769605383,1.3999638800911205,-0.1999729153191847,1.7199440652647962,2.4163441771918315e-06,1.6600030153568879,-2.68385804247373e-07
59.192,1.3200007297659564,1.3999667478289863,-0.19997299511086464,1.7199176900144195,3.114698447603814e-06,1.6600266683881335,-3.991139925219045e-07
59.202,1.3200017399939474,1.3999631742811252,-0.19997147006962646,1.719944830247151,1.477051074338931e-06,1.6599997969296831,1.2453643627452493e-07
59.212,1.3200005499060747,1.3999640654118828,-0.1999735800651843,1.7199424937080678,2.5892824524476055e-06,1.6600045275032587,-2.561868805983636e-07
59.222,1.320000713412651,1.3999669194665483,-0.19997387037826808,1.719916102092487,3.2919477375159545e-06,1.66002815232161,-3.637695806801844e-07
59.232,1.3200017313608097,1.3999633396097915,-0.19997252262315968,1.7199432432381094,1.6493595804689676e-06,1.6600012653794423,1.6251432732872217e-07
59.242,1.320000545050628,1.3999642329192694,-0.19997476241938372,1.7199409206775549,2.763365572810983e-06,1.6600059958504128,-2.0215451002059126e-07
59.252,1.3200007227987305,1.3999670992172382,-0.19997513736944317,1.7199145508433027,3.462604555970472e-06,1.6600296281492328,-3.071583414282486e-07
59.262,1.3200017254828982,1.399963526749346,-0.19997384866050716,1.7199417245703454,1.8102765562133527e-06,1.6600027468651284,2.010136697094822e-07
59.272,1.3200005468856038,1.3999644292105842,-0.19997607255112015,1.7199394317488164,2.9279444015983813e-06,1.6600074843735664,-1.6913852984856703e-07
59.282,1.3200007120780723,1.3999673020492835,-0.19997638792201045,1.719913090125539,3.6279211101941655e-06,1.6600311116651874,-2.6232615990551267e-07
59.292,1.3200017204580279,1.3999637300434111,-0.19997498718489037,1.719940288449834,1.969740096363637e-06,1.6600042162530597,2.5155059013570735e-07
59.302,1.3200005338815979,1.3999646294618318,-0.19997708700439,1.719938017124484,3.081026995310765e-06,1.6600089289865538,-1.3722776692759453e-07
59.312,1.3200006906172117,1.3999674965230362,-0.19997725079406692,1.7199116932148595,3.7759799642600456e-06,1.660032525091407,-2.3666067860972362e-07
59.322,1.3200016944980373,1.3999639134369453,-0.1999756739476961,1.7199389123033022,2.1149106208540047e-06,1.660005592942225,2.669863716775467e-07
59.332,1.320000499282446,1.3999648040600308,-0.19997759363169543,1.7199366623904808,3.2259276210311327e-06,1.660010267486565,-1.397516280476907e-07
59.342,1.3200006484661584,1.3999676645075434,-0.19997757078952727,1.7199103626651322,3.918064153118905e-06,1.6600338261553818,-2.5762484767710703e-07
59.352,1.3200016464744238,1.39996407325964,-0.19997580674424942,1.7199376130188284,2.251009198595e-06,1.6600068576310942,2.2971236823821073e-07
59.362,1.3200004437772694,1.399964960168127,-0.19997755114921834,1.7199353975864327,3.3579902734004463e-06,1.6600114977164777,-1.823667616918101e-07
59.372,1.3200005770733423,1.3999678178877542,-0.19997736304826041,1.7199091360140937,4.0459328474184986e-06,1.6600350229468885,-3.130829577813188e-07
59.382,1.3200015879832652,1.3999642244665988,-0.19997543235563064,1.7199364275259512,2.3756452298684394e-06,1.6600080229712288,1.819033972338957e-07
59.392,1.3200003719939595,1.3999651097717942,-0.19997706514963376,1.7199342560733744,3.4753254753994156e-06,1.6600126268525575,-2.3316105313142543e-07
59.402,1.3200005129966552,1.3999679672279974,-0.19997679080389474,1.7199080361647905,4.1560920029937165e-06,1.6600361169985973,-3.866581623768184e-07
59.412,1.3200015136528211,1.3999643661102876,-0.1999748149178071,1.7199353745266492,2.480266205751036e-06,1.660009076612976,1.0845779918611242e-07
59.422,1.320000301183005,1.39996524602092,-0.19997641347881068,1.7199332461641124,3.5808663030323373e-06,1.6600136393762392,-3.22334625657561e-07
59.432,1.3200004470918012,1.3999680993830133,-0.1999761338252446,1.7199070686541411,4.258684421110104e-06,1.6600370840875245,-4.776120432481434e-07
59.442,1.3200089203272158,1.3999791308597551,-0.20003563337023333,1.7213853561923838,-1.2409586162220876e-05,1.658586361917905,-6.089120008478943e-05
59.452,1.3199036391638588,1.4003737902383886,-0.20003396543440388,1.719232376994123,8.743785319786923e-05,1.6610948000030934,6.609447479544173e-05
59.462,1.3200991774413504,1.3998803970308522,-0.1999477594946999,1.7202589488926918,-6.975676360809757e-05,1.660385609086375,1.718876696354954e-05
59.472,1.3199735732813362,1.40027816131209,-0.20017319550912305,1.7202633018116167,1.4347287944360687e-06,1.659863758035475,-0.000141179931572033
59.482,1.3200050949323971,1.400041650018533,-0.19992675211218813,1.7200080093571444,2.171303924125567e-05,1.6602879853982921,0.00016720276825044067
59.492,1.3200120938592272,1.3999442965616486,-0.20008877255342128,1.7200679954906697,-2.5927325125074674e-05,1.659999348853951,-4.5140958020439825e-05
59.502,1.319989165524147,1.39996239976076,-0.20008660247644094,1.7199567518489047,4.889710111477541e-06,1.65994705626479,-3.018037461011147e-05
59.512,1.3200177743007808,1.3999307240821617,-0.2000153809052021,1.7198503798655338,2.7115348704143116e-05,1.659892024906516,5.613836441664688e-05
59.522,1.3199942014701902,1.3998826969128269,-0.20008075413336623,1.7198304774564992,7.065942488893029e-07,1.6599352022028357,-1.8998380473256304e-05
59.532,1.3200068989367262,1.3998930282258444,-0.2000519052045444,1.7198232996098763,3.9097559376699564e-06,1.6599128827467542,-7.905503442096062e-06
59.542,1.3200063305409717,1.3999205540823034,-0.20003159884258714,1.7199691081739061,1.1828475177999564e-05,1.659834266629602,2.2998040564381483e-05
59.552,1.3199934440477818,1.399921792550706,-0.20003817564539794,1.7199213870515067,5.105541651673207e-07,1.6599927015820644,6.983865302068182e-06
59.562,1.3200053418536077,1.3999605826803592,-0.2000256718608151,1.719980610263292,3.9977160870563466e-07,1.6599709414085062,-5.731718738744007e-06
59.572,1.3200026389358825,1.4000152882109136,-0.2000083196107436,1.7198306505108256,1.1192088428479963e-05,1.660162007849734,8.07352091491964e-06
59.582,1.320003576907319,1.3999882237864885,-0.20000114576371608,1.7200327797773713,-2.161136690048693e-06,1.6600191044653316,-8.403475337814825e-07
59.592,1.3199964396751787,1.3999874340126413,-0.19998884226620905,1.7200396364126558,-1.8408674176129125e-06,1.6600258217394632,2.660738343429614e-06
59.602,1.3199980711428045,1.399983482094986,-0.19997070451643673,1.7200204247899897,1.5737196479292948e-06,1.6600123811122955,6.562129597931232e-06
59.612,1.3199998388489735,1.3999849879183772,-0.19996189479644322,1.7198807950079917,3.802378465422862e-06,1.660097167579477,-2.328811468110814e-06
59.622,1.3199925779550234,1.3999507490909604,-0.19995374838304603,1.7200592408239004,9.900405357754494e-07,1.6599266227466751,1.4437043454051945e-06
59.632,1.3199893537458376,1.3999464395603383,-0.19993295778260922,1.7197884174059013,5.7647847890862636e-06,1.6601776217361994,1.6107443466140126e-05
59.642,1.3200075749408304,1.399972751629707,-0.19994972898654595,1.7199148089130851,5.59576750980284e-06,1.6599325683615715,-3.273277417559228e-05
59.652,1.3199999968131308,1.3999896806886225,-0.19992713655623895,1.7196976275641749,1.5458232397236316e-05,1.6601691779243355,-2.840466581055523e-06
59.662,1.3200107202426317,1.3999917162535205,-0.19993391218542556,1.7197621155120864,9.798524511772655e-06,1.6600895572373746,-2.500881219802409e-05
59.672,1.3200127096283172,1.3999686443588137,-0.19993244417503941,1.7199924024199014,1.2831076077191028e-06,1.6598995759561586,-2.348212375835601e-05
59.682,1.319999735830347,1.3999011843367928,-0.19991007894167012,1.7202062076043134,-9.638255151322994e-06,1.6597690429574268,1.954518270519401e-05
59.692,1.3199820527339723,1.3999760145729834,-0.1999326878263199,1.7198401707733062,7.557827782278537e-06,1.6600994982801112,4.566331278432756e-06
59.702,1.320006944367555,1.3999897806742831,-0.1999309004288996,1.719820236355785,7.039683736387303e-06,1.6601039373582758,-1.3889423609469986e-05
59.712,1.3199992394353828,1.3999591128043827,-0.1999334188979045,1.7199473493662119,6.026200516373592e-07,1.6600472132284372,1.9769570895888933e-06
59.722,1.3199913576995073,1.3999927487683612,-0.19994232094249487,1.7196395849079273,9.130959376157932e-06,1.6603321403638178,2.6430829951351598e-06
59.732,1.3200068923139057,1.4000188489600989,-0.19996221706249617,1.7195731993391732,1.4922276885265262e-05,1.660335932861872,-2.3865365495367996e-05
59.742,1.320011914000176,1.3999926436821628,-0.1999718521723759,1.7196998539424193,1.1172336037645891e-05,1.6602037737139606,-2.4394357788004584e-05
59.752,1.320009907152916,1.399947823316717,-0.19998170319910447,1.7198274556763913,6.277681435129523e-06,1.660082849516674,-1.8624347732476565e-05
59.762,1.3200072689336828,1.3998911945438897,-0.19999444024541724,1.719976502554438,8.697666835644213e-07,1.659950892975842,-1.3496444478455771e-05
59.772,1.3199948914172897,1.399807435572658,-0.19999730028185336,1.7200247081521596,-6.359621516516256e-06,1.6599611619264385,1.1690964758948041e-05
59.782,1.3199846020126422,1.399803607029554,-0.20004210128615885,1.719975134006674,3.7140006643454626e-06,1.6599916415108034,-8.671943098725876e-06
59.792,1.320006403583962,1.3997270076718396,-0.20006338784853117,1.720194504084418,-4.280136463918893e-06,1.6597856367987402,-1.788897586063598e-05
59.802,1.3199795647305868,1.3995839458866408,-0.2000751651028594,1.720101574055528,-1.4420184591301677e-05,1.660010543060956,3.2651622531965074e-05
59.812,1.3199849974209128,1.3996045560541193,-0.2001704703259648,1.7200617821482886,6.380177346443361e-07,1.6598905038400238,-4.292028926311531e-05
59.822,1.3199975898986471,1.3994243259098589,-0.20016484344362429,1.7200581887633177,-8.063412727743469e-06,1.6599999077786185,1.8460979943846212e-05
59.832,1.3199750597305737,1.3993850836800608,-0.20028517865193418,1.719858820324852,2.165213244254005e-06,1.6601129048053798,-3.827042311588258e-05
59.842,1.3199950933578561,1.3992481765759557,-0.20033888877012362,1.7198343887473229,4.205149316760526e-06,1.6601452036365654,-3.1518631648630446e-05
59.852,1.3199817478479758,1.3990625662536686,-0.20043464668996602,1.7199925258438284,-3.682431169771405e-06,1.660035334775567,-1.9259024035100936e-05
59.862,1.319979967622631,1.398902854697523,-0.2005531825549225,1.7199599204741531,-5.735120196526111e-06,1.660046541676162,-3.804234488846703e-05
59.872,1.319979408836672,1.3987207178721572,-0.20067872055754155,1.7199041017726735,-6.466720234854506e-07,1.6601009426354967,-3.214000028339825e-05
59.882,1.319973407635496,1.398500494579336,-0.2008329771183659,1.719897852106751,-2.307108304400174e-06,1.6601340311602977,-3.310839210968197e-05
59.892,1.3199726137532997,1.3982656434616345,-0.2010148687190556,1.7199619191839908,-4.547383915642911e-06,1.6600638925254252,-4.678176235639597e-05
59.902,1.3199754389263916,1.3980074003399832,-0.20120777692983882,1.7199935519528964,-4.801551641619994e-06,1.6600264392714266,-4.4776118481415494e-05
59.912,1.3199720990247465,1.3977405651152708,-0.2014348883828765,1.7199109051173416,-3.351608127921679e-06,1.660100551518643,-4.9177399322530846e-05
59.922,1.3199750956419845,1.397424481074058,-0.20169235478849945,1.7200264061506445,-6.927231741116202e-06,1.6599989807525022,-5.768509592929405e-05
59.932,1.3199745270805305,1.397107435332865,-0.20197839511877458,1.7200865278048543,-6.03111102126519e-06,1.6599316672968802,-6.341466462167489e-05
59.942,1.3199654646861356,1.3966532304167938,-0.20225153195869172,1.7200640332481214,-2.0937074708626824e-05,1.6600596747138852,-1.2735363442040182e-05
59.952,1.3199433456467577,1.3963731723609332,-0.2026570885148411,1.7201259521336212,-3.5423846043158846e-06,1.6598865616569753,-7.711293494061522e-05
59.962,1.3199636174297797,1.395949026332092,-0.2029652233644681,1.719575013059286,6.000535529793183e-06,1.6605054043353258,-1.882573891798245e-05
59.972,1.3199833209158873,1.395516163760039,-0.20341777690236196,1.719830658198438,-1.0260311169574265e-05,1.6601305908060056,-0.0001041956195564353
59.982,1.3199558002916687,1.3951278083368557,-0.20385150010907171,1.71961490607627,1.8032255269417874e-05,1.660366117288186,-7.243247301591538e-05
59.992,1.3200064140935908,1.3944562627669015,-0.20427600763795173,1.7202327767558998,-2.5377049646557737e-05,1.6597991441745092,-5.837488789772749e-05
60.002,1.3199316589104164,1.3940181267851788,-0.20482695370209836,1.7198394763451859,-2.905370814154651e-06,1.6601992501745553,-6.313632812471326e-05
60.012,1.3199744513078118,1.3934214323285818,-0.20531923431847598,1.720041760941072,-4.815304587069136e-06,1.6599920463929774,-5.363802922264682e-05
60.022,1.3199588867733665,1.3928257039487768,-0.2059020423059783,1.7199625069159552,-9.08622859974173e-06,1.6601246703415553,-5.757727392730061e-05
60.032,1.31996527957173,1.3922347688287235,-0.2065062431641307,1.719828562503995,-3.430368082035784e-06,1.6601974526791201,-8.077786878146753e-05
60.042,1.3199708377752666,1.391553087338691,-0.20711444916044375,1.719860594301231,-4.899991739470977e-06,1.6601967603722354,-5.35478949936774e-05
60.052,1.3199692267462106,1.3908421214879194,-0.20779505691673616,1.719966877056553,-1.2509568795948667e-05,1.6600738447775436,-7.516514801864105e-05
60.062,1.3199622764517933,1.3901136613419087,-0.20848798844540806,1.7198922186397638,-5.6829882577602575e-06,1.660158085607926,-6.248990415791411e-05
60.072,1.3199644187935329,1.3893293518552454,-0.20921646177926068,1.7199494953287022,-7.771483147678282e-06,1.6601087586075787,-5.908093211015597e-05
60.082,1.3199607725046336,1.3885190480070868,-0.2099881172299769,1.7199745686483645,-1.1110698838301403e-05,1.6600909850946808,-6.74618327725085e-05
60.092,1.3199553188219708,1.3876614828100493,-0.21078127370462862,1.7199425167354967,-9.605213533880885e-06,1.6601561104467404,-5.1564565575645815e-05
60.102,1.3199639289883294,1.3867833469172357,-0.21162817261945488,1.7200647431236327,-1.3317507749910362e-05,1.659992795007244,-7.591824604080699e-05
60.112,1.3199489780473623,1.3858840369129162,-0.21248482072957753,1.719722133543593,-3.0202045442351277e-06,1.660363766994215,-4.703237586589637e-05
60.122,1.319964706318804,1.3849765263343912,-0.21341518830582284,1.7195756074892756,4.945637138042969e-06,1.660437117518124,-9.104765262968328e-05
60.132,1.3199913706294266,1.3839280508331786,-0.21435657708883138,1.7199438170187555,-1.1281315093647493e-05,1.6600589337099887,-0.00010730535136005415
60.142,1.3199509243025789,1.3828347088722932,-0.2153249504333976,1.7200798034269305,-1.544939596609396e-05,1.660007713961277,-4.916964574519511e-05
60.152,1.3199469981487892,1.3817792790709884,-0.216354740414185,1.719922888244355,-8.497013699759748e-06,1.6601372844049624,-6.46336339578113e-05
60.162,1.319955121292689,1.3806521955031723,-0.21742569288133584,1.719955952035832,-1.6595315874390337e-05,1.660130411821659,-8.401542439795406e-05
60.172,1.3199669494111976,1.3795075517752888,-0.21851362941053498,1.7199123999257395,-7.581740606887877e-06,1.6601436521603636,-7.936852059664545e-05
60.182,1.3199577675700587,1.378334373916525,-0.21966685942627695,1.7197916265807702,1.0578755578194432e-06,1.6602576368540047,-8.553466108729424e-05
60.192,1.3199753281228226,1.3770329997736432,-0.22084809776434344,1.7200560040328678,-1.7252868247830122e-05,1.660005381210719,-0.00010087765535438109
60.202,1.3199563130076175,1.3757127199077672,-0.22206607940355472,1.7201560358844308,-2.1445417247356602e-05,1.6599424526170932,-7.202229839897711e-05
60.212,1.3199464060975545,1.3743882911794518,-0.2233416576929388,1.720031714133892,-1.9269142783606696e-05,1.6600610579711663,-7.38408087963549e-05
60.222,1.3199636303102489,1.3730063735058398,-0.22465482814217008,1.7201211640693987,-1.8840711844880786e-05,1.6599490791372915,-9.187999633120114e-05
60.232,1.3199539490617038,1.3715367576540007,-0.22600213252229384,1.7202607938327539,-2.5001915258116014e-05,1.6598678590826683,-6.681138414332821e-05
60.242,1.3199320549263787,1.3700564395351869,-0.22740600853252868,1.7201691995200896,-2.535610551035461e-05,1.6599846580518447,-5.466909741169701e-05
60.252,1.3199461423642864,1.3685877886140965,-0.2288672373074716,1.720061534297887,-1.703862685520363e-05,1.66001921376691,-8.832951434278868e-05
60.262,1.3199553582340044,1.367042406907908,-0.23036329305333592,1.720003797604985,-1.9366738458259647e-05,1.6600605825511687,-9.579845879237325e-05
60.272,1.319959622206314,1.3654301982028407,-0.23188771326725455,1.719920905776874,-1.2809331436436366e-05,1.660155075335913,-7.840906395806257e-05
60.282,1.3199471725911085,1.3637986957683825,-0.23349331800332163,1.7198026059337117,-9.096612480163913e-06,1.6602551360077697,-9.661632904567341e-05
60.292,1.3199479856498924,1.3620666727423387,-0.23513104807120033,1.7200033178950491,-2.1584183032885562e-05,1.660093140966577,-9.782761269772067e-05
60.302,1.3199444818786086,1.360312664078835,-0.23679606879421033,1.7200493660527414,-1.8287709796283025e-05,1.6600698805493543,-7.345409411652071e-05
60.312,1.3199332800203454,1.3586002511508877,-0.23853848868892502,1.7195318423434731,3.746584694042099e-06,1.660556546354349,-8.247439438502369e-05
60.322,1.3199962674846937,1.3567044524127319,-0.240321354761746,1.7199120763519424,-2.1837479021513673e-05,1.6601107957784862,-0.00014773748501539785
60.332,1.3199379787566725,1.3548220815543779,-0.24213382672245576,1.71982163314021,-1.0436750683240348e-05,1.6602470257970348,-7.123424248511867e-05
60.342,1.3199512770471573,1.3528046285330344,-0.24400641495009534,1.7202935377361257,-2.6455665078195523e-05,1.6598264468023833,-7.883519686213702e-05
60.352,1.319917632307221,1.3508324331462234,-0.2459315707543679,1.7198652967803731,-2.654616757347128e-05,1.6603100834658449,-5.974410461195845e-05
60.362,1.319965823136232,1.3488524276445713,-0.24790845363433167,1.7199413025527335,-1.3118842559833865e-05,1.6600749345067642,-0.00012327762281483245
60.372,1.3199488463181757,1.3467420102742338,-0.2499083421982169,1.7200459510455524,-1.54990670226951e-05,1.6600589756736728,-7.453354174380422e-05
60.382,1.3199486035119437,1.3446126942954315,-0.25199680016973414,1.7200701417214095,-2.9421464878609527e-05,1.6600171076323074,-0.00010852565080377019
60.392,1.3199560882373298,1.3423397641572095,-0.25404651734510164,1.720176552040492,-3.8355708464443694e-05,1.6600184184119566,-3.363379550513912e-05
60.402,1.3199230377167535,1.3402438373336967,-0.2562877580949676,1.7198639201652224,-1.3673803264779849e-05,1.6601708961415813,-0.00011923505376731924
60.412,1.3199643592378214,1.3378773361394511,-0.2584331699028075,1.7201569152465233,-2.505764995763826e-05,1.6599761906073107,-7.427637053680769e-05
60.422,1.3199400839744602,1.3355374018409503,-0.26071224248865743,1.7202171257257604,-3.297603788166015e-05,1.659935388720509,-7.501126682996073e-05
60.432,1.3199157611583239,1.3331413649402233,-0.26299667841893726,1.720048419269613,-3.569250993873396e-05,1.6601518653908638,-4.0656090635415865e-05
60.442,1.3199562541470389,1.3307521578553256,-0.26537250802562884,1.7201910728207928,-2.540482000679134e-05,1.6598904830735117,-0.00010659692123748954
60.452,1.3199398602250199,1.328242718325873,-0.26775811555858464,1.7201506755078029,-3.673085366173723e-05,1.660007133064532,-6.704497809817411e-05
60.462,1.3199456451317166,1.325712794360081,-0.27019233202214377,1.7200263176456332,-2.9803924205928922e-05,1.66009389127582,-6.140237056584397e-05
60.472,1.3199325145087526,1.3231827789928428,-0.2727395127226151,1.7199760430279873,-2.713071434712333e-05,1.6601048379321455,-0.00011451255789829418
60.482,1.3199644949435019,1.320529167109127,-0.2752342844522433,1.7200170190025208,-2.0839769710789824e-05,1.6600669269626067,-7.99302520304579e-05
60.492,1.319936017959419,1.31785280296622,-0.27786308338301513,1.719965806996047,-3.2000147897726094e-05,1.6601440183337965,-9.307819868986655e-05
60.502,1.3199542124317167,1.3151087473278515,-0.2804873238927241,1.720057872841906,-2.8672909273552705e-05,1.6600457991026056,-8.92326657693232e-05
60.512,1.3199364979836652,1.3123393799935723,-0.28318703073960716,1.7199769745337292,-2.8971510246833532e-05,1.6601269431475512,-7.911582193198541e-05
60.522,1.3199504338687964,1.3095291074653943,-0.2859248892131534,1.7198694184601173,-1.9038250390401856e-05,1.660204363348707,-9.285310509454803e-05
60.532,1.319955725465471,1.3066199621782442,-0.28872448261217176,1.7199786949294982,-3.295377625267548e-05,1.6601085561447242,-9.949706158174365e-05
60.542,1.3199421098138533,1.3036978001499424,-0.2915608301420951,1.719936932097717,-2.073534977142799e-05,1.6601492080043014,-7.792759378411063e-05
60.552,1.3199462241611561,1.300686613690015,-0.29445370654709624,1.7200138509043832,-3.2232356545591756e-05,1.6600849343111044,-8.293493043431965e-05
60.562,1.319940282311169,1.2976638090839572,-0.29740885367850733,1.7199695222421472,-2.8864419603813474e-05,1.6601265111522086,-9.192463234342085e-05
60.572,1.3199499612967722,1.2945806781310836,-0.30039171483574645,1.7199610342682803,-2.56083009064767e-05,1.6601194700113897,-9.03980487994005e-05
60.582,1.319951360362813,1.2914591008878666,-0.30344039266239786,1.719868662429409,-2.722785492803581e-05,1.660189088867126,-9.811139483151265e-05
60.592,1.3199379550203565,1.2883459472165892,-0.30653831438283863,1.719562301553431,2.3857972655250137e-06,1.660468440590189,-9.465020449095363e-05
60.602,1.3200057067480637,1.284980919129005,-0.30966601631647617,1.720168742501361,-4.663091405632258e-05,1.6598826735749386,-0.00012597920751922231
60.612,1.3198992379688912,1.2817308592417351,-0.31288568177838005,1.7199336388423774,-3.310204490691859e-05,1.6601686385213368,-6.071797206352869e-05
60.622,1.3199577855271318,1.2783436588503854,-0.31608123370037955,1.7200989399231936,-3.7646952454117866e-05,1.6600057757124276,-6.419029369908458e-05
60.632,1.3199400126855885,1.2750006047885432,-0.3194240133499031,1.719964167203555,-3.9437842008105406e-05,1.660112283524679,-0.00010466956431187668
60.642,1.3199553631360788,1.2715735410788724,-0.32273593392925815,1.7199359700206003,-2.4952837425651353e-05,1.6601230562231422,-8.702896380352598e-05
60.652,1.3199448404012948,1.2680710363033132,-0.32612623024787535,1.7199555516910152,-3.27972460434367e-05,1.6601356822794067,-6.71931323621422e-05
60.662,1.3199505157873705,1.2645479453006008,-0.3295912104055523,1.7199435029807617,-3.628820456924586e-05,1.660121711435722,-0.00010500082258690924
60.672,1.319937166772795,1.2609103319215187,-0.33305985788119497,1.7201430125986334,-4.449487590907353e-05,1.6599988336306346,-6.110584204144232e-05
60.682,1.3199205658027386,1.2572894857579318,-0.3365875334391868,1.719977450191621,-3.8986542950425473e-05,1.6601597536978003,-3.503381474700973e-05
60.692,1.3199630899038803,1.2536163769948132,-0.3402030044649935,1.7200233700441707,-4.5024735151777406e-05,1.660036690221662,-0.0001136423652798868
60.702,1.3199481418005536,1.2499004110661858,-0.34383255134786506,1.7199564614726022,-3.131464412575724e-05,1.6600991902919047,-8.696213789605167e-05
60.712,1.3199544581256477,1.2460690077310854,-0.347497142205774,1.7200936677691239,-4.5431918364258195e-05,1.6599972796654487,-6.479316735141794e-05
60.722,1.3199448392402147,1.2423128476875114,-0.35125450554058535,1.7197823738703732,-2.4384955543688136e-05,1.6602425042535947,-9.608728468979422e-05
60.732,1.3199753108781387,1.23838829109539,-0.35501452937591704,1.7200216994861357,-3.313992322695469e-05,1.66002630946406,-9.603279458936242e-05
60.742,1.3199440729855931,1.2344540880870714,-0.3588453990294562,1.7199915941283166,-4.3274467341092304e-05,1.6600766063276735,-6.64826157770193e-05
60.752,1.3199540090350244,1.230455869181995,-0.3627158422861365,1.7200609506444557,-4.960309594626011e-05,1.660020905667074,-7.70512583798677e-05
60.762,1.3199532604858994,1.226488281483027,-0.3666337391342962,1.7198334558153086,-2.3114303672855385e-05,1.66019426668589,-7.84428503335377e-05
60.772,1.3199610832159854,1.222385097749891,-0.37060548364870893,1.7199688230479868,-3.961739820379506e-05,1.6600753773662325,-8.698527202710693e-05
60.782,1.3199479400347824,1.2182463254849463,-0.374621280154277,1.7200092127333448,-4.7562197346806556e-05,1.6600657490279644,-7.43447390378904e-05
60.792,1.3199661372164302,1.2141116464412747,-0.3786871345639513,1.7199219364103229,-3.142222320295929e-05,1.660108746261436,-9.938359850192313e-05
60.802,1.3199775537273766,1.209907873737981,-0.38281608476430673,1.7199670385271144,-3.1467360645187625e-05,1.6600556360305134,-0.00012788101521543638
60.812,1.3199606835584365,1.2054878904179809,-0.38687564990919565,1.7203548338525287,-8.105477097331004e-05,1.659805953080487,2.1052188501791136e-05
60.822,1.3198905916430848,1.2013003861891232,-0.391150789945546,1.7198735607387405,-5.9822268053011385e-05,1.6601561953556523,-5.520057615804319e-05
60.832,1.3200001563483532,1.1969546209434032,-0.39538518371052955,1.7199983659707083,-3.3494407108314306e-05,1.6600101839150865,-0.00013527184777650803
60.842,1.319960876507043,1.1925958704219841,-0.39963800654248605,1.7197252769988438,-7.0155091167478645e-06,1.6602654409695994,-4.7398105520457534e-05
60.852,1.3199589728180472,1.1880844597333784,-0.40399847199684213,1.7200188083573025,-5.1005589345010094e-05,1.660007705479897,-8.7743562168896e-05
60.862,1.3199511230718288,1.1836696774802586,-0.40838444662862283,1.7197306543324302,-2.2502739649432613e-05,1.6602531810887369,-9.130663470724443e-05
60.872,1.3199944227756006,1.179078830511795,-0.4127754707581195,1.7199615426645387,-3.336681788468354e-05,1.6600558793810407,-8.140284088042904e-05
60.882,1.3199385063975466,1.1745015476763765,-0.41726048609424904,1.7199027790581471,-4.148448394314386e-05,1.6601266819088103,-5.695469891264793e-05
60.892,1.3199746433982442,1.1698850848779436,-0.4217686199539932,1.719912113375159,-3.616880534718092e-05,1.6600894632433674,-9.077545824354161e-05
60.902,1.3199756795356743,1.165274184534276,-0.4263638694716372,1.719749738010453,-1.535469324753791e-05,1.6602223252555612,-0.00013179727047951673
60.912,1.3200187853175969,1.1603722007876325,-0.43089716966830505,1.7204182742816378,-8.156925288727024e-05,1.6596764817939356,-5.5283850996623585e-05
60.922,1.3198702046021138,1.1556389654051245,-0.4355531694890926,1.7201031597356131,-9.577219911705015e-05,1.6599928563660002,3.131774482234562e-05
60.932,1.3199647964730552,1.1508586549648072,-0.4402155655965325,1.72012590770181,-6.570002746109083e-05,1.6599338047597225,-4.522677777529793e-05
60.942,1.3199900931453135,1.146089224511332,-0.44500756986092416,1.7199737037560148,-4.144108546366709e-05,1.6600088417731031,-0.00013777679431647982
60.952,1.319951030012695,1.1411035476307134,-0.4496751358059923,1.7201835748932446,-7.618764001815492e-05,1.6598884033505001,2.9451542829406208e-05
60.962,1.3199201421948628,1.1361975800524338,-0.4545705906154316,1.7201392003215066,-8.99141422374683e-05,1.6599278640115847,-7.611364602144732e-05
60.972,1.3199479924178128,1.1312990308752067,-0.45932030985054606,1.719863140012432,-3.3918141081556996e-05,1.6601764458191814,2.827370423830189e-05
60.982,1.3200042335092066,1.1263308515741528,-0.46430450998823236,1.7198943577159582,-4.044178554973854e-05,1.6600324461813392,-0.00015957253323062304
60.992,1.3199609652721014,1.1212191092768329,-0.4691941268603257,1.7200131691715956,-6.189068424866662e-05,1.6600160756703364,-3.872908117585894e-05
61.002,1.3199440112112253,1.1161350090975972,-0.47414799765953486,1.7199539437121985,-5.395046954337346e-05,1.6600547485421808,-3.362431856146486e-05
61.012,1.3199945842828518,1.1110942607333616,-0.47919080022874194,1.7197731864192853,-1.1580174460235071e-05,1.6601654945479094,-0.0001108846741715297
61.022,1.3199752038490278,1.1058219437351209,-0.4842151630018572,1.7200716323699652,-6.378702802400937e-05,1.6599477787665515,-5.3939058804353124e-05
61.032,1.3199450948941918,1.1006762023204857,-0.48928013975043694,1.7198112393600216,-3.468399812600609e-05,1.6601602934321695,-1.336158328424375e-05
61.042,1.3199924892817263,1.0954240283979733,-0.49444064861038317,1.7199147252079818,-4.311804681567111e-05,1.6600422818846896,-0.00010192576800793773
61.052,1.3199811439279738,1.0902173766893046,-0.49959616046821065,1.719647551140552,-1.8851479355319611e-06,1.6602517089436786,-8.132747362843418e-05
61.062,1.3199952362311027,1.0849225141162897,-0.5048163366490597,1.7196131295169543,1.6335323167915305e-05,1.660264451122969,-0.00012225636470653
61.072,1.3200401393174328,1.0793774343483484,-0.5099948714953415,1.7202475297325002,-6.875220548341332e-05,1.6597452396891628,-4.168485142663769e-05
61.082,1.319881201765412,1.074022220328434,-0.5152959614851662,1.7198132728613267,-8.668424555846599e-05,1.6601678632941343,2.604792026517089e-07
61.092,1.3200370123375142,1.0686038695861306,-0.520578531038244,1.720051111743233,-3.511754719731641e-05,1.659899361068284,-9.526595646658365e-05
61.102,1.31994654059055,1.063159477051153,-0.5259228153373785,1.7198319104221618,-4.0988816303766384e-05,1.6601182728681572,-1.3061984708073737e-05
61.112,1.3199713426921127,1.0575943367243905,-0.5313151552431163,1.7200715741066706,-8.032737930552258e-05,1.65993230223246,-6.619511880590068e-05
61.122,1.3199733668579086,1.0520955568432306,-0.5366997778531362,1.7199543346030133,-5.241861275173676e-05,1.6600195385666403,-2.518478245505662e-05
61.132,1.3199790509410843,1.0465561368814367,-0.5421609950163981,1.719890128562767,-4.307510478085419e-05,1.6600534999516405,-5.477386552410479e-05
61.142,1.3199879860055264,1.0409195311047146,-0.5476468623005468,1.7199966084455802,-6.380782166726107e-05,1.6599739426264932,-6.0467340854408747e-05
61.152,1.319970265077881,1.0352686989528497,-0.5531326727562123,1.7199926889154256,-6.445090815887511e-05,1.6599894429479063,-1.7452250492766552e-05
61.162,1.3199735151712222,1.029577919992331,-0.5586836850093144,1.7200488493078154,-8.089761461516076e-05,1.6599345574963147,-3.541746112833977e-05
61.172,1.3199667573997083,1.0238855188306584,-0.5642563690191418,1.7199985104529834,-7.160533119776602e-05,1.6599812742633855,-2.672720243790394e-05
61.182,1.3199820742213584,1.0181664488521296,-0.5698489525710757,1.7199813623955365,-5.639123515077671e-05,1.6599713968392455,-2.6986925846017584e-05
61.192,1.319990614998165,1.012466882124622,-0.5755153367852275,1.7198115432235923,-2.9126999328887848e-05,1.660080192341792,-6.897518899151578e-05
61.202,1.3200194983729503,1.0067312043648133,-0.5812391443352576,1.7197042337034265,7.301392602521162e-06,1.6601503096304508,-0.00015208830611523894
61.212,1.320033635182548,1.0007840574156752,-0.5868328884349525,1.7201121395751233,-4.037392070443957e-05,1.659818255614959,2.3384269305815053e-05
61.222,1.3199127407087428,0.9948844582419909,-0.5925623863763567,1.719897128835882,-0.00011156744617046854,1.660064246256968,2.3474490660646552e-05
61.232,1.3200275523659384,0.9890796682256706,-0.5983565153405399,1.7199295111995596,-4.287132950064887e-05,1.6599570184591874,-0.00011193617458271632
61.242,1.3199983577833052,0.9831878325444716,-0.6041064040925201,1.7198408172252222,-1.2171686069706311e-05,1.6600387599015818,-1.757740429031429e-05
61.252,1.319990278186543,0.9772831684590937,-0.6099484083476989,1.7197218937241914,-1.1233709411584414e-05,1.6601271280961898,-7.748458644218914e-05
61.262,1.3200024133229151,0.9713162693120374,-0.6157548651359397,1.7197486301418934,-2.2636154364263916e-06,1.660100663126868,-4.88774867122288e-05
61.272,1.31999573366652,0.9654378831081107,-0.6216711691681569,1.7194457419707287,5.459881497493768e-05,1.6603297396100007,-0.00011487145717570257
61.282,1.320135404966054,0.9593061786179611,-0.6276159112518256,1.720037324379529,3.863953049965119e-06,1.6597957097117693,-0.0001965723663452934
61.292,1.319929340572279,0.9531470679635294,-0.6334255860170304,1.7198576626227808,-9.021040892953636e-05,1.6600796608922934,7.722180912583809e-05
61.302,1.3200051134855526,0.9471016804147876,-0.6392853215315109,1.719996499492865,-2.9097537140643226e-05,1.6598867422927643,5.6728391523819255e-05
61.312,1.31997661015978,0.9411776922175559,-0.6453722919286227,1.719403679313956,3.244895740106557e-05,1.6603526470483727,-0.0001264584448845696
61.322,1.3200914661264331,0.9349295540107221,-0.6513551267125886,1.7200627747832264,-1.0860368993448333e-05,1.6597856966195463,-0.00011240953702085221
61.332,1.3199187436328295,0.928755078490493,-0.6572810537120395,1.7197085359933837,-5.099465120306235e-05,1.660179058402096,7.625389722409892e-05
61.342,1.3200386778316782,0.9225990612235542,-0.6633844236989992,1.7199808544011503,-4.0594943499172587e-05,1.6598905838005997,-0.00011131456624990932
61.352,1.320002895842439,0.9164369485750399,-0.6694168109666583,1.719833750103751,-2.0950097783689614e-05,1.6600342299895807,-1.3280215071631574e-05
61.362,1.3199875274810795,0.9101395984890459,-0.675470436517025,1.7200225620299854,-8.87867774652662e-05,1.6599033171522795,1.0236828545728827e-05
61.372,1.319991815540119,0.9039965165089026,-0.6815743809226378,1.719813560441132,-3.4701223518673885e-05,1.660040340472646,-1.776376110029787e-05
61.382,1.3200285024502572,0.8977193052584536,-0.6877164396133493,1.7199503329751966,-4.505122608122747e-05,1.6599232176838123,-5.542215384490845e-05
61.392,1.319993973189474,0.8914765453767881,-0.693845006830947,1.719804371574213,-3.435121198247515e-05,1.660039000316008,-2.0144138554556434e-05
61.402,1.3200173408781541,0.885141176876358,-0.7000045585196544,1.7199797715804053,-5.614547210885945e-05,1.6598961141719215,-3.0081603633824727e-05
61.412,1.32000358561592,0.8789044996492823,-0.7061606562647453,1.7197729814831746,-6.397013428305343e-06,1.660052458605791,4.909097759409065e-07
61.422,1.320013912037246,0.8724973203121511,-0.7123849451833175,1.7199722410637985,-6.767228001969272e-05,1.6599107418032535,-4.1307019958303215e-05
61.432,1.3200238898233225,0.8661909569678805,-0.7186451585993803,1.7199163729087736,-4.1934821025435554e-05,1.659948885966724,-7.143747195126338e-05
61.442,1.320008400310667,0.8596998360898702,-0.7247988220775232,1.7202228034925255,-0.00011476720016379005,1.659748089346551,8.318505425641831e-05
61.452,1.319923358952943,0.8532838363182673,-0.7309304084623607,1.7200809512253095,-0.00016058097331494992,1.6599029668767686,0.00019544489133238585
61.462,1.320016791320886,0.8469215443147711,-0.7373094284131136,1.7201854894101878,-0.00015847939803403932,1.6597586315371924,-4.211214513105688e-05
61.472,1.3199693782386497,0.8405593992904006,-0.7435271166692337,1.7200141204920705,-0.00011399643021459127,1.659913785881428,9.973449332090212e-05
61.482,1.3199960444907033,0.8341702306896135,-0.749811102613271,1.7200375081410968,-8.266431493453297e-05,1.659849127085896,5.7393421648122e-05
61.492,1.3200137403652326,0.8277308378130641,-0.7561712436056469,1.7200237316512812,-0.00010925345391399333,1.6598732372932918,-2.7113905572306862e-05
61.502,1.3199886920791055,0.8213476437958303,-0.7624164909118347,1.7198851678036995,-5.237584727613154e-05,1.6599650968777988,6.091496171123367e-05
61.512,1.320012083144685,0.814921970988955,-0.7687911199213469,1.719853798780953,-3.4840281948333995e-05,1.659961630980333,-4.410021098788519e-05
61.522,1.3200268572154599,0.8084250795017862,-0.7751311142677944,1.7199733264664232,-5.132625789361356e-05,1.659884533690537,6.846324467346676e-07
61.532,1.3199991149591073,0.8019213463763197,-0.7814430440856119,1.7199380330999716,-8.041897078392424e-05,1.6599243184548058,4.012970633127111e-05
61.542,1.3200163486796335,0.795464414580124,-0.7878224565170244,1.7199084740179487,-5.893546992474796e-05,1.659930323949367,-1.0623965316369777e-05
61.552,1.3200252872916796,0.7889954810337567,-0.7941941935672618,1.7198677028616078,-2.6525565403723306e-05,1.6599463361883222,-1.211744195916964e-05
61.562,1.320042013345616,0.7825427010342167,-0.8006109887283221,1.7198130615315659,1.600009598501373e-05,1.6599705557453097,-4.334446420983795e-05
61.572,1.3200142101918226,0.7759306573120792,-0.8069341518150699,1.7199360662739505,-5.581998166004354e-05,1.6599045663093568,4.9538673868809724e-05
61.582,1.320011760369149,0.7694225646996582,-0.8133271905515995,1.7198575235347278,-4.4887612286714784e-05,1.659958727536523,8.436144199208684e-06
61.592,1.320042622789698,0.7628746598172693,-0.8197820429836975,1.7199919887462496,-6.108070419319489e-05,1.6598444360541516,-2.925107351270384e-05
61.602,1.3200174566032157,0.7564031579995554,-0.8261723557569409,1.7198015710645471,-1.0267317198220383e-05,1.6599976431334635,1.0613497638978231e-05
61.612,1.320079628955483,0.7498944518566049,-0.8327440456437758,1.7198612943083305,1.3240482815923826e-05,1.659928850004369,-0.0001824834530994579
61.622,1.3200004543961077,0.7432072484488454,-0.8388745853026291,1.720078170241143,-6.794048541713948e-05,1.6598100517568977,0.0002926711869539744
61.632,1.32001404860985,0.7366404147694734,-0.8454514192109697,1.7199024667973557,-0.00014332374909109546,1.6599534434639418,-7.752366085878037e-05
61.642,1.3200485731578064,0.7302722421801118,-0.8518049225781228,1.719811202958395,4.071240659975217e-05,1.6599399667178716,6.430370250054551e-05
61.652,1.3200182211177118,0.7237353308351828,-0.8582419671563857,1.7196081523927162,6.443810752276846e-05,1.6600830724357856,-2.2076448241037383e-05
61.662,1.3200729236773254,0.7172320095845937,-0.8647600117508825,1.719706739094942,0.00011283088892888316,1.6599695084263493,-9.32539632030327e-05
61.672,1.3200408414768408,0.7107714129631741,-0.8711830068945767,1.7194142627512612,0.00019610592781393876,1.6602004149926808,-8.631948747872542e-05
61.682,1.3200987251375782,0.7039008874034582,-0.8776494777265986,1.7201526098963242,-6.03603362616667e-05,1.6596770083117915,-3.545823336459364e-05
61.692,1.3199501784631904,0.6973152659937103,-0.8838548206344923,1.7197159540797635,-8.415595366173534e-05,1.660113110839208,0.0002013092581751863
61.702,1.3200848939187928,0.6908801348404321,-0.8905022023318638,1.7199022031579148,3.21401669545196e-05,1.6598392401163222,-0.0001359981524524656
61.712,1.3200492796973329,0.6843557805240952,-0.8969095961933027,1.7197488268527863,6.440374281346806e-05,1.6599924518536726,9.37668767875266e-06
61.722,1.3200050398989482,0.6776252585039337,-0.9032452943557621,1.719906054399928,-6.791208554179917e-05,1.6599182366515208,8.959702566624372e-05
61.732,1.3200492570199138,0.6711835764157783,-0.9097627426430579,1.7198197808673417,2.4029033877326356e-05,1.6599306606855126,-4.278861831075176e-05
61.742,1.3200438916258923,0.6646343193236444,-0.9161880057960188,1.7197927385380538,3.615029169168338e-05,1.6599557405566214,-5.081938254214435e-06
61.752,1.3200567111690908,0.6580208796230131,-0.9226333345770348,1.719943760648036,-2.791960084458367e-05,1.6598455023833374,3.099800038874889e-06
61.762,1.3200287998714195,0.6515194772921422,-0.9289987693711845,1.7197727321350627,7.6045751864484146e-06,1.6599915318021106,5.788001969975198e-05
