marzuk-umich/fetch_joint_controls/test/commanded_all_joints_accln.csv
Time,Joint_0,Joint_1,Joint_2,Joint_3,Joint_4,Joint_5,Joint_6
26.804000000000002,0.5235987901687622,0.5235753059387207,8.870052988640964e-05,-0.0002947956381831318,0.0,0.40017250180244446,0.0
26.805,0.5235987901687622,0.5235753059387207,8.870052988640964e-05,-0.0002947956381831318,0.0,0.40017250180244446,0.0
26.806,0.5235987901687622,0.5235753059387207,8.870052988640964e-05,-0.0002947956381831318,0.0,0.40017250180244446,0.0
26.807000000000002,0.5235987901687622,0.5235753059387207,8.870052988640964e-05,-0.0002947956381831318,0.0,0.40017250180244446,0.0
26.808,0.5235987901687622,0.5235753059387207,8.870052988640964e-05,-0.0002947956381831318,0.0,0.40017250180244446,0.0
26.809,0.5235987901687622,0.5235753059387207,8.870052988640964e-05,-0.0002947956381831318,0.0,0.40017250180244446,0.0
26.810000000000002,0.5235987901687622,0.5235753059387207,8.870052988640964e-05,-0.0002947956381831318,0.0,0.40017250180244446,0.0
26.811,0.5235987901687622,0.5235753059387207,8.870052988640964e-05,-0.0002947956381831318,0.0,0.40017250180244446,0.0
26.812,0.5235987901687622,0.5235753059387207,8.870052988640964e-05,-0.0002947956381831318,0.0,0.40017250180244446,0.0
26.813000000000002,0.5235987901687622,0.5235753059387207,8.870052988640964e-05,-0.0002947956381831318,0.0,0.40017250180244446,0.0
26.814,0.5235987901687622,0.5235753059387207,8.870052988640964e-05,-0.0002947956381831318,0.0,0.40017250180244446,0.0
26.815,0.5235987901687622,0.5235753059387207,8.870052988640964e-05,-0.0002947956381831318,0.0,0.40017250180244446,0.0
26.816000000000003,0.5235987901687622,0.5235753059387207,8.870052988640964e-05,-0.0002947956381831318,0.0,0.40017250180244446,0.0
26.817,0.5235987901687622,0.5235753059387207,8.870052988640964e-05,-0.0002947956381831318,0.0,0.40017250180244446,0.0
26.818,0.5235987901687622,0.5235753059387207,8.870052988640964e-05,-0.0002947956381831318,0.0,0.40017250180244446,0.0
26.819,0.5235987901687622,0.5235753059387207,8.870052988640964e-05,-0.0002947956381831318,0.0,0.40017250180244446,0.0
26.82,0.5235987901687622,0.5235753059387207,8.870052988640964e-05,-0.0002947956381831318,0.0,0.40017250180244446,0.0
26.821,0.5235987901687622,0.5235753059387207,8.870052988640964e-05,-0.0002947956381831318,0.0,0.40017250180244446,0.0
26.822,0.5235987901687622,0.5235753059387207,8.870052988640964e-05,-0.0002947956381831318,0.0,0.40017250180244446,0.0
26.823,0.5235987901687622,0.5235753059387207,8.870052988640964e-05,-0.0002947956381831318,0.0,0.40017250180244446,0.0
26.824,0.5235987901687622,0.5235753059387207,8.870052988640964e-05,-0.0002947956381831318,0.0,0.40017250180244446,0.0
26.825,0.5235987901687622,0.5235753059387207,8.870052988640964e-05,-0.0002947956381831318,0.0,0.40017250180244446,0.0
26.826,0.5235987901687622,0.5235753059387207,8.870052988640964e-05,-0.0002947956381831318,0.0,0.40017250180244446,0.0
26.827,0.5235987901687622,0.5235753059387207,8.870052988640964e-05,-0.0002947956381831318,0.0,0.40017250180244446,0.0
26.828,0.5235987901687622,0.5235753059387207,8.870052988640964e-05,-0.0002947956381831318,0.0,0.40017250180244446,0.0
26.829,0.5235987901687622,0.5235753059387207,8.870052988640964e-05,-0.0002947956381831318,0.0,0.40017250180244446,0.0
26.830000000000002,0.5235987901687622,0.5235753059387207,8.870052988640964e-05,-0.0002947956381831318,0.0,0.40017250180244446,0.0
26.831,0.5235987901687622,0.5235753059387207,8.870052988640964e-05,-0.0002947956381831318,0.0,0.40017250180244446,0.0
26.832,0.5235987901687622,0.5235753059387207,8.870052988640964e-05,-0.0002947956381831318,0.0,0.40017250180244446,0.0
26.833000000000002,0.5235987901687622,0.5235753059387207,8.870052988640964e-05,-0.0002947956381831318,0.0,0.40017250180244446,0.0
26.834,0.5235987901687622,0.5235753059387207,8.870052988640964e-05,-0.0002947956381831318,0.0,0.40017250180244446,0.0
26.835,0.5235987901687622,0.5235753059387207,8.870052988640964e-05,-0.0002947956381831318,0.0,0.40017250180244446,0.0
26.836000000000002,0.5235987901687622,0.5235753059387207,8.870052988640964e-05,-0.0002947956381831318,0.0,0.40017250180244446,0.0
26.837,0.5235987901687622,0.5235753059387207,8.870052988640964e-05,-0.0002947956381831318,0.0,0.40017250180244446,0.0
26.838,0.5235987901687622,0.5235753059387207,8.870052988640964e-05,-0.0002947956381831318,0.0,0.40017250180244446,0.0
26.839000000000002,0.5235987901687622,0.5235753059387207,8.870052988640964e-05,-0.0002947956381831318,0.0,0.40017250180244446,0.0
26.84,0.5235987901687622,0.5235753059387207,8.870052988640964e-05,-0.0002947956381831318,0.0,0.40017250180244446,0.0
26.841,0.5235987901687622,0.5235753059387207,8.870052988640964e-05,-0.0002947956381831318,0.0,0.40017250180244446,0.0
26.842000000000002,0.5235987901687622,0.5235753059387207,8.870052988640964e-05,-0.0002947956381831318,0.0,0.40017250180244446,0.0
26.843,0.5235987901687622,0.5235753059387207,8.870052988640964e-05,-0.0002947956381831318,0.0,0.40017250180244446,0.0
26.844,0.5235987901687622,0.5235753059387207,8.870052988640964e-05,-0.0002947956381831318,0.0,0.40017250180244446,0.0
26.845000000000002,0.5235987901687622,0.5235753059387207,8.870052988640964e-05,-0.0002947956381831318,0.0,0.40017250180244446,0.0
26.846,0.5235987901687622,0.5235753059387207,8.870052988640964e-05,-0.0002947956381831318,0.0,0.40017250180244446,0.0
26.847,0.5235987901687622,0.5235753059387207,8.870052988640964e-05,-0.0002947956381831318,0.0,0.40017250180244446,0.0
26.848000000000003,0.5235987901687622,0.5235753059387207,8.870052988640964e-05,-0.0002947956381831318,0.0,0.40017250180244446,0.0
26.849,0.5235987901687622,0.5235753059387207,8.870052988640964e-05,-0.0002947956381831318,0.0,0.40017250180244446,0.0
26.85,0.5235987901687622,0.5235753059387207,8.870052988640964e-05,-0.0002947956381831318,0.0,0.40017250180244446,0.0
26.851,0.5235987901687622,0.5235753059387207,8.870052988640964e-05,-0.0002947956381831318,0.0,0.40017250180244446,0.0
26.852,0.5235987901687622,0.5235753059387207,8.870052988640964e-05,-0.0002947956381831318,0.0,0.40017250180244446,0.0
26.853,0.5235987901687622,0.5235753059387207,8.870052988640964e-05,-0.0002947956381831318,0.0,0.40017250180244446,0.0
26.854,0.5235987901687622,0.5235753059387207,8.870052988640964e-05,-0.0002947956381831318,0.0,0.40017250180244446,0.0
26.855,0.5235987901687622,0.5235753059387207,8.870052988640964e-05,-0.0002947956381831318,0.0,0.40017250180244446,0.0
26.856,0.5235987901687622,0.5235753059387207,8.870052988640964e-05,-0.0002947956381831318,0.0,0.40017250180244446,0.0
26.857,0.5235987901687622,0.5235753059387207,8.870052988640964e-05,-0.0002947956381831318,0.0,0.40017250180244446,0.0
26.858,0.5235987901687622,0.5235753059387207,8.870052988640964e-05,-0.0002947956381831318,0.0,0.40017250180244446,0.0
26.859,0.5235987901687622,0.5235753059387207,8.870052988640964e-05,-0.0002947956381831318,0.0,0.40017250180244446,0.0
26.86,0.5235987901687622,0.5235753059387207,8.870052988640964e-05,-0.0002947956381831318,0.0,0.40017250180244446,0.0
26.861,0.5235987901687622,0.5235753059387207,8.870052988640964e-05,-0.0002947956381831318,0.0,0.40017250180244446,0.0
26.862000000000002,0.5235987901687622,0.5235753059387207,8.870052988640964e-05,-0.0002947956381831318,0.0,0.40017250180244446,0.0
26.863,0.5235987901687622,0.5235753059387207,8.870052988640964e-05,-0.0002947956381831318,0.0,0.40017250180244446,0.0
26.864,0.5235987901687622,0.5235753059387207,8.870052988640964e-05,-0.0002947956381831318,0.0,0.40017250180244446,0.0
26.865000000000002,0.5235987901687622,0.5235753059387207,8.870052988640964e-05,-0.0002947956381831318,0.0,0.40017250180244446,0.0
26.866,0.5235987901687622,0.5235753059387207,8.870052988640964e-05,-0.0002947956381831318,0.0,0.40017250180244446,0.0
26.867,0.5235987901687622,0.5235753059387207,8.870052988640964e-05,-0.0002947956381831318,0.0,0.40017250180244446,0.0
26.868000000000002,0.5235987901687622,0.5235753059387207,8.870052988640964e-05,-0.0002947956381831318,0.0,0.40017250180244446,0.0
26.869,0.5235987901687622,0.5235753059387207,8.870052988640964e-05,-0.0002947956381831318,0.0,0.40017250180244446,0.0
26.87,0.5235987901687622,0.5235753059387207,8.870052988640964e-05,-0.0002947956381831318,0.0,0.40017250180244446,0.0
26.871000000000002,0.5235987901687622,0.5235753059387207,8.870052988640964e-05,-0.0002947956381831318,0.0,0.40017250180244446,0.0
26.872,0.5235987901687622,0.5235753059387207,8.870052988640964e-05,-0.0002947956381831318,0.0,0.40017250180244446,0.0
26.873,0.5235987901687622,0.5235753059387207,8.870052988640964e-05,-0.0002947956381831318,0.0,0.40017250180244446,0.0
26.874000000000002,0.5235987901687622,0.5235753059387207,8.870052988640964e-05,-0.0002947956381831318,0.0,0.40017250180244446,0.0
26.875,0.5235987901687622,0.5235753059387207,8.870052988640964e-05,-0.0002947956381831318,0.0,0.40017250180244446,0.0
26.876,0.5235987901687622,0.5235753059387207,8.870052988640964e-05,-0.0002947956381831318,0.0,0.40017250180244446,0.0
26.877000000000002,0.5235987901687622,0.5235753059387207,8.870052988640964e-05,-0.0002947956381831318,0.0,0.40017250180244446,0.0
26.878,0.5235987901687622,0.5235753059387207,8.870052988640964e-05,-0.0002947956381831318,0.0,0.40017250180244446,0.0
26.879,0.5235987901687622,0.5235753059387207,8.870052988640964e-05,-0.0002947956381831318,0.0,0.40017250180244446,0.0
26.880000000000003,0.5235987901687622,0.5235753059387207,8.870052988640964e-05,-0.0002947956381831318,0.0,0.40017250180244446,0.0
26.881,0.5235987901687622,0.5235753059387207,8.870052988640964e-05,-0.0002947956381831318,0.0,0.40017250180244446,0.0
26.882,0.5235987901687622,0.5235753059387207,8.870052988640964e-05,-0.0002947956381831318,0.0,0.40017250180244446,0.0
26.883,0.5235987901687622,0.5235753059387207,8.870052988640964e-05,-0.0002947956381831318,0.0,0.40017250180244446,0.0
26.884,0.5235987901687622,0.5235753059387207,8.870052988640964e-05,-0.0002947956381831318,0.0,0.40017250180244446,0.0
26.885,0.5235987901687622,0.5235753059387207,8.870052988640964e-05,-0.0002947956381831318,0.0,0.40017250180244446,0.0
26.886,0.5235987901687622,0.5235753059387207,8.870052988640964e-05,-0.0002947956381831318,0.0,0.40017250180244446,0.0
26.887,0.5235987901687622,0.5235753059387207,8.870052988640964e-05,-0.0002947956381831318,0.0,0.40017250180244446,0.0
26.888,0.5235987901687622,0.5235753059387207,8.870052988640964e-05,-0.0002947956381831318,0.0,0.40017250180244446,0.0
26.889,0.5235987901687622,0.5235753059387207,8.870052988640964e-05,-0.0002947956381831318,0.0,0.40017250180244446,0.0
26.89,0.5235987901687622,0.5235753059387207,8.870052988640964e-05,-0.0002947956381831318,0.0,0.40017250180244446,0.0
26.891000000000002,0.5235987901687622,0.5235753059387207,8.870052988640964e-05,-0.0002947956381831318,0.0,0.40017250180244446,0.0
26.892,0.5235987901687622,0.5235753059387207,8.870052988640964e-05,-0.0002947956381831318,0.0,0.40017250180244446,0.0
26.893,0.5235987901687622,0.5235753059387207,8.870052988640964e-05,-0.0002947956381831318,0.0,0.40017250180244446,0.0
26.894000000000002,0.5235987901687622,0.5235753059387207,8.870052988640964e-05,-0.0002947956381831318,0.0,0.40017250180244446,0.0
26.895,0.5235987901687622,0.5235753059387207,8.870052988640964e-05,-0.0002947956381831318,0.0,0.40017250180244446,0.0
26.896,0.5235987901687622,0.5235753059387207,8.870052988640964e-05,-0.0002947956381831318,0.0,0.40017250180244446,0.0
26.897000000000002,0.5235987901687622,0.5235753059387207,8.870052988640964e-05,-0.0002947956381831318,0.0,0.40017250180244446,0.0
26.898,0.5235987901687622,0.5235753059387207,8.870052988640964e-05,-0.0002947956381831318,0.0,0.40017250180244446,0.0
26.899,0.5235987901687622,0.5235753059387207,8.870052988640964e-05,-0.0002947956381831318,0.0,0.40017250180244446,0.0
26.900000000000002,0.5235987901687622,0.5235753059387207,8.870052988640964e-05,-0.0002947956381831318,0.0,0.40017250180244446,0.0
26.901,0.5235987901687622,0.5235753059387207,8.870052988640964e-05,-0.0002947956381831318,0.0,0.40017250180244446,0.0
26.902,0.5235987901687622,0.5235753059387207,8.870052988640964e-05,-0.0002947956381831318,0.0,0.40017250180244446,0.0
26.903000000000002,0.5235987901687622,0.5235753059387207,8.870052988640964e-05,-0.0002947956381831318,0.0,0.40017250180244446,0.0
26.904,0.5235987901687622,0.5235753059387207,8.870052988640964e-05,-0.0002947956381831318,0.0,0.40017250180244446,0.0
26.905,0.5235987901687622,0.5235753059387207,8.870052988640964e-05,-0.0002947956381831318,0.0,0.40017250180244446,0.0
26.906000000000002,0.5235987901687622,0.5235753059387207,8.870052988640964e-05,-0.0002947956381831318,0.0,0.40017250180244446,0.0
26.907,0.5235987901687622,0.5235753059387207,8.870052988640964e-05,-0.0002947956381831318,0.0,0.40017250180244446,0.0
26.908,0.5235987901687622,0.5235753059387207,8.870052988640964e-05,-0.0002947956381831318,0.0,0.40017250180244446,0.0
26.909000000000002,0.5235987901687622,0.5235753059387207,8.870052988640964e-05,-0.0002947956381831318,0.0,0.40017250180244446,0.0
26.91,0.5235987901687622,0.5235753059387207,8.870052988640964e-05,-0.0002947956381831318,0.0,0.40017250180244446,0.0
26.911,0.5235987901687622,0.5235753059387207,8.870052988640964e-05,-0.0002947956381831318,0.0,0.40017250180244446,0.0
26.912000000000003,0.5235987901687622,0.5235753059387207,8.870052988640964e-05,-0.0002947956381831318,0.0,0.40017250180244446,0.0
26.913,0.5235987901687622,0.5235753059387207,8.870052988640964e-05,-0.0002947956381831318,0.0,0.40017250180244446,0.0
26.914,0.5235987901687622,0.5235753059387207,8.870052988640964e-05,-0.0002947956381831318,0.0,0.40017250180244446,0.0
26.915,0.5235987901687622,0.5235753059387207,8.870052988640964e-05,-0.0002947956381831318,0.0,0.40017250180244446,0.0
26.916,0.5235987901687622,0.5235753059387207,8.870052988640964e-05,-0.0002947956381831318,0.0,0.40017250180244446,0.0
26.917,0.5235987901687622,0.5235753059387207,8.870052988640964e-05,-0.0002947956381831318,0.0,0.40017250180244446,0.0
26.918,0.5235987901687622,0.5235753059387207,8.870052988640964e-05,-0.0002947956381831318,0.0,0.40017250180244446,0.0
26.919,0.5235987901687622,0.5235753059387207,8.870052988640964e-05,-0.0002947956381831318,0.0,0.40017250180244446,0.0
26.92,0.5235987901687622,0.5235753059387207,8.870052988640964e-05,-0.0002947956381831318,0.0,0.40017250180244446,0.0
26.921,0.5235987901687622,0.5235753059387207,8.870052988640964e-05,-0.0002947956381831318,0.0,0.40017250180244446,0.0
26.922,0.5235987901687622,0.5235753059387207,8.870052988640964e-05,-0.0002947956381831318,0.0,0.40017250180244446,0.0
26.923000000000002,0.5235987901687622,0.5235753059387207,8.870052988640964e-05,-0.0002947956381831318,0.0,0.40017250180244446,0.0
26.924,0.5235987901687622,0.5235753059387207,8.870052988640964e-05,-0.0002947956381831318,0.0,0.40017250180244446,0.0
26.925,0.5235987901687622,0.5235753059387207,8.870052988640964e-05,-0.0002947956381831318,0.0,0.40017250180244446,0.0
26.926000000000002,0.5235987901687622,0.5235753059387207,8.870052988640964e-05,-0.0002947956381831318,0.0,0.40017250180244446,0.0
26.927,0.5235987901687622,0.5235753059387207,8.870052988640964e-05,-0.0002947956381831318,0.0,0.40017250180244446,0.0
26.928,0.5235987901687622,0.5235753059387207,8.870052988640964e-05,-0.0002947956381831318,0.0,0.40017250180244446,0.0
26.929000000000002,0.5235987901687622,0.5235753059387207,8.870052988640964e-05,-0.0002947956381831318,0.0,0.40017250180244446,0.0
26.93,0.5235987901687622,0.5235753059387207,8.870052988640964e-05,-0.0002947956381831318,0.0,0.40017250180244446,0.0
26.931,0.5235987901687622,0.5235753059387207,8.870052988640964e-05,-0.0002947956381831318,0.0,0.40017250180244446,0.0
26.932000000000002,0.5235987901687622,0.5235753059387207,8.870052988640964e-05,-0.0002947956381831318,0.0,0.40017250180244446,0.0
26.933,0.5235987901687622,0.5235753059387207,8.870052988640964e-05,-0.0002947956381831318,0.0,0.40017250180244446,0.0
26.934,0.5235987901687622,0.5235753059387207,8.870052988640964e-05,-0.0002947956381831318,0.0,0.40017250180244446,0.0
26.935000000000002,0.5235987901687622,0.5235753059387207,8.870052988640964e-05,-0.0002947956381831318,0.0,0.40017250180244446,0.0
26.936,0.5235987901687622,0.5235753059387207,8.870052988640964e-05,-0.0002947956381831318,0.0,0.40017250180244446,0.0
26.937,0.5235987901687622,0.5235753059387207,8.870052988640964e-05,-0.0002947956381831318,0.0,0.40017250180244446,0.0
26.938000000000002,0.5235987901687622,0.5235753059387207,8.870052988640964e-05,-0.0002947956381831318,0.0,0.40017250180244446,0.0
26.939,0.5235987901687622,0.5235753059387207,8.870052988640964e-05,-0.0002947956381831318,0.0,0.40017250180244446,0.0
26.94,0.5235987901687622,0.5235753059387207,8.870052988640964e-05,-0.0002947956381831318,0.0,0.40017250180244446,0.0
26.941000000000003,0.5235987901687622,0.5235753059387207,8.870052988640964e-05,-0.0002947956381831318,0.0,0.40017250180244446,0.0
26.942,0.5235987901687622,0.5235753059387207,8.870052988640964e-05,-0.0002947956381831318,0.0,0.40017250180244446,0.0
26.943,0.5235987901687622,0.5235753059387207,8.870052988640964e-05,-0.0002947956381831318,0.0,0.40017250180244446,0.0
26.944000000000003,0.5235987901687622,0.5235753059387207,8.870052988640964e-05,-0.0002947956381831318,0.0,0.40017250180244446,0.0
26.945,0.5235987901687622,0.5235753059387207,8.870052988640964e-05,-0.0002947956381831318,0.0,0.40017250180244446,0.0
26.946,0.5235987901687622,0.5235753059387207,8.870052988640964e-05,-0.0002947956381831318,0.0,0.40017250180244446,0.0
26.947,0.5235987901687622,0.5235753059387207,8.870052988640964e-05,-0.0002947956381831318,0.0,0.40017250180244446,0.0
26.948,0.5235987901687622,0.5235753059387207,8.870052988640964e-05,-0.0002947956381831318,0.0,0.40017250180244446,0.0
26.949,0.5235987901687622,0.5235753059387207,8.870052988640964e-05,-0.0002947956381831318,0.0,0.40017250180244446,0.0
26.95,0.5235987901687622,0.5235753059387207,8.870052988640964e-05,-0.0002947956381831318,0.0,0.40017250180244446,0.0
26.951,0.5235987901687622,0.5235753059387207,8.870052988640964e-05,-0.0002947956381831318,0.0,0.40017250180244446,0.0
26.952,0.5235987901687622,0.5235753059387207,8.870052988640964e-05,-0.0002947956381831318,0.0,0.40017250180244446,0.0
26.953,0.5235987901687622,0.5235753059387207,8.870052988640964e-05,-0.0002947956381831318,0.0,0.40017250180244446,0.0
26.954,0.5235987901687622,0.5235753059387207,8.870052988640964e-05,-0.0002947956381831318,0.0,0.40017250180244446,0.0
26.955000000000002,0.5235987901687622,0.5235753059387207,8.870052988640964e-05,-0.0002947956381831318,0.0,0.40017250180244446,0.0
26.956,0.5235987901687622,0.5235753059387207,8.870052988640964e-05,-0.0002947956381831318,0.0,0.40017250180244446,0.0
26.957,0.5235987901687622,0.5235753059387207,8.870052988640964e-05,-0.0002947956381831318,0.0,0.40017250180244446,0.0
26.958000000000002,0.5235987901687622,0.5235753059387207,8.870052988640964e-05,-0.0002947956381831318,0.0,0.40017250180244446,0.0
26.959,0.5235987901687622,0.5235753059387207,8.870052988640964e-05,-0.0002947956381831318,0.0,0.40017250180244446,0.0
26.96,0.5235987901687622,0.5235753059387207,8.870052988640964e-05,-0.0002947956381831318,0.0,0.40017250180244446,0.0
26.961000000000002,0.5235987901687622,0.5235753059387207,8.870052988640964e-05,-0.0002947956381831318,0.0,0.40017250180244446,0.0
26.962,0.5235987901687622,0.5235753059387207,8.870052988640964e-05,-0.0002947956381831318,0.0,0.40017250180244446,0.0
26.963,0.5235987901687622,0.5235753059387207,8.870052988640964e-05,-0.0002947956381831318,0.0,0.40017250180244446,0.0
26.964000000000002,0.5235987901687622,0.5235753059387207,8.870052988640964e-05,-0.0002947956381831318,0.0,0.40017250180244446,0.0
26.965,0.5235987901687622,0.5235753059387207,8.870052988640964e-05,-0.0002947956381831318,0.0,0.40017250180244446,0.0
26.966,0.5235987901687622,0.5235753059387207,8.870052988640964e-05,-0.0002947956381831318,0.0,0.40017250180244446,0.0
26.967000000000002,0.5235987901687622,0.5235753059387207,8.870052988640964e-05,-0.0002947956381831318,0.0,0.40017250180244446,0.0
26.968,0.5235987901687622,0.5235753059387207,8.870052988640964e-05,-0.0002947956381831318,0.0,0.40017250180244446,0.0
26.969,0.5235987901687622,0.5235753059387207,8.870052988640964e-05,-0.0002947956381831318,0.0,0.40017250180244446,0.0
26.970000000000002,0.5235987901687622,0.5235753059387207,8.870052988640964e-05,-0.0002947956381831318,0.0,0.40017250180244446,0.0
26.971,0.5235987901687622,0.5235753059387207,8.870052988640964e-05,-0.0002947956381831318,0.0,0.40017250180244446,0.0
26.972,0.5235987901687622,0.5235753059387207,8.870052988640964e-05,-0.0002947956381831318,0.0,0.40017250180244446,0.0
26.973000000000003,0.5235987901687622,0.5235753059387207,8.870052988640964e-05,-0.0002947956381831318,0.0,0.40017250180244446,0.0
26.974,0.5235987901687622,0.5235753059387207,8.870052988640964e-05,-0.0002947956381831318,0.0,0.40017250180244446,0.0
26.975,0.5235987901687622,0.5235753059387207,8.870052988640964e-05,-0.0002947956381831318,0.0,0.40017250180244446,0.0
26.976,0.5235987901687622,0.5235753059387207,8.870052988640964e-05,-0.0002947956381831318,0.0,0.40017250180244446,0.0
26.977,0.5235987901687622,0.5235753059387207,8.870052988640964e-05,-0.0002947956381831318,0.0,0.40017250180244446,0.0
26.978,0.5235987901687622,0.5235753059387207,8.870052988640964e-05,-0.0002947956381831318,0.0,0.40017250180244446,0.0
26.979,0.5235987901687622,0.5235753059387207,8.870052988640964e-05,-0.0002947956381831318,0.0,0.40017250180244446,0.0
26.98,0.5235987901687622,0.5235753059387207,8.870052988640964e-05,-0.0002947956381831318,0.0,0.40017250180244446,0.0
26.981,0.5235987901687622,0.5235753059387207,8.870052988640964e-05,-0.0002947956381831318,0.0,0.40017250180244446,0.0
26.982,0.5235987901687622,0.5235753059387207,8.870052988640964e-05,-0.0002947956381831318,0.0,0.40017250180244446,0.0
26.983,0.5235987901687622,0.5235753059387207,8.870052988640964e-05,-0.0002947956381831318,0.0,0.40017250180244446,0.0
26.984,0.5235987901687622,0.5235753059387207,8.870052988640964e-05,-0.0002947956381831318,0.0,0.40017250180244446,0.0
26.985,0.5235987901687622,0.5235753059387207,8.870052988640964e-05,-0.0002947956381831318,0.0,0.40017250180244446,0.0
26.986,0.5235987901687622,0.5235753059387207,8.870052988640964e-05,-0.0002947956381831318,0.0,0.40017250180244446,0.0
26.987000000000002,0.5235987901687622,0.5235753059387207,8.870052988640964e-05,-0.0002947956381831318,0.0,0.40017250180244446,0.0
26.988,0.5235987901687622,0.5235753059387207,8.870052988640964e-05,-0.0002947956381831318,0.0,0.40017250180244446,0.0
26.989,0.5235987901687622,0.5235753059387207,8.870052988640964e-05,-0.0002947956381831318,0.0,0.40017250180244446,0.0
26.990000000000002,0.5235987901687622,0.5235753059387207,8.870052988640964e-05,-0.0002947956381831318,0.0,0.40017250180244446,0.0
26.991,0.5235987901687622,0.5235753059387207,8.870052988640964e-05,-0.0002947956381831318,0.0,0.40017250180244446,0.0
26.992,0.5235987901687622,0.5235753059387207,8.870052988640964e-05,-0.0002947956381831318,0.0,0.40017250180244446,0.0
26.993000000000002,0.5235987901687622,0.5235753059387207,8.870052988640964e-05,-0.0002947956381831318,0.0,0.40017250180244446,0.0
26.994,0.5235987901687622,0.5235753059387207,8.870052988640964e-05,-0.0002947956381831318,0.0,0.40017250180244446,0.0
26.995,0.5235987901687622,0.5235753059387207,8.870052988640964e-05,-0.0002947956381831318,0.0,0.40017250180244446,0.0
26.996000000000002,0.5235987901687622,0.5235753059387207,8.870052988640964e-05,-0.0002947956381831318,0.0,0.40017250180244446,0.0
26.997,0.5235987901687622,0.5235753059387207,8.870052988640964e-05,-0.0002947956381831318,0.0,0.40017250180244446,0.0
26.998,0.5235987901687622,0.5235753059387207,8.870052988640964e-05,-0.0002947956381831318,0.0,0.40017250180244446,0.0
26.999000000000002,0.5235987901687622,0.5235753059387207,8.870052988640964e-05,-0.0002947956381831318,0.0,0.40017250180244446,0.0
27.0,0.5235987901687622,0.5235753059387207,8.870052988640964e-05,-0.0002947956381831318,0.0,0.40017250180244446,0.0
27.001,0.5235987901687622,0.5235753059387207,8.870052988640964e-05,-0.0002947956381831318,0.0,0.40017250180244446,0.0
27.002000000000002,0.5235987901687622,0.5235753059387207,8.870052988640964e-05,-0.0002947956381831318,0.0,0.40017250180244446,0.0
27.003,0.5235987901687622,0.5235753059387207,8.870052988640964e-05,-0.0002947956381831318,0.0,0.40017250180244446,0.0
27.004,0.5235987901687622,0.5235753059387207,8.870052988640964e-05,-0.0002947956381831318,0.0,0.40017250180244446,0.0
27.005000000000003,0.5235987901687622,0.5235753059387207,8.870052988640964e-05,-0.0002947956381831318,0.0,0.40017250180244446,0.0
27.006,0.5235987901687622,0.5235753059387207,8.870052988640964e-05,-0.0002947956381831318,0.0,0.40017250180244446,0.0
27.007,0.5235987901687622,0.5235753059387207,8.870052988640964e-05,-0.0002947956381831318,0.0,0.40017250180244446,0.0
27.008,0.5235987901687622,0.5235753059387207,8.870052988640964e-05,-0.0002947956381831318,0.0,0.40017250180244446,0.0
27.009,0.5235987901687622,0.5235753059387207,8.870052988640964e-05,-0.0002947956381831318,0.0,0.40017250180244446,0.0
27.01,0.5235987901687622,0.5235753059387207,8.870052988640964e-05,-0.0002947956381831318,0.0,0.40017250180244446,0.0
27.011,0.5235987901687622,0.5235753059387207,8.870052988640964e-05,-0.0002947956381831318,0.0,0.40017250180244446,0.0
27.012,0.5235987901687622,0.5235753059387207,8.870052988640964e-05,-0.0002947956381831318,0.0,0.40017250180244446,0.0
27.013,0.5235987901687622,0.5235753059387207,8.870052988640964e-05,-0.0002947956381831318,0.0,0.40017250180244446,0.0
27.014,0.5235987901687622,0.5235753059387207,8.870052988640964e-05,-0.0002947956381831318,0.0,0.40017250180244446,0.0
27.015,0.5235987901687622,0.5235753059387207,8.870052988640964e-05,-0.0002947956381831318,0.0,0.40017250180244446,0.0
27.016000000000002,0.5235987901687622,0.5235753059387207,8.870052988640964e-05,-0.0002947956381831318,0.0,0.40017250180244446,0.0
27.017,0.5235987901687622,0.5235753059387207,8.870052988640964e-05,-0.0002947956381831318,0.0,0.40017250180244446,0.0
27.018,0.5235987901687622,0.5235753059387207,8.870052988640964e-05,-0.0002947956381831318,0.0,0.40017250180244446,0.0
27.019000000000002,0.5235987901687622,0.5235753059387207,8.870052988640964e-05,-0.0002947956381831318,0.0,0.40017250180244446,0.0
27.02,0.5235987901687622,0.5235753059387207,8.870052988640964e-05,-0.0002947956381831318,0.0,0.40017250180244446,0.0
27.021,0.5235987901687622,0.5235753059387207,8.870052988640964e-05,-0.0002947956381831318,0.0,0.40017250180244446,0.0
27.022000000000002,0.5235987901687622,0.5235753059387207,8.870052988640964e-05,-0.0002947956381831318,0.0,0.40017250180244446,0.0
27.023,0.5235987901687622,0.5235753059387207,8.870052988640964e-05,-0.0002947956381831318,0.0,0.40017250180244446,0.0
27.024,0.5235987901687622,0.5235753059387207,8.870052988640964e-05,-0.0002947956381831318,0.0,0.40017250180244446,0.0
27.025000000000002,0.5235987901687622,0.5235753059387207,8.870052988640964e-05,-0.0002947956381831318,0.0,0.40017250180244446,0.0
27.026,0.5235987901687622,0.5235753059387207,8.870052988640964e-05,-0.0002947956381831318,0.0,0.40017250180244446,0.0
27.027,0.5235987901687622,0.5235753059387207,8.870052988640964e-05,-0.0002947956381831318,0.0,0.40017250180244446,0.0
27.028000000000002,0.5235987901687622,0.5235753059387207,8.870052988640964e-05,-0.0002947956381831318,0.0,0.40017250180244446,0.0
27.029,0.5235987901687622,0.5235753059387207,8.870052988640964e-05,-0.0002947956381831318,0.0,0.40017250180244446,0.0
27.03,0.5235987901687622,0.5235753059387207,8.870052988640964e-05,-0.0002947956381831318,0.0,0.40017250180244446,0.0
27.031000000000002,0.5235987901687622,0.5235753059387207,8.870052988640964e-05,-0.0002947956381831318,0.0,0.40017250180244446,0.0
27.032,0.5235987901687622,0.5235753059387207,8.870052988640964e-05,-0.0002947956381831318,0.0,0.40017250180244446,0.0
27.033,0.5235987901687622,0.5235753059387207,8.870052988640964e-05,-0.0002947956381831318,0.0,0.40017250180244446,0.0
27.034000000000002,0.5235987901687622,0.5235753059387207,8.870052988640964e-05,-0.0002947956381831318,0.0,0.40017250180244446,0.0
27.035,0.5235987901687622,0.5235753059387207,8.870052988640964e-05,-0.0002947956381831318,0.0,0.40017250180244446,0.0
27.036,0.5235987901687622,0.5235753059387207,8.870052988640964e-05,-0.0002947956381831318,0.0,0.40017250180244446,0.0
27.037000000000003,0.5235987901687622,0.5235753059387207,8.870052988640964e-05,-0.0002947956381831318,0.0,0.40017250180244446,0.0
27.038,0.5235987901687622,0.5235753059387207,8.870052988640964e-05,-0.0002947956381831318,0.0,0.40017250180244446,0.0
27.039,0.5235987901687622,0.5235753059387207,8.870052988640964e-05,-0.0002947956381831318,0.0,0.40017250180244446,0.0
27.04,0.5235987901687622,0.5235753059387207,8.870052988640964e-05,-0.0002947956381831318,0.0,0.40017250180244446,0.0
27.041,0.5235987901687622,0.5235753059387207,8.870052988640964e-05,-0.0002947956381831318,0.0,0.40017250180244446,0.0
27.042,0.5235987901687622,0.5235753059387207,8.870052988640964e-05,-0.0002947956381831318,0.0,0.40017250180244446,0.0
27.043,0.5235987901687622,0.5235753059387207,8.870052988640964e-05,-0.0002947956381831318,0.0,0.40017250180244446,0.0
27.044,0.5235987901687622,0.5235753059387207,8.870052988640964e-05,-0.0002947956381831318,0.0,0.40017250180244446,0.0
27.045,0.5235987901687622,0.5235753059387207,8.870052988640964e-05,-0.0002947956381831318,0.0,0.40017250180244446,0.0
27.046,0.5235987901687622,0.5235753059387207,8.870052988640964e-05,-0.0002947956381831318,0.0,0.40017250180244446,0.0
27.047,0.5235987901687622,0.5235753059387207,8.870052988640964e-05,-0.0002947956381831318,0.0,0.40017250180244446,0.0
27.048000000000002,0.5235987901687622,0.5235753059387207,8.870052988640964e-05,-0.0002947956381831318,0.0,0.40017250180244446,0.0
27.049,0.5235987901687622,0.5235753059387207,8.870052988640964e-05,-0.0002947956381831318,0.0,0.40017250180244446,0.0
27.05,0.5235987901687622,0.5235753059387207,8.870052988640964e-05,-0.0002947956381831318,0.0,0.40017250180244446,0.0
27.051000000000002,0.5235987901687622,0.5235753059387207,8.870052988640964e-05,-0.0002947956381831318,0.0,0.40017250180244446,0.0
27.052,0.5235987901687622,0.5235753059387207,8.870052988640964e-05,-0.0002947956381831318,0.0,0.40017250180244446,0.0
27.053,0.5235987901687622,0.5235753059387207,8.870052988640964e-05,-0.0002947956381831318,0.0,0.40017250180244446,0.0
27.054000000000002,0.5235987901687622,0.5235753059387207,8.870052988640964e-05,-0.0002947956381831318,0.0,0.40017250180244446,0.0
27.055,0.5235987901687622,0.5235753059387207,8.870052988640964e-05,-0.0002947956381831318,0.0,0.40017250180244446,0.0
27.056,0.5235987901687622,0.5235753059387207,8.870052988640964e-05,-0.0002947956381831318,0.0,0.40017250180244446,0.0
27.057000000000002,0.5235987901687622,0.5235753059387207,8.870052988640964e-05,-0.0002947956381831318,0.0,0.40017250180244446,0.0
27.058,0.5235987901687622,0.5235753059387207,8.870052988640964e-05,-0.0002947956381831318,0.0,0.40017250180244446,0.0
27.059,0.5235987901687622,0.5235753059387207,8.870052988640964e-05,-0.0002947956381831318,0.0,0.40017250180244446,0.0
27.060000000000002,0.5235987901687622,0.5235753059387207,8.870052988640964e-05,-0.0002947956381831318,0.0,0.40017250180244446,0.0
27.061,0.5235987901687622,0.5235753059387207,8.870052988640964e-05,-0.0002947956381831318,0.0,0.40017250180244446,0.0
27.062,0.5235987901687622,0.5235753059387207,8.870052988640964e-05,-0.0002947956381831318,0.0,0.40017250180244446,0.0
27.063000000000002,0.5235987901687622,0.5235753059387207,8.870052988640964e-05,-0.0002947956381831318,0.0,0.40017250180244446,0.0
27.064,0.5235987901687622,0.5235753059387207,8.870052988640964e-05,-0.0002947956381831318,0.0,0.40017250180244446,0.0
27.065,0.5235987901687622,0.5235753059387207,8.870052988640964e-05,-0.0002947956381831318,0.0,0.40017250180244446,0.0
27.066000000000003,0.5235987901687622,0.5235753059387207,8.870052988640964e-05,-0.0002947956381831318,0.0,0.40017250180244446,0.0
27.067,0.5235987901687622,0.5235753059387207,8.870052988640964e-05,-0.0002947956381831318,0.0,0.40017250180244446,0.0
27.068,0.5235987901687622,0.5235753059387207,8.870052988640964e-05,-0.0002947956381831318,0.0,0.40017250180244446,0.0
27.069000000000003,0.5235987901687622,0.5235753059387207,8.870052988640964e-05,-0.0002947956381831318,0.0,0.40017250180244446,0.0
27.07,0.5235987901687622,0.5235753059387207,8.870052988640964e-05,-0.0002947956381831318,0.0,0.40017250180244446,0.0
27.071,0.5235987901687622,0.5235753059387207,8.870052988640964e-05,-0.0002947956381831318,0.0,0.40017250180244446,0.0
27.072,0.5235987901687622,0.5235753059387207,8.870052988640964e-05,-0.0002947956381831318,0.0,0.40017250180244446,0.0
27.073,0.5235987901687622,0.5235753059387207,8.870052988640964e-05,-0.0002947956381831318,0.0,0.40017250180244446,0.0
27.074,0.5235987901687622,0.5235753059387207,8.870052988640964e-05,-0.0002947956381831318,0.0,0.40017250180244446,0.0
27.075,0.5235987901687622,0.5235753059387207,8.870052988640964e-05,-0.0002947956381831318,0.0,0.40017250180244446,0.0
27.076,0.5235987901687622,0.5235753059387207,8.870052988640964e-05,-0.0002947956381831318,0.0,0.40017250180244446,0.0
27.077,0.5235987901687622,0.5235753059387207,8.870052988640964e-05,-0.0002947956381831318,0.0,0.40017250180244446,0.0
27.078,0.5235987901687622,0.5235753059387207,8.870052988640964e-05,-0.0002947956381831318,0.0,0.40017250180244446,0.0
27.079,0.5235987901687622,0.5235753059387207,8.870052988640964e-05,-0.0002947956381831318,0.0,0.40017250180244446,0.0
27.080000000000002,0.5235987901687622,0.5235753059387207,8.870052988640964e-05,-0.0002947956381831318,0.0,0.40017250180244446,0.0
27.081,0.5235987901687622,0.5235753059387207,8.870052988640964e-05,-0.0002947956381831318,0.0,0.40017250180244446,0.0
27.082,0.5235987901687622,0.5235753059387207,8.870052988640964e-05,-0.0002947956381831318,0.0,0.40017250180244446,0.0
27.083000000000002,0.5235987901687622,0.5235753059387207,8.870052988640964e-05,-0.0002947956381831318,0.0,0.40017250180244446,0.0
27.084,0.5235987901687622,0.5235753059387207,8.870052988640964e-05,-0.0002947956381831318,0.0,0.40017250180244446,0.0
27.085,0.5235987901687622,0.5235753059387207,8.870052988640964e-05,-0.0002947956381831318,0.0,0.40017250180244446,0.0
27.086000000000002,0.5235987901687622,0.5235753059387207,8.870052988640964e-05,-0.0002947956381831318,0.0,0.40017250180244446,0.0
27.087,0.5235987901687622,0.5235753059387207,8.870052988640964e-05,-0.0002947956381831318,0.0,0.40017250180244446,0.0
27.088,0.5235987901687622,0.5235753059387207,8.870052988640964e-05,-0.0002947956381831318,0.0,0.40017250180244446,0.0
27.089000000000002,0.5235987901687622,0.5235753059387207,8.870052988640964e-05,-0.0002947956381831318,0.0,0.40017250180244446,0.0
27.09,0.5235987901687622,0.5235753059387207,8.870052988640964e-05,-0.0002947956381831318,0.0,0.40017250180244446,0.0
27.091,0.5235987901687622,0.5235753059387207,8.870052988640964e-05,-0.0002947956381831318,0.0,0.40017250180244446,0.0
27.092000000000002,0.5235987901687622,0.5235753059387207,8.870052988640964e-05,-0.0002947956381831318,0.0,0.40017250180244446,0.0
27.093,0.5235987901687622,0.5235753059387207,8.870052988640964e-05,-0.0002947956381831318,0.0,0.40017250180244446,0.0
27.094,0.5235987901687622,0.5235753059387207,8.870052988640964e-05,-0.0002947956381831318,0.0,0.40017250180244446,0.0
27.095000000000002,0.5235987901687622,0.5235753059387207,8.870052988640964e-05,-0.0002947956381831318,0.0,0.40017250180244446,0.0
27.096,0.5235987901687622,0.5235753059387207,8.870052988640964e-05,-0.0002947956381831318,0.0,0.40017250180244446,0.0
27.097,0.5235987901687622,0.5235753059387207,8.870052988640964e-05,-0.0002947956381831318,0.0,0.40017250180244446,0.0
27.098000000000003,0.5235987901687622,0.5235753059387207,8.870052988640964e-05,-0.0002947956381831318,0.0,0.40017250180244446,0.0
27.099,0.5235987901687622,0.5235753059387207,8.870052988640964e-05,-0.0002947956381831318,0.0,0.40017250180244446,0.0
27.1,0.5235987901687622,0.5235753059387207,8.870052988640964e-05,-0.0002947956381831318,0.0,0.40017250180244446,0.0
27.101,0.5235987901687622,0.5235753059387207,8.870052988640964e-05,-0.0002947956381831318,0.0,0.40017250180244446,0.0
27.102,0.5235987901687622,0.5235753059387207,8.870052988640964e-05,-0.0002947956381831318,0.0,0.40017250180244446,0.0
27.103,0.5235987901687622,0.5235753059387207,8.870052988640964e-05,-0.0002947956381831318,0.0,0.40017250180244446,0.0
27.104,0.5235987901687622,0.5235753059387207,8.870052988640964e-05,-0.0002947956381831318,0.0,0.40017250180244446,0.0
27.105,0.5235987901687622,0.5235753059387207,8.870052988640964e-05,-0.0002947956381831318,0.0,0.40017250180244446,0.0
27.106,0.5235987901687622,0.5235753059387207,8.870052988640964e-05,-0.0002947956381831318,0.0,0.40017250180244446,0.0
27.107,0.5235987901687622,0.5235753059387207,8.870052988640964e-05,-0.0002947956381831318,0.0,0.40017250180244446,0.0
27.108,0.5235987901687622,0.5235753059387207,8.870052988640964e-05,-0.0002947956381831318,0.0,0.40017250180244446,0.0
27.109,0.5235987901687622,0.5235753059387207,8.870052988640964e-05,-0.0002947956381831318,0.0,0.40017250180244446,0.0
27.11,0.5235987901687622,0.5235753059387207,8.870052988640964e-05,-0.0002947956381831318,0.0,0.40017250180244446,0.0
27.111,0.5235987901687622,0.5235753059387207,8.870052988640964e-05,-0.0002947956381831318,0.0,0.40017250180244446,0.0
27.112000000000002,0.5235987901687622,0.5235753059387207,8.870052988640964e-05,-0.0002947956381831318,0.0,0.40017250180244446,0.0
27.113,0.5235987901687622,0.5235753059387207,8.870052988640964e-05,-0.0002947956381831318,0.0,0.40017250180244446,0.0
27.114,0.5235987901687622,0.5235753059387207,8.870052988640964e-05,-0.0002947956381831318,0.0,0.40017250180244446,0.0
27.115000000000002,0.5235987901687622,0.5235753059387207,8.870052988640964e-05,-0.0002947956381831318,0.0,0.40017250180244446,0.0
27.116,0.5235987901687622,0.5235753059387207,8.870052988640964e-05,-0.0002947956381831318,0.0,0.40017250180244446,0.0
27.117,0.5235987901687622,0.5235753059387207,8.870052988640964e-05,-0.0002947956381831318,0.0,0.40017250180244446,0.0
27.118000000000002,0.5235987901687622,0.5235753059387207,8.870052988640964e-05,-0.0002947956381831318,0.0,0.40017250180244446,0.0
27.119,0.5235987901687622,0.5235753059387207,8.870052988640964e-05,-0.0002947956381831318,0.0,0.40017250180244446,0.0
27.12,0.5235987901687622,0.5235753059387207,8.870052988640964e-05,-0.0002947956381831318,0.0,0.40017250180244446,0.0
27.121000000000002,0.5235987901687622,0.5235753059387207,8.870052988640964e-05,-0.0002947956381831318,0.0,0.40017250180244446,0.0
27.122,0.5235987901687622,0.5235753059387207,8.870052988640964e-05,-0.0002947956381831318,0.0,0.40017250180244446,0.0
27.123,0.5235987901687622,0.5235753059387207,8.870052988640964e-05,-0.0002947956381831318,0.0,0.40017250180244446,0.0
27.124000000000002,0.5235987901687622,0.5235753059387207,8.870052988640964e-05,-0.0002947956381831318,0.0,0.40017250180244446,0.0
27.125,0.5235987901687622,0.5235753059387207,8.870052988640964e-05,-0.0002947956381831318,0.0,0.40017250180244446,0.0
27.126,0.5235987901687622,0.5235753059387207,8.870052988640964e-05,-0.0002947956381831318,0.0,0.40017250180244446,0.0
27.127000000000002,0.5235987901687622,0.5235753059387207,8.870052988640964e-05,-0.0002947956381831318,0.0,0.40017250180244446,0.0
27.128,0.5235987901687622,0.5235753059387207,8.870052988640964e-05,-0.0002947956381831318,0.0,0.40017250180244446,0.0
27.129,0.5235987901687622,0.5235753059387207,8.870052988640964e-05,-0.0002947956381831318,0.0,0.40017250180244446,0.0
27.130000000000003,0.5235987901687622,0.5235753059387207,8.870052988640964e-05,-0.0002947956381831318,0.0,0.40017250180244446,0.0
27.131,0.5235987901687622,0.5235753059387207,8.870052988640964e-05,-0.0002947956381831318,0.0,0.40017250180244446,0.0
27.132,0.5235987901687622,0.5235753059387207,8.870052988640964e-05,-0.0002947956381831318,0.0,0.40017250180244446,0.0
27.133,0.5235987901687622,0.5235753059387207,8.870052988640964e-05,-0.0002947956381831318,0.0,0.40017250180244446,0.0
27.134,0.5235987901687622,0.5235753059387207,8.870052988640964e-05,-0.0002947956381831318,0.0,0.40017250180244446,0.0
27.135,0.5235987901687622,0.5235753059387207,8.870052988640964e-05,-0.0002947956381831318,0.0,0.40017250180244446,0.0
27.136,0.5235987901687622,0.5235753059387207,8.870052988640964e-05,-0.0002947956381831318,0.0,0.40017250180244446,0.0
27.137,0.5235987901687622,0.5235753059387207,8.870052988640964e-05,-0.0002947956381831318,0.0,0.40017250180244446,0.0
27.138,0.5235987901687622,0.5235753059387207,8.870052988640964e-05,-0.0002947956381831318,0.0,0.40017250180244446,0.0
27.139,0.5235987901687622,0.5235753059387207,8.870052988640964e-05,-0.0002947956381831318,0.0,0.40017250180244446,0.0
27.14,0.5235987901687622,0.5235753059387207,8.870052988640964e-05,-0.0002947956381831318,0.0,0.40017250180244446,0.0
27.141000000000002,0.5235987901687622,0.5235753059387207,8.870052988640964e-05,-0.0002947956381831318,0.0,0.40017250180244446,0.0
27.142,0.5235987901687622,0.5235753059387207,8.870052988640964e-05,-0.0002947956381831318,0.0,0.40017250180244446,0.0
27.143,0.5235987901687622,0.5235753059387207,8.870052988640964e-05,-0.0002947956381831318,0.0,0.40017250180244446,0.0
27.144000000000002,0.5235987901687622,0.5235753059387207,8.870052988640964e-05,-0.0002947956381831318,0.0,0.40017250180244446,0.0
27.145,0.5235987901687622,0.5235753059387207,8.870052988640964e-05,-0.0002947956381831318,0.0,0.40017250180244446,0.0
27.146,0.5235987901687622,0.5235753059387207,8.870052988640964e-05,-0.0002947956381831318,0.0,0.40017250180244446,0.0
27.147000000000002,0.5235987901687622,0.5235753059387207,8.870052988640964e-05,-0.0002947956381831318,0.0,0.40017250180244446,0.0
27.148,0.5235987901687622,0.5235753059387207,8.870052988640964e-05,-0.0002947956381831318,0.0,0.40017250180244446,0.0
27.149,0.5235987901687622,0.5235753059387207,8.870052988640964e-05,-0.0002947956381831318,0.0,0.40017250180244446,0.0
27.150000000000002,0.5235987901687622,0.5235753059387207,8.870052988640964e-05,-0.0002947956381831318,0.0,0.40017250180244446,0.0
27.151,0.5235987901687622,0.5235753059387207,8.870052988640964e-05,-0.0002947956381831318,0.0,0.40017250180244446,0.0
27.152,0.5235987901687622,0.5235753059387207,8.870052988640964e-05,-0.0002947956381831318,0.0,0.40017250180244446,0.0
27.153000000000002,0.5235987901687622,0.5235753059387207,8.870052988640964e-05,-0.0002947956381831318,0.0,0.40017250180244446,0.0
27.154,0.5235987901687622,0.5235753059387207,8.870052988640964e-05,-0.0002947956381831318,0.0,0.40017250180244446,0.0
27.155,0.5235987901687622,0.5235753059387207,8.870052988640964e-05,-0.0002947956381831318,0.0,0.40017250180244446,0.0
27.156000000000002,0.5235987901687622,0.5235753059387207,8.870052988640964e-05,-0.0002947956381831318,0.0,0.40017250180244446,0.0
27.157,0.5235987901687622,0.5235753059387207,8.870052988640964e-05,-0.0002947956381831318,0.0,0.40017250180244446,0.0
27.158,0.5235987901687622,0.5235753059387207,8.870052988640964e-05,-0.0002947956381831318,0.0,0.40017250180244446,0.0
27.159000000000002,0.5235987901687622,0.5235753059387207,8.870052988640964e-05,-0.0002947956381831318,0.0,0.40017250180244446,0.0
27.16,0.5235987901687622,0.5235753059387207,8.870052988640964e-05,-0.0002947956381831318,0.0,0.40017250180244446,0.0
27.161,0.5235987901687622,0.5235753059387207,8.870052988640964e-05,-0.0002947956381831318,0.0,0.40017250180244446,0.0
27.162,0.5235987901687622,0.5235753059387207,8.870052988640964e-05,-0.0002947956381831318,0.0,0.40017250180244446,0.0
27.163,0.5235987901687622,0.5235753059387207,8.870052988640964e-05,-0.0002947956381831318,0.0,0.40017250180244446,0.0
27.164,0.5235987901687622,0.5235753059387207,8.870052988640964e-05,-0.0002947956381831318,0.0,0.40017250180244446,0.0
27.165,0.5235987901687622,0.5235753059387207,8.870052988640964e-05,-0.0002947956381831318,0.0,0.40017250180244446,0.0
27.166,0.5235987901687622,0.5235753059387207,8.870052988640964e-05,-0.0002947956381831318,0.0,0.40017250180244446,0.0
27.167,0.5235987901687622,0.5235753059387207,8.870052988640964e-05,-0.0002947956381831318,0.0,0.40017250180244446,0.0
27.168,0.5235987901687622,0.5235753059387207,8.870052988640964e-05,-0.0002947956381831318,0.0,0.40017250180244446,0.0
27.169,0.5235987901687622,0.5235753059387207,8.870052988640964e-05,-0.0002947956381831318,0.0,0.40017250180244446,0.0
27.17,0.5235987901687622,0.5235753059387207,8.870052988640964e-05,-0.0002947956381831318,0.0,0.40017250180244446,0.0
27.171,0.5235987901687622,0.5235753059387207,8.870052988640964e-05,-0.0002947956381831318,0.0,0.40017250180244446,0.0
27.172,0.5235987901687622,0.5235753059387207,8.870052988640964e-05,-0.0002947956381831318,0.0,0.40017250180244446,0.0
27.173000000000002,0.5235987901687622,0.5235753059387207,8.870052988640964e-05,-0.0002947956381831318,0.0,0.40017250180244446,0.0
27.174,0.5235987901687622,0.5235753059387207,8.870052988640964e-05,-0.0002947956381831318,0.0,0.40017250180244446,0.0
27.175,0.5235987901687622,0.5235753059387207,8.870052988640964e-05,-0.0002947956381831318,0.0,0.40017250180244446,0.0
27.176000000000002,0.5235987901687622,0.5235753059387207,8.870052988640964e-05,-0.0002947956381831318,0.0,0.40017250180244446,0.0
27.177,0.5235987901687622,0.5235753059387207,8.870052988640964e-05,-0.0002947956381831318,0.0,0.40017250180244446,0.0
27.178,0.5235987901687622,0.5235753059387207,8.870052988640964e-05,-0.0002947956381831318,0.0,0.40017250180244446,0.0
27.179000000000002,0.5235987901687622,0.5235753059387207,8.870052988640964e-05,-0.0002947956381831318,0.0,0.40017250180244446,0.0
27.18,0.5235987901687622,0.5235753059387207,8.870052988640964e-05,-0.0002947956381831318,0.0,0.40017250180244446,0.0
27.181,0.5235987901687622,0.5235753059387207,8.870052988640964e-05,-0.0002947956381831318,0.0,0.40017250180244446,0.0
27.182000000000002,0.5235987901687622,0.5235753059387207,8.870052988640964e-05,-0.0002947956381831318,0.0,0.40017250180244446,0.0
27.183,0.5235987901687622,0.5235753059387207,8.870052988640964e-05,-0.0002947956381831318,0.0,0.40017250180244446,0.0
27.184,0.5235987901687622,0.5235753059387207,8.870052988640964e-05,-0.0002947956381831318,0.0,0.40017250180244446,0.0
27.185000000000002,0.5235987901687622,0.5235753059387207,8.870052988640964e-05,-0.0002947956381831318,0.0,0.40017250180244446,0.0
27.186,0.5235987901687622,0.5235753059387207,8.870052988640964e-05,-0.0002947956381831318,0.0,0.40017250180244446,0.0
27.187,0.5235987901687622,0.5235753059387207,8.870052988640964e-05,-0.0002947956381831318,0.0,0.40017250180244446,0.0
27.188000000000002,0.5235987901687622,0.5235753059387207,8.870052988640964e-05,-0.0002947956381831318,0.0,0.40017250180244446,0.0
27.189,0.5235987901687622,0.5235753059387207,8.870052988640964e-05,-0.0002947956381831318,0.0,0.40017250180244446,0.0
27.19,0.5235987901687622,0.5235753059387207,8.870052988640964e-05,-0.0002947956381831318,0.0,0.40017250180244446,0.0
27.191000000000003,0.5235987901687622,0.5235753059387207,8.870052988640964e-05,-0.0002947956381831318,0.0,0.40017250180244446,0.0
27.192,0.5235987901687622,0.5235753059387207,8.870052988640964e-05,-0.0002947956381831318,0.0,0.40017250180244446,0.0
27.193,0.5235987901687622,0.5235753059387207,8.870052988640964e-05,-0.0002947956381831318,0.0,0.40017250180244446,0.0
27.194000000000003,0.5235987901687622,0.5235753059387207,8.870052988640964e-05,-0.0002947956381831318,0.0,0.40017250180244446,0.0
27.195,0.5235987901687622,0.5235753059387207,8.870052988640964e-05,-0.0002947956381831318,0.0,0.40017250180244446,0.0
27.196,0.5235987901687622,0.5235753059387207,8.870052988640964e-05,-0.0002947956381831318,0.0,0.40017250180244446,0.0
27.197,0.5235987901687622,0.5235753059387207,8.870052988640964e-05,-0.0002947956381831318,0.0,0.40017250180244446,0.0
27.198,0.5235987901687622,0.5235753059387207,8.870052988640964e-05,-0.0002947956381831318,0.0,0.40017250180244446,0.0
27.199,0.5235987901687622,0.5235753059387207,8.870052988640964e-05,-0.0002947956381831318,0.0,0.40017250180244446,0.0
27.2,0.5235987901687622,0.5235753059387207,8.870052988640964e-05,-0.0002947956381831318,0.0,0.40017250180244446,0.0
27.201,0.5235987901687622,0.5235753059387207,8.870052988640964e-05,-0.0002947956381831318,0.0,0.40017250180244446,0.0
27.202,0.5235987901687622,0.5235753059387207,8.870052988640964e-05,-0.0002947956381831318,0.0,0.40017250180244446,0.0
27.203,0.5235987901687622,0.5235753059387207,8.870052988640964e-05,-0.0002947956381831318,0.0,0.40017250180244446,0.0
27.204,0.5235987901687622,0.5235753059387207,8.870052988640964e-05,-0.0002947956381831318,0.0,0.40017250180244446,0.0
27.205000000000002,0.5235987901687622,0.5235753059387207,8.870052988640964e-05,-0.0002947956381831318,0.0,0.40017250180244446,0.0
27.206,0.5235987901687622,0.5235753059387207,8.870052988640964e-05,-0.0002947956381831318,0.0,0.40017250180244446,0.0
27.207,0.5235987901687622,0.5235753059387207,8.870052988640964e-05,-0.0002947956381831318,0.0,0.40017250180244446,0.0
27.208000000000002,0.5235987901687622,0.5235753059387207,8.870052988640964e-05,-0.0002947956381831318,0.0,0.40017250180244446,0.0
27.209,0.5235987901687622,0.5235753059387207,8.870052988640964e-05,-0.0002947956381831318,0.0,0.40017250180244446,0.0
27.21,0.5235987901687622,0.5235753059387207,8.870052988640964e-05,-0.0002947956381831318,0.0,0.40017250180244446,0.0
27.211000000000002,0.5235987901687622,0.5235753059387207,8.870052988640964e-05,-0.0002947956381831318,0.0,0.40017250180244446,0.0
27.212,0.5235987901687622,0.5235753059387207,8.870052988640964e-05,-0.0002947956381831318,0.0,0.40017250180244446,0.0
27.213,0.5235987901687622,0.5235753059387207,8.870052988640964e-05,-0.0002947956381831318,0.0,0.40017250180244446,0.0
27.214000000000002,0.5235987901687622,0.5235753059387207,8.870052988640964e-05,-0.0002947956381831318,0.0,0.40017250180244446,0.0
27.215,0.5235987901687622,0.5235753059387207,8.870052988640964e-05,-0.0002947956381831318,0.0,0.40017250180244446,0.0
27.216,0.5235987901687622,0.5235753059387207,8.870052988640964e-05,-0.0002947956381831318,0.0,0.40017250180244446,0.0
27.217000000000002,0.5235987901687622,0.5235753059387207,8.870052988640964e-05,-0.0002947956381831318,0.0,0.40017250180244446,0.0
27.218,0.5235987901687622,0.5235753059387207,8.870052988640964e-05,-0.0002947956381831318,0.0,0.40017250180244446,0.0
27.219,0.5235987901687622,0.5235753059387207,8.870052988640964e-05,-0.0002947956381831318,0.0,0.40017250180244446,0.0
27.220000000000002,0.5235987901687622,0.5235753059387207,8.870052988640964e-05,-0.0002947956381831318,0.0,0.40017250180244446,0.0
27.221,0.5235987901687622,0.5235753059387207,8.870052988640964e-05,-0.0002947956381831318,0.0,0.40017250180244446,0.0
27.222,0.5235987901687622,0.5235753059387207,8.870052988640964e-05,-0.0002947956381831318,0.0,0.40017250180244446,0.0
27.223000000000003,0.5235987901687622,0.5235753059387207,8.870052988640964e-05,-0.0002947956381831318,0.0,0.40017250180244446,0.0
27.224,0.5235987901687622,0.5235753059387207,8.870052988640964e-05,-0.0002947956381831318,0.0,0.40017250180244446,0.0
27.225,0.5235987901687622,0.5235753059387207,8.870052988640964e-05,-0.0002947956381831318,0.0,0.40017250180244446,0.0
27.226,0.5235987901687622,0.5235753059387207,8.870052988640964e-05,-0.0002947956381831318,0.0,0.40017250180244446,0.0
27.227,0.5235987901687622,0.5235753059387207,8.870052988640964e-05,-0.0002947956381831318,0.0,0.40017250180244446,0.0
27.228,0.5235987901687622,0.5235753059387207,8.870052988640964e-05,-0.0002947956381831318,0.0,0.40017250180244446,0.0
27.229,0.5235987901687622,0.5235753059387207,8.870052988640964e-05,-0.0002947956381831318,0.0,0.40017250180244446,0.0
27.23,0.5235987901687622,0.5235753059387207,8.870052988640964e-05,-0.0002947956381831318,0.0,0.40017250180244446,0.0
27.231,0.5235987901687622,0.5235753059387207,8.870052988640964e-05,-0.0002947956381831318,0.0,0.40017250180244446,0.0
27.232,0.5235987901687622,0.5235753059387207,8.870052988640964e-05,-0.0002947956381831318,0.0,0.40017250180244446,0.0
27.233,0.5235987901687622,0.5235753059387207,8.870052988640964e-05,-0.0002947956381831318,0.0,0.40017250180244446,0.0
27.234,0.5235987901687622,0.5235753059387207,8.870052988640964e-05,-0.0002947956381831318,0.0,0.40017250180244446,0.0
27.235,0.5235987901687622,0.5235753059387207,8.870052988640964e-05,-0.0002947956381831318,0.0,0.40017250180244446,0.0
27.236,0.5235987901687622,0.5235753059387207,8.870052988640964e-05,-0.0002947956381831318,0.0,0.40017250180244446,0.0
27.237000000000002,0.5235987901687622,0.5235753059387207,8.870052988640964e-05,-0.0002947956381831318,0.0,0.40017250180244446,0.0
27.238,0.5235987901687622,0.5235753059387207,8.870052988640964e-05,-0.0002947956381831318,0.0,0.40017250180244446,0.0
27.239,0.5235987901687622,0.5235753059387207,8.870052988640964e-05,-0.0002947956381831318,0.0,0.40017250180244446,0.0
27.240000000000002,0.5235987901687622,0.5235753059387207,8.870052988640964e-05,-0.0002947956381831318,0.0,0.40017250180244446,0.0
27.241,0.5235987901687622,0.5235753059387207,8.870052988640964e-05,-0.0002947956381831318,0.0,0.40017250180244446,0.0
27.242,0.5235987901687622,0.5235753059387207,8.870052988640964e-05,-0.0002947956381831318,0.0,0.40017250180244446,0.0
27.243000000000002,0.5235987901687622,0.5235753059387207,8.870052988640964e-05,-0.0002947956381831318,0.0,0.40017250180244446,0.0
27.244,0.5235987901687622,0.5235753059387207,8.870052988640964e-05,-0.0002947956381831318,0.0,0.40017250180244446,0.0
27.245,0.5235987901687622,0.5235753059387207,8.870052988640964e-05,-0.0002947956381831318,0.0,0.40017250180244446,0.0
27.246000000000002,0.5235987901687622,0.5235753059387207,8.870052988640964e-05,-0.0002947956381831318,0.0,0.40017250180244446,0.0
27.247,0.5235987901687622,0.5235753059387207,8.870052988640964e-05,-0.0002947956381831318,0.0,0.40017250180244446,0.0
27.248,0.5235987901687622,0.5235753059387207,8.870052988640964e-05,-0.0002947956381831318,0.0,0.40017250180244446,0.0
27.249000000000002,0.5235987901687622,0.5235753059387207,8.870052988640964e-05,-0.0002947956381831318,0.0,0.40017250180244446,0.0
27.25,0.5235987901687622,0.5235753059387207,8.870052988640964e-05,-0.0002947956381831318,0.0,0.40017250180244446,0.0
27.251,0.5235987901687622,0.5235753059387207,8.870052988640964e-05,-0.0002947956381831318,0.0,0.40017250180244446,0.0
27.252000000000002,0.5235987901687622,0.5235753059387207,8.870052988640964e-05,-0.0002947956381831318,0.0,0.40017250180244446,0.0
27.253,0.5235987901687622,0.5235753059387207,8.870052988640964e-05,-0.0002947956381831318,0.0,0.40017250180244446,0.0
27.254,0.5235987901687622,0.5235753059387207,8.870052988640964e-05,-0.0002947956381831318,0.0,0.40017250180244446,0.0
27.255000000000003,0.5235987901687622,0.5235753059387207,8.870052988640964e-05,-0.0002947956381831318,0.0,0.40017250180244446,0.0
27.256,0.5235987901687622,0.5235753059387207,8.870052988640964e-05,-0.0002947956381831318,0.0,0.40017250180244446,0.0
27.257,0.5235987901687622,0.5235753059387207,8.870052988640964e-05,-0.0002947956381831318,0.0,0.40017250180244446,0.0
27.258,0.5235987901687622,0.5235753059387207,8.870052988640964e-05,-0.0002947956381831318,0.0,0.40017250180244446,0.0
27.259,0.5235987901687622,0.5235753059387207,8.870052988640964e-05,-0.0002947956381831318,0.0,0.40017250180244446,0.0
27.26,0.5235987901687622,0.5235753059387207,8.870052988640964e-05,-0.0002947956381831318,0.0,0.40017250180244446,0.0
27.261,0.5235987901687622,0.5235753059387207,8.870052988640964e-05,-0.0002947956381831318,0.0,0.40017250180244446,0.0
27.262,0.5235987901687622,0.5235753059387207,8.870052988640964e-05,-0.0002947956381831318,0.0,0.40017250180244446,0.0
27.263,0.5235987901687622,0.5235753059387207,8.870052988640964e-05,-0.0002947956381831318,0.0,0.40017250180244446,0.0
27.264,0.5235987901687622,0.5235753059387207,8.870052988640964e-05,-0.0002947956381831318,0.0,0.40017250180244446,0.0
27.265,0.5235987901687622,0.5235753059387207,8.870052988640964e-05,-0.0002947956381831318,0.0,0.40017250180244446,0.0
27.266000000000002,0.5235987901687622,0.5235753059387207,8.870052988640964e-05,-0.0002947956381831318,0.0,0.40017250180244446,0.0
27.267,0.5235987901687622,0.5235753059387207,8.870052988640964e-05,-0.0002947956381831318,0.0,0.40017250180244446,0.0
27.268,0.5235987901687622,0.5235753059387207,8.870052988640964e-05,-0.0002947956381831318,0.0,0.40017250180244446,0.0
27.269000000000002,0.5235987901687622,0.5235753059387207,8.870052988640964e-05,-0.0002947956381831318,0.0,0.40017250180244446,0.0
27.27,0.5235987901687622,0.5235753059387207,8.870052988640964e-05,-0.0002947956381831318,0.0,0.40017250180244446,0.0
27.271,0.5235987901687622,0.5235753059387207,8.870052988640964e-05,-0.0002947956381831318,0.0,0.40017250180244446,0.0
27.272000000000002,0.5235987901687622,0.5235753059387207,8.870052988640964e-05,-0.0002947956381831318,0.0,0.40017250180244446,0.0
27.273,0.5235987901687622,0.5235753059387207,8.870052988640964e-05,-0.0002947956381831318,0.0,0.40017250180244446,0.0
27.274,0.5235987901687622,0.5235753059387207,8.870052988640964e-05,-0.0002947956381831318,0.0,0.40017250180244446,0.0
27.275000000000002,0.5235987901687622,0.5235753059387207,8.870052988640964e-05,-0.0002947956381831318,0.0,0.40017250180244446,0.0
27.276,0.5235987901687622,0.5235753059387207,8.870052988640964e-05,-0.0002947956381831318,0.0,0.40017250180244446,0.0
27.277,0.5235987901687622,0.5235753059387207,8.870052988640964e-05,-0.0002947956381831318,0.0,0.40017250180244446,0.0
27.278000000000002,0.5235987901687622,0.5235753059387207,8.870052988640964e-05,-0.0002947956381831318,0.0,0.40017250180244446,0.0
27.279,0.5235987901687622,0.5235753059387207,8.870052988640964e-05,-0.0002947956381831318,0.0,0.40017250180244446,0.0
27.28,0.5235987901687622,0.5235753059387207,8.870052988640964e-05,-0.0002947956381831318,0.0,0.40017250180244446,0.0
27.281000000000002,0.5235987901687622,0.5235753059387207,8.870052988640964e-05,-0.0002947956381831318,0.0,0.40017250180244446,0.0
27.282,0.5235987901687622,0.5235753059387207,8.870052988640964e-05,-0.0002947956381831318,0.0,0.40017250180244446,0.0
27.283,0.5235987901687622,0.5235753059387207,8.870052988640964e-05,-0.0002947956381831318,0.0,0.40017250180244446,0.0
27.284000000000002,0.5235987901687622,0.5235753059387207,8.870052988640964e-05,-0.0002947956381831318,0.0,0.40017250180244446,0.0
27.285,0.5235987901687622,0.5235753059387207,8.870052988640964e-05,-0.0002947956381831318,0.0,0.40017250180244446,0.0
27.286,0.5235987901687622,0.5235753059387207,8.870052988640964e-05,-0.0002947956381831318,0.0,0.40017250180244446,0.0
27.287,0.5235987901687622,0.5235753059387207,8.870052988640964e-05,-0.0002947956381831318,0.0,0.40017250180244446,0.0
27.288,0.5235987901687622,0.5235753059387207,8.870052988640964e-05,-0.0002947956381831318,0.0,0.40017250180244446,0.0
27.289,0.5235987901687622,0.5235753059387207,8.870052988640964e-05,-0.0002947956381831318,0.0,0.40017250180244446,0.0
27.29,0.5235987901687622,0.5235753059387207,8.870052988640964e-05,-0.0002947956381831318,0.0,0.40017250180244446,0.0
27.291,0.5235987901687622,0.5235753059387207,8.870052988640964e-05,-0.0002947956381831318,0.0,0.40017250180244446,0.0
27.292,0.5235987901687622,0.5235753059387207,8.870052988640964e-05,-0.0002947956381831318,0.0,0.40017250180244446,0.0
27.293,0.5235987901687622,0.5235753059387207,8.870052988640964e-05,-0.0002947956381831318,0.0,0.40017250180244446,0.0
27.294,0.5235987901687622,0.5235753059387207,8.870052988640964e-05,-0.0002947956381831318,0.0,0.40017250180244446,0.0
27.295,0.5235987901687622,0.5235753059387207,8.870052988640964e-05,-0.0002947956381831318,0.0,0.40017250180244446,0.0
27.296,0.5235987901687622,0.5235753059387207,8.870052988640964e-05,-0.0002947956381831318,0.0,0.40017250180244446,0.0
27.297,0.5235987901687622,0.5235753059387207,8.870052988640964e-05,-0.0002947956381831318,0.0,0.40017250180244446,0.0
27.298000000000002,0.5235987901687622,0.5235753059387207,8.870052988640964e-05,-0.0002947956381831318,0.0,0.40017250180244446,0.0
27.299,0.5235987901687622,0.5235753059387207,8.870052988640964e-05,-0.0002947956381831318,0.0,0.40017250180244446,0.0
27.3,0.5235987901687622,0.5235753059387207,8.870052988640964e-05,-0.0002947956381831318,0.0,0.40017250180244446,0.0
27.301000000000002,0.5235987901687622,0.5235753059387207,8.870052988640964e-05,-0.0002947956381831318,0.0,0.40017250180244446,0.0
27.302,0.5235987901687622,0.5235753059387207,8.870052988640964e-05,-0.0002947956381831318,0.0,0.40017250180244446,0.0
27.303,0.5235987901687622,0.5235753059387207,8.870052988640964e-05,-0.0002947956381831318,0.0,0.40017250180244446,0.0
27.316000000000003,-0.4324553906917572,-0.5229114294052124,0.0004814420535694808,-0.0025261598639190197,0.0,-0.5186824202537537,0.0
27.317,-0.4324553906917572,-0.5229114294052124,0.0004814420535694808,-0.0025261598639190197,0.0,-0.5186824202537537,0.0
27.318,-0.4324553906917572,-0.5229114294052124,0.0004814420535694808,-0.0025261598639190197,0.0,-0.5186824202537537,0.0
27.319000000000003,-0.4324553906917572,-0.5229114294052124,0.0004814420535694808,-0.0025261598639190197,0.0,-0.5186824202537537,0.0
27.32,-0.4324553906917572,-0.5229114294052124,0.0004814420535694808,-0.0025261598639190197,0.0,-0.5186824202537537,0.0
27.321,-0.4324553906917572,-0.5229114294052124,0.0004814420535694808,-0.0025261598639190197,0.0,-0.5186824202537537,0.0
27.322000000000003,-0.4324553906917572,-0.5229114294052124,0.0004814420535694808,-0.0025261598639190197,0.0,-0.5186824202537537,0.0
27.323,-0.4324553906917572,-0.5229114294052124,0.0004814420535694808,-0.0025261598639190197,0.0,-0.5186824202537537,0.0
27.324,-0.4324553906917572,-0.5229114294052124,0.0004814420535694808,-0.0025261598639190197,0.0,-0.5186824202537537,0.0
27.325000000000003,-0.4324553906917572,-0.5229114294052124,0.0004814420535694808,-0.0025261598639190197,0.0,-0.5186824202537537,0.0
27.326,-0.4324553906917572,-0.5229114294052124,0.0004814420535694808,-0.0025261598639190197,0.0,-0.5186824202537537,0.0
27.327,-0.4324553906917572,-0.5229114294052124,0.0004814420535694808,-0.0025261598639190197,0.0,-0.5186824202537537,0.0
27.328000000000003,-0.4324553906917572,-0.5229114294052124,0.0004814420535694808,-0.0025261598639190197,0.0,-0.5186824202537537,0.0
27.329,-0.4324553906917572,-0.5229114294052124,0.0004814420535694808,-0.0025261598639190197,0.0,-0.5186824202537537,0.0
27.330000000000002,-0.4324553906917572,-0.5229114294052124,0.0004814420535694808,-0.0025261598639190197,0.0,-0.5186824202537537,0.0
27.331,-0.4324553906917572,-0.5229114294052124,0.0004814420535694808,-0.0025261598639190197,0.0,-0.5186824202537537,0.0
27.332,-0.4324553906917572,-0.5229114294052124,0.0004814420535694808,-0.0025261598639190197,0.0,-0.5186824202537537,0.0
27.333000000000002,-0.4324553906917572,-0.5229114294052124,0.0004814420535694808,-0.0025261598639190197,0.0,-0.5186824202537537,0.0
27.334,-0.4324553906917572,-0.5229114294052124,0.0004814420535694808,-0.0025261598639190197,0.0,-0.5186824202537537,0.0
27.335,-0.4324553906917572,-0.5229114294052124,0.0004814420535694808,-0.0025261598639190197,0.0,-0.5186824202537537,0.0
27.336000000000002,-0.4324553906917572,-0.5229114294052124,0.0004814420535694808,-0.0025261598639190197,0.0,-0.5186824202537537,0.0
27.337,-0.4324553906917572,-0.5229114294052124,0.0004814420535694808,-0.0025261598639190197,0.0,-0.5186824202537537,0.0
27.338,-0.4324553906917572,-0.5229114294052124,0.0004814420535694808,-0.0025261598639190197,0.0,-0.5186824202537537,0.0
27.339000000000002,-0.4324553906917572,-0.5229114294052124,0.0004814420535694808,-0.0025261598639190197,0.0,-0.5186824202537537,0.0
27.34,-0.4324553906917572,-0.5229114294052124,0.0004814420535694808,-0.0025261598639190197,0.0,-0.5186824202537537,0.0
27.341,-0.4324553906917572,-0.5229114294052124,0.0004814420535694808,-0.0025261598639190197,0.0,-0.5186824202537537,0.0
27.342000000000002,-0.4324553906917572,-0.5229114294052124,0.0004814420535694808,-0.0025261598639190197,0.0,-0.5186824202537537,0.0
27.343,-0.4324553906917572,-0.5229114294052124,0.0004814420535694808,-0.0025261598639190197,0.0,-0.5186824202537537,0.0
27.344,-0.4324553906917572,-0.5229114294052124,0.0004814420535694808,-0.0025261598639190197,0.0,-0.5186824202537537,0.0
27.345000000000002,-0.4324553906917572,-0.5229114294052124,0.0004814420535694808,-0.0025261598639190197,0.0,-0.5186824202537537,0.0
27.346,-0.4324553906917572,-0.5229114294052124,0.0004814420535694808,-0.0025261598639190197,0.0,-0.5186824202537537,0.0
27.347,-0.4324553906917572,-0.5229114294052124,0.0004814420535694808,-0.0025261598639190197,0.0,-0.5186824202537537,0.0
27.348000000000003,-0.4324553906917572,-0.5229114294052124,0.0004814420535694808,-0.0025261598639190197,0.0,-0.5186824202537537,0.0
27.349,-0.4324553906917572,-0.5229114294052124,0.0004814420535694808,-0.0025261598639190197,0.0,-0.5186824202537537,0.0
27.35,-0.4324553906917572,-0.5229114294052124,0.0004814420535694808,-0.0025261598639190197,0.0,-0.5186824202537537,0.0
27.351000000000003,-0.4324553906917572,-0.5229114294052124,0.0004814420535694808,-0.0025261598639190197,0.0,-0.5186824202537537,0.0
27.352,-0.4324553906917572,-0.5229114294052124,0.0004814420535694808,-0.0025261598639190197,0.0,-0.5186824202537537,0.0
27.353,-0.4324553906917572,-0.5229114294052124,0.0004814420535694808,-0.0025261598639190197,0.0,-0.5186824202537537,0.0
27.354000000000003,-0.4324553906917572,-0.5229114294052124,0.0004814420535694808,-0.0025261598639190197,0.0,-0.5186824202537537,0.0
27.355,-0.4324553906917572,-0.5229114294052124,0.0004814420535694808,-0.0025261598639190197,0.0,-0.5186824202537537,0.0
27.356,-0.4324553906917572,-0.5229114294052124,0.0004814420535694808,-0.0025261598639190197,0.0,-0.5186824202537537,0.0
27.357000000000003,-0.4324553906917572,-0.5229114294052124,0.0004814420535694808,-0.0025261598639190197,0.0,-0.5186824202537537,0.0
27.358,-0.4324553906917572,-0.5229114294052124,0.0004814420535694808,-0.0025261598639190197,0.0,-0.5186824202537537,0.0
27.359,-0.4324553906917572,-0.5229114294052124,0.0004814420535694808,-0.0025261598639190197,0.0,-0.5186824202537537,0.0
27.360000000000003,-0.4324553906917572,-0.5229114294052124,0.0004814420535694808,-0.0025261598639190197,0.0,-0.5186824202537537,0.0
27.361,-0.4324553906917572,-0.5229114294052124,0.0004814420535694808,-0.0025261598639190197,0.0,-0.5186824202537537,0.0
27.362000000000002,-0.4324553906917572,-0.5229114294052124,0.0004814420535694808,-0.0025261598639190197,0.0,-0.5186824202537537,0.0
27.363,-0.4324553906917572,-0.5229114294052124,0.0004814420535694808,-0.0025261598639190197,0.0,-0.5186824202537537,0.0
27.364,-0.4324553906917572,-0.5229114294052124,0.0004814420535694808,-0.0025261598639190197,0.0,-0.5186824202537537,0.0
27.365000000000002,-0.4324553906917572,-0.5229114294052124,0.0004814420535694808,-0.0025261598639190197,0.0,-0.5186824202537537,0.0
27.366,-0.4324553906917572,-0.5229114294052124,0.0004814420535694808,-0.0025261598639190197,0.0,-0.5186824202537537,0.0
27.367,-0.4324553906917572,-0.5229114294052124,0.0004814420535694808,-0.0025261598639190197,0.0,-0.5186824202537537,0.0
27.368000000000002,-0.4324553906917572,-0.5229114294052124,0.0004814420535694808,-0.0025261598639190197,0.0,-0.5186824202537537,0.0
27.369,-0.4324553906917572,-0.5229114294052124,0.0004814420535694808,-0.0025261598639190197,0.0,-0.5186824202537537,0.0
27.37,-0.4324553906917572,-0.5229114294052124,0.0004814420535694808,-0.0025261598639190197,0.0,-0.5186824202537537,0.0
27.371000000000002,-0.4324553906917572,-0.5229114294052124,0.0004814420535694808,-0.0025261598639190197,0.0,-0.5186824202537537,0.0
27.372,-0.4324553906917572,-0.5229114294052124,0.0004814420535694808,-0.0025261598639190197,0.0,-0.5186824202537537,0.0
27.373,-0.4324553906917572,-0.5229114294052124,0.0004814420535694808,-0.0025261598639190197,0.0,-0.5186824202537537,0.0
27.374000000000002,-0.4324553906917572,-0.5229114294052124,0.0004814420535694808,-0.0025261598639190197,0.0,-0.5186824202537537,0.0
27.375,-0.4324553906917572,-0.5229114294052124,0.0004814420535694808,-0.0025261598639190197,0.0,-0.5186824202537537,0.0
27.376,-0.4324553906917572,-0.5229114294052124,0.0004814420535694808,-0.0025261598639190197,0.0,-0.5186824202537537,0.0
27.377000000000002,-0.4324553906917572,-0.5229114294052124,0.0004814420535694808,-0.0025261598639190197,0.0,-0.5186824202537537,0.0
27.378,-0.4324553906917572,-0.5229114294052124,0.0004814420535694808,-0.0025261598639190197,0.0,-0.5186824202537537,0.0
27.379,-0.4324553906917572,-0.5229114294052124,0.0004814420535694808,-0.0025261598639190197,0.0,-0.5186824202537537,0.0
27.380000000000003,-0.4324553906917572,-0.5229114294052124,0.0004814420535694808,-0.0025261598639190197,0.0,-0.5186824202537537,0.0
27.381,-0.4324553906917572,-0.5229114294052124,0.0004814420535694808,-0.0025261598639190197,0.0,-0.5186824202537537,0.0
27.382,-0.4324553906917572,-0.5229114294052124,0.0004814420535694808,-0.0025261598639190197,0.0,-0.5186824202537537,0.0
27.383000000000003,-0.4324553906917572,-0.5229114294052124,0.0004814420535694808,-0.0025261598639190197,0.0,-0.5186824202537537,0.0
27.384,-0.4324553906917572,-0.5229114294052124,0.0004814420535694808,-0.0025261598639190197,0.0,-0.5186824202537537,0.0
27.385,-0.4324553906917572,-0.5229114294052124,0.0004814420535694808,-0.0025261598639190197,0.0,-0.5186824202537537,0.0
27.386000000000003,-0.4324553906917572,-0.5229114294052124,0.0004814420535694808,-0.0025261598639190197,0.0,-0.5186824202537537,0.0
27.387,-0.4324553906917572,-0.5229114294052124,0.0004814420535694808,-0.0025261598639190197,0.0,-0.5186824202537537,0.0
27.388,-0.4324553906917572,-0.5229114294052124,0.0004814420535694808,-0.0025261598639190197,0.0,-0.5186824202537537,0.0
27.389000000000003,-0.4324553906917572,-0.5229114294052124,0.0004814420535694808,-0.0025261598639190197,0.0,-0.5186824202537537,0.0
27.39,-0.4324553906917572,-0.5229114294052124,0.0004814420535694808,-0.0025261598639190197,0.0,-0.5186824202537537,0.0
27.391000000000002,-0.4324553906917572,-0.5229114294052124,0.0004814420535694808,-0.0025261598639190197,0.0,-0.5186824202537537,0.0
27.392000000000003,-0.4324553906917572,-0.5229114294052124,0.0004814420535694808,-0.0025261598639190197,0.0,-0.5186824202537537,0.0
27.393,-0.4324553906917572,-0.5229114294052124,0.0004814420535694808,-0.0025261598639190197,0.0,-0.5186824202537537,0.0
27.394000000000002,-0.4324553906917572,-0.5229114294052124,0.0004814420535694808,-0.0025261598639190197,0.0,-0.5186824202537537,0.0
27.395,-0.4324553906917572,-0.5229114294052124,0.0004814420535694808,-0.0025261598639190197,0.0,-0.5186824202537537,0.0
27.396,-0.4324553906917572,-0.5229114294052124,0.0004814420535694808,-0.0025261598639190197,0.0,-0.5186824202537537,0.0
27.397000000000002,-0.4324553906917572,-0.5229114294052124,0.0004814420535694808,-0.0025261598639190197,0.0,-0.5186824202537537,0.0
27.398,-0.4324553906917572,-0.5229114294052124,0.0004814420535694808,-0.0025261598639190197,0.0,-0.5186824202537537,0.0
27.399,-0.4324553906917572,-0.5229114294052124,0.0004814420535694808,-0.0025261598639190197,0.0,-0.5186824202537537,0.0
27.400000000000002,-0.4324553906917572,-0.5229114294052124,0.0004814420535694808,-0.0025261598639190197,0.0,-0.5186824202537537,0.0
27.401,-0.4324553906917572,-0.5229114294052124,0.0004814420535694808,-0.0025261598639190197,0.0,-0.5186824202537537,0.0
27.402,-0.4324553906917572,-0.5229114294052124,0.0004814420535694808,-0.0025261598639190197,0.0,-0.5186824202537537,0.0
27.403000000000002,-0.4324553906917572,-0.5229114294052124,0.0004814420535694808,-0.0025261598639190197,0.0,-0.5186824202537537,0.0
27.404,-0.4324553906917572,-0.5229114294052124,0.0004814420535694808,-0.0025261598639190197,0.0,-0.5186824202537537,0.0
27.405,-0.4324553906917572,-0.5229114294052124,0.0004814420535694808,-0.0025261598639190197,0.0,-0.5186824202537537,0.0
27.406000000000002,-0.4324553906917572,-0.5229114294052124,0.0004814420535694808,-0.0025261598639190197,0.0,-0.5186824202537537,0.0
27.407,-0.4324553906917572,-0.5229114294052124,0.0004814420535694808,-0.0025261598639190197,0.0,-0.5186824202537537,0.0
27.408,-0.4324553906917572,-0.5229114294052124,0.0004814420535694808,-0.0025261598639190197,0.0,-0.5186824202537537,0.0
27.409000000000002,-0.4324553906917572,-0.5229114294052124,0.0004814420535694808,-0.0025261598639190197,0.0,-0.5186824202537537,0.0
27.41,-0.4324553906917572,-0.5229114294052124,0.0004814420535694808,-0.0025261598639190197,0.0,-0.5186824202537537,0.0
27.411,-0.4324553906917572,-0.5229114294052124,0.0004814420535694808,-0.0025261598639190197,0.0,-0.5186824202537537,0.0
27.412000000000003,-0.4324553906917572,-0.5229114294052124,0.0004814420535694808,-0.0025261598639190197,0.0,-0.5186824202537537,0.0
27.413,-0.4324553906917572,-0.5229114294052124,0.0004814420535694808,-0.0025261598639190197,0.0,-0.5186824202537537,0.0
27.414,-0.4324553906917572,-0.5229114294052124,0.0004814420535694808,-0.0025261598639190197,0.0,-0.5186824202537537,0.0
27.415000000000003,-0.4324553906917572,-0.5229114294052124,0.0004814420535694808,-0.0025261598639190197,0.0,-0.5186824202537537,0.0
27.416,-0.4324553906917572,-0.5229114294052124,0.0004814420535694808,-0.0025261598639190197,0.0,-0.5186824202537537,0.0
27.417,-0.4324553906917572,-0.5229114294052124,0.0004814420535694808,-0.0025261598639190197,0.0,-0.5186824202537537,0.0
27.418000000000003,-0.4324553906917572,-0.5229114294052124,0.0004814420535694808,-0.0025261598639190197,0.0,-0.5186824202537537,0.0
27.419,-0.4324553906917572,-0.5229114294052124,0.0004814420535694808,-0.0025261598639190197,0.0,-0.5186824202537537,0.0
27.42,-0.4324553906917572,-0.5229114294052124,0.0004814420535694808,-0.0025261598639190197,0.0,-0.5186824202537537,0.0
27.421000000000003,-0.4324553906917572,-0.5229114294052124,0.0004814420535694808,-0.0025261598639190197,0.0,-0.5186824202537537,0.0
27.422,-0.4324553906917572,-0.5229114294052124,0.0004814420535694808,-0.0025261598639190197,0.0,-0.5186824202537537,0.0
27.423000000000002,-0.4324553906917572,-0.5229114294052124,0.0004814420535694808,-0.0025261598639190197,0.0,-0.5186824202537537,0.0
27.424000000000003,-0.4324553906917572,-0.5229114294052124,0.0004814420535694808,-0.0025261598639190197,0.0,-0.5186824202537537,0.0
27.425,-0.4324553906917572,-0.5229114294052124,0.0004814420535694808,-0.0025261598639190197,0.0,-0.5186824202537537,0.0
27.426000000000002,-0.4324553906917572,-0.5229114294052124,0.0004814420535694808,-0.0025261598639190197,0.0,-0.5186824202537537,0.0
27.427,-0.4324553906917572,-0.5229114294052124,0.0004814420535694808,-0.0025261598639190197,0.0,-0.5186824202537537,0.0
27.428,-0.4324553906917572,-0.5229114294052124,0.0004814420535694808,-0.0025261598639190197,0.0,-0.5186824202537537,0.0
27.429000000000002,-0.4324553906917572,-0.5229114294052124,0.0004814420535694808,-0.0025261598639190197,0.0,-0.5186824202537537,0.0
27.43,-0.4324553906917572,-0.5229114294052124,0.0004814420535694808,-0.0025261598639190197,0.0,-0.5186824202537537,0.0
27.431,-0.4324553906917572,-0.5229114294052124,0.0004814420535694808,-0.0025261598639190197,0.0,-0.5186824202537537,0.0
27.432000000000002,-0.4324553906917572,-0.5229114294052124,0.0004814420535694808,-0.0025261598639190197,0.0,-0.5186824202537537,0.0
27.433,-0.4324553906917572,-0.5229114294052124,0.0004814420535694808,-0.0025261598639190197,0.0,-0.5186824202537537,0.0
27.434,-0.4324553906917572,-0.5229114294052124,0.0004814420535694808,-0.0025261598639190197,0.0,-0.5186824202537537,0.0
27.435000000000002,-0.4324553906917572,-0.5229114294052124,0.0004814420535694808,-0.0025261598639190197,0.0,-0.5186824202537537,0.0
27.436,-0.4324553906917572,-0.5229114294052124,0.0004814420535694808,-0.0025261598639190197,0.0,-0.5186824202537537,0.0
27.437,-0.4324553906917572,-0.5229114294052124,0.0004814420535694808,-0.0025261598639190197,0.0,-0.5186824202537537,0.0
27.438000000000002,-0.4324553906917572,-0.5229114294052124,0.0004814420535694808,-0.0025261598639190197,0.0,-0.5186824202537537,0.0
27.439,-0.4324553906917572,-0.5229114294052124,0.0004814420535694808,-0.0025261598639190197,0.0,-0.5186824202537537,0.0
27.44,-0.4324553906917572,-0.5229114294052124,0.0004814420535694808,-0.0025261598639190197,0.0,-0.5186824202537537,0.0
27.441000000000003,-0.4324553906917572,-0.5229114294052124,0.0004814420535694808,-0.0025261598639190197,0.0,-0.5186824202537537,0.0
27.442,-0.4324553906917572,-0.5229114294052124,0.0004814420535694808,-0.0025261598639190197,0.0,-0.5186824202537537,0.0
27.443,-0.4324553906917572,-0.5229114294052124,0.0004814420535694808,-0.0025261598639190197,0.0,-0.5186824202537537,0.0
27.444000000000003,-0.4324553906917572,-0.5229114294052124,0.0004814420535694808,-0.0025261598639190197,0.0,-0.5186824202537537,0.0
27.445,-0.4324553906917572,-0.5229114294052124,0.0004814420535694808,-0.0025261598639190197,0.0,-0.5186824202537537,0.0
27.446,-0.4324553906917572,-0.5229114294052124,0.0004814420535694808,-0.0025261598639190197,0.0,-0.5186824202537537,0.0
27.447000000000003,-0.4324553906917572,-0.5229114294052124,0.0004814420535694808,-0.0025261598639190197,0.0,-0.5186824202537537,0.0
27.448,-0.4324553906917572,-0.5229114294052124,0.0004814420535694808,-0.0025261598639190197,0.0,-0.5186824202537537,0.0
27.449,-0.4324553906917572,-0.5229114294052124,0.0004814420535694808,-0.0025261598639190197,0.0,-0.5186824202537537,0.0
27.450000000000003,-0.4324553906917572,-0.5229114294052124,0.0004814420535694808,-0.0025261598639190197,0.0,-0.5186824202537537,0.0
27.451,-0.4324553906917572,-0.5229114294052124,0.0004814420535694808,-0.0025261598639190197,0.0,-0.5186824202537537,0.0
27.452,-0.4324553906917572,-0.5229114294052124,0.0004814420535694808,-0.0025261598639190197,0.0,-0.5186824202537537,0.0
27.453000000000003,-0.4324553906917572,-0.5229114294052124,0.0004814420535694808,-0.0025261598639190197,0.0,-0.5186824202537537,0.0
27.454,-0.4324553906917572,-0.5229114294052124,0.0004814420535694808,-0.0025261598639190197,0.0,-0.5186824202537537,0.0
27.455000000000002,-0.4324553906917572,-0.5229114294052124,0.0004814420535694808,-0.0025261598639190197,0.0,-0.5186824202537537,0.0
27.456000000000003,-0.4324553906917572,-0.5229114294052124,0.0004814420535694808,-0.0025261598639190197,0.0,-0.5186824202537537,0.0
27.457,-0.4324553906917572,-0.5229114294052124,0.0004814420535694808,-0.0025261598639190197,0.0,-0.5186824202537537,0.0
27.458000000000002,-0.4324553906917572,-0.5229114294052124,0.0004814420535694808,-0.0025261598639190197,0.0,-0.5186824202537537,0.0
27.459,-0.4324553906917572,-0.5229114294052124,0.0004814420535694808,-0.0025261598639190197,0.0,-0.5186824202537537,0.0
27.46,-0.4324553906917572,-0.5229114294052124,0.0004814420535694808,-0.0025261598639190197,0.0,-0.5186824202537537,0.0
27.461000000000002,-0.4324553906917572,-0.5229114294052124,0.0004814420535694808,-0.0025261598639190197,0.0,-0.5186824202537537,0.0
27.462,-0.4324553906917572,-0.5229114294052124,0.0004814420535694808,-0.0025261598639190197,0.0,-0.5186824202537537,0.0
27.463,-0.4324553906917572,-0.5229114294052124,0.0004814420535694808,-0.0025261598639190197,0.0,-0.5186824202537537,0.0
27.464000000000002,-0.4324553906917572,-0.5229114294052124,0.0004814420535694808,-0.0025261598639190197,0.0,-0.5186824202537537,0.0
27.465,-0.4324553906917572,-0.5229114294052124,0.0004814420535694808,-0.0025261598639190197,0.0,-0.5186824202537537,0.0
27.466,-0.4324553906917572,-0.5229114294052124,0.0004814420535694808,-0.0025261598639190197,0.0,-0.5186824202537537,0.0
27.467000000000002,-0.4324553906917572,-0.5229114294052124,0.0004814420535694808,-0.0025261598639190197,0.0,-0.5186824202537537,0.0
27.468,-0.4324553906917572,-0.5229114294052124,0.0004814420535694808,-0.0025261598639190197,0.0,-0.5186824202537537,0.0
27.469,-0.4324553906917572,-0.5229114294052124,0.0004814420535694808,-0.0025261598639190197,0.0,-0.5186824202537537,0.0
27.470000000000002,-0.4324553906917572,-0.5229114294052124,0.0004814420535694808,-0.0025261598639190197,0.0,-0.5186824202537537,0.0
27.471,-0.4324553906917572,-0.5229114294052124,0.0004814420535694808,-0.0025261598639190197,0.0,-0.5186824202537537,0.0
27.472,-0.4324553906917572,-0.5229114294052124,0.0004814420535694808,-0.0025261598639190197,0.0,-0.5186824202537537,0.0
27.473000000000003,-0.4324553906917572,-0.5229114294052124,0.0004814420535694808,-0.0025261598639190197,0.0,-0.5186824202537537,0.0
27.474,-0.4324553906917572,-0.5229114294052124,0.0004814420535694808,-0.0025261598639190197,0.0,-0.5186824202537537,0.0
27.475,-0.4324553906917572,-0.5229114294052124,0.0004814420535694808,-0.0025261598639190197,0.0,-0.5186824202537537,0.0
27.476000000000003,-0.4324553906917572,-0.5229114294052124,0.0004814420535694808,-0.0025261598639190197,0.0,-0.5186824202537537,0.0
27.477,-0.4324553906917572,-0.5229114294052124,0.0004814420535694808,-0.0025261598639190197,0.0,-0.5186824202537537,0.0
27.478,-0.4324553906917572,-0.5229114294052124,0.0004814420535694808,-0.0025261598639190197,0.0,-0.5186824202537537,0.0
27.479000000000003,-0.4324553906917572,-0.5229114294052124,0.0004814420535694808,-0.0025261598639190197,0.0,-0.5186824202537537,0.0
27.48,-0.4324553906917572,-0.5229114294052124,0.0004814420535694808,-0.0025261598639190197,0.0,-0.5186824202537537,0.0
27.481,-0.4324553906917572,-0.5229114294052124,0.0004814420535694808,-0.0025261598639190197,0.0,-0.5186824202537537,0.0
27.482000000000003,-0.4324553906917572,-0.5229114294052124,0.0004814420535694808,-0.0025261598639190197,0.0,-0.5186824202537537,0.0
27.483,-0.4324553906917572,-0.5229114294052124,0.0004814420535694808,-0.0025261598639190197,0.0,-0.5186824202537537,0.0
27.484,-0.4324553906917572,-0.5229114294052124,0.0004814420535694808,-0.0025261598639190197,0.0,-0.5186824202537537,0.0
27.485000000000003,-0.4324553906917572,-0.5229114294052124,0.0004814420535694808,-0.0025261598639190197,0.0,-0.5186824202537537,0.0
27.486,-0.4324553906917572,-0.5229114294052124,0.0004814420535694808,-0.0025261598639190197,0.0,-0.5186824202537537,0.0
27.487000000000002,-0.4324553906917572,-0.5229114294052124,0.0004814420535694808,-0.0025261598639190197,0.0,-0.5186824202537537,0.0
27.488,-0.4324553906917572,-0.5229114294052124,0.0004814420535694808,-0.0025261598639190197,0.0,-0.5186824202537537,0.0
27.489,-0.4324553906917572,-0.5229114294052124,0.0004814420535694808,-0.0025261598639190197,0.0,-0.5186824202537537,0.0
27.490000000000002,-0.4324553906917572,-0.5229114294052124,0.0004814420535694808,-0.0025261598639190197,0.0,-0.5186824202537537,0.0
27.491,-0.4324553906917572,-0.5229114294052124,0.0004814420535694808,-0.0025261598639190197,0.0,-0.5186824202537537,0.0
27.492,-0.4324553906917572,-0.5229114294052124,0.0004814420535694808,-0.0025261598639190197,0.0,-0.5186824202537537,0.0
27.493000000000002,-0.4324553906917572,-0.5229114294052124,0.0004814420535694808,-0.0025261598639190197,0.0,-0.5186824202537537,0.0
27.494,-0.4324553906917572,-0.5229114294052124,0.0004814420535694808,-0.0025261598639190197,0.0,-0.5186824202537537,0.0
27.495,-0.4324553906917572,-0.5229114294052124,0.0004814420535694808,-0.0025261598639190197,0.0,-0.5186824202537537,0.0
27.496000000000002,-0.4324553906917572,-0.5229114294052124,0.0004814420535694808,-0.0025261598639190197,0.0,-0.5186824202537537,0.0
27.497,-0.4324553906917572,-0.5229114294052124,0.0004814420535694808,-0.0025261598639190197,0.0,-0.5186824202537537,0.0
27.498,-0.4324553906917572,-0.5229114294052124,0.0004814420535694808,-0.0025261598639190197,0.0,-0.5186824202537537,0.0
27.499000000000002,-0.4324553906917572,-0.5229114294052124,0.0004814420535694808,-0.0025261598639190197,0.0,-0.5186824202537537,0.0
27.5,-0.4324553906917572,-0.5229114294052124,0.0004814420535694808,-0.0025261598639190197,0.0,-0.5186824202537537,0.0
27.501,-0.4324553906917572,-0.5229114294052124,0.0004814420535694808,-0.0025261598639190197,0.0,-0.5186824202537537,0.0
27.502000000000002,-0.4324553906917572,-0.5229114294052124,0.0004814420535694808,-0.0025261598639190197,0.0,-0.5186824202537537,0.0
27.503,-0.4324553906917572,-0.5229114294052124,0.0004814420535694808,-0.0025261598639190197,0.0,-0.5186824202537537,0.0
27.504,-0.4324553906917572,-0.5229114294052124,0.0004814420535694808,-0.0025261598639190197,0.0,-0.5186824202537537,0.0
27.505000000000003,-0.4324553906917572,-0.5229114294052124,0.0004814420535694808,-0.0025261598639190197,0.0,-0.5186824202537537,0.0
27.506,-0.4324553906917572,-0.5229114294052124,0.0004814420535694808,-0.0025261598639190197,0.0,-0.5186824202537537,0.0
27.507,-0.4324553906917572,-0.5229114294052124,0.0004814420535694808,-0.0025261598639190197,0.0,-0.5186824202537537,0.0
27.508000000000003,-0.4324553906917572,-0.5229114294052124,0.0004814420535694808,-0.0025261598639190197,0.0,-0.5186824202537537,0.0
27.509,-0.4324553906917572,-0.5229114294052124,0.0004814420535694808,-0.0025261598639190197,0.0,-0.5186824202537537,0.0
27.51,-0.4324553906917572,-0.5229114294052124,0.0004814420535694808,-0.0025261598639190197,0.0,-0.5186824202537537,0.0
27.511000000000003,-0.4324553906917572,-0.5229114294052124,0.0004814420535694808,-0.0025261598639190197,0.0,-0.5186824202537537,0.0
27.512,-0.4324553906917572,-0.5229114294052124,0.0004814420535694808,-0.0025261598639190197,0.0,-0.5186824202537537,0.0
27.513,-0.4324553906917572,-0.5229114294052124,0.0004814420535694808,-0.0025261598639190197,0.0,-0.5186824202537537,0.0
27.514000000000003,-0.4324553906917572,-0.5229114294052124,0.0004814420535694808,-0.0025261598639190197,0.0,-0.5186824202537537,0.0
27.515,-0.4324553906917572,-0.5229114294052124,0.0004814420535694808,-0.0025261598639190197,0.0,-0.5186824202537537,0.0
27.516000000000002,-0.4324553906917572,-0.5229114294052124,0.0004814420535694808,-0.0025261598639190197,0.0,-0.5186824202537537,0.0
27.517000000000003,-0.4324553906917572,-0.5229114294052124,0.0004814420535694808,-0.0025261598639190197,0.0,-0.5186824202537537,0.0
27.518,-0.4324553906917572,-0.5229114294052124,0.0004814420535694808,-0.0025261598639190197,0.0,-0.5186824202537537,0.0
27.519000000000002,-0.4324553906917572,-0.5229114294052124,0.0004814420535694808,-0.0025261598639190197,0.0,-0.5186824202537537,0.0
27.52,-0.4324553906917572,-0.5229114294052124,0.0004814420535694808,-0.0025261598639190197,0.0,-0.5186824202537537,0.0
27.521,-0.4324553906917572,-0.5229114294052124,0.0004814420535694808,-0.0025261598639190197,0.0,-0.5186824202537537,0.0
27.522000000000002,-0.4324553906917572,-0.5229114294052124,0.0004814420535694808,-0.0025261598639190197,0.0,-0.5186824202537537,0.0
27.523,-0.4324553906917572,-0.5229114294052124,0.0004814420535694808,-0.0025261598639190197,0.0,-0.5186824202537537,0.0
27.524,-0.4324553906917572,-0.5229114294052124,0.0004814420535694808,-0.0025261598639190197,0.0,-0.5186824202537537,0.0
27.525000000000002,-0.4324553906917572,-0.5229114294052124,0.0004814420535694808,-0.0025261598639190197,0.0,-0.5186824202537537,0.0
27.526,-0.4324553906917572,-0.5229114294052124,0.0004814420535694808,-0.0025261598639190197,0.0,-0.5186824202537537,0.0
27.527,-0.4324553906917572,-0.5229114294052124,0.0004814420535694808,-0.0025261598639190197,0.0,-0.5186824202537537,0.0
27.528000000000002,-0.4324553906917572,-0.5229114294052124,0.0004814420535694808,-0.0025261598639190197,0.0,-0.5186824202537537,0.0
27.529,-0.4324553906917572,-0.5229114294052124,0.0004814420535694808,-0.0025261598639190197,0.0,-0.5186824202537537,0.0
27.53,-0.4324553906917572,-0.5229114294052124,0.0004814420535694808,-0.0025261598639190197,0.0,-0.5186824202537537,0.0
27.531000000000002,-0.4324553906917572,-0.5229114294052124,0.0004814420535694808,-0.0025261598639190197,0.0,-0.5186824202537537,0.0
27.532,-0.4324553906917572,-0.5229114294052124,0.0004814420535694808,-0.0025261598639190197,0.0,-0.5186824202537537,0.0
27.533,-0.4324553906917572,-0.5229114294052124,0.0004814420535694808,-0.0025261598639190197,0.0,-0.5186824202537537,0.0
27.534000000000002,-0.4324553906917572,-0.5229114294052124,0.0004814420535694808,-0.0025261598639190197,0.0,-0.5186824202537537,0.0
27.535,-0.4324553906917572,-0.5229114294052124,0.0004814420535694808,-0.0025261598639190197,0.0,-0.5186824202537537,0.0
27.536,-0.4324553906917572,-0.5229114294052124,0.0004814420535694808,-0.0025261598639190197,0.0,-0.5186824202537537,0.0
27.537000000000003,-0.4324553906917572,-0.5229114294052124,0.0004814420535694808,-0.0025261598639190197,0.0,-0.5186824202537537,0.0
27.538,-0.4324553906917572,-0.5229114294052124,0.0004814420535694808,-0.0025261598639190197,0.0,-0.5186824202537537,0.0
27.539,-0.4324553906917572,-0.5229114294052124,0.0004814420535694808,-0.0025261598639190197,0.0,-0.5186824202537537,0.0
27.540000000000003,-0.4324553906917572,-0.5229114294052124,0.0004814420535694808,-0.0025261598639190197,0.0,-0.5186824202537537,0.0
27.541,-0.4324553906917572,-0.5229114294052124,0.0004814420535694808,-0.0025261598639190197,0.0,-0.5186824202537537,0.0
27.542,-0.4324553906917572,-0.5229114294052124,0.0004814420535694808,-0.0025261598639190197,0.0,-0.5186824202537537,0.0
27.543000000000003,-0.4324553906917572,-0.5229114294052124,0.0004814420535694808,-0.0025261598639190197,0.0,-0.5186824202537537,0.0
27.544,-0.4324553906917572,-0.5229114294052124,0.0004814420535694808,-0.0025261598639190197,0.0,-0.5186824202537537,0.0
27.545,-0.4324553906917572,-0.5229114294052124,0.0004814420535694808,-0.0025261598639190197,0.0,-0.5186824202537537,0.0
27.546000000000003,-0.4324553906917572,-0.5229114294052124,0.0004814420535694808,-0.0025261598639190197,0.0,-0.5186824202537537,0.0
27.547,-0.4324553906917572,-0.5229114294052124,0.0004814420535694808,-0.0025261598639190197,0.0,-0.5186824202537537,0.0
27.548000000000002,-0.4324553906917572,-0.5229114294052124,0.0004814420535694808,-0.0025261598639190197,0.0,-0.5186824202537537,0.0
27.549000000000003,-0.4324553906917572,-0.5229114294052124,0.0004814420535694808,-0.0025261598639190197,0.0,-0.5186824202537537,0.0
27.55,-0.4324553906917572,-0.5229114294052124,0.0004814420535694808,-0.0025261598639190197,0.0,-0.5186824202537537,0.0
27.551000000000002,-0.4324553906917572,-0.5229114294052124,0.0004814420535694808,-0.0025261598639190197,0.0,-0.5186824202537537,0.0
27.552,-0.4324553906917572,-0.5229114294052124,0.0004814420535694808,-0.0025261598639190197,0.0,-0.5186824202537537,0.0
27.553,-0.4324553906917572,-0.5229114294052124,0.0004814420535694808,-0.0025261598639190197,0.0,-0.5186824202537537,0.0
27.554000000000002,-0.4324553906917572,-0.5229114294052124,0.0004814420535694808,-0.0025261598639190197,0.0,-0.5186824202537537,0.0
27.555,-0.4324553906917572,-0.5229114294052124,0.0004814420535694808,-0.0025261598639190197,0.0,-0.5186824202537537,0.0
27.556,-0.4324553906917572,-0.5229114294052124,0.0004814420535694808,-0.0025261598639190197,0.0,-0.5186824202537537,0.0
27.557000000000002,-0.4324553906917572,-0.5229114294052124,0.0004814420535694808,-0.0025261598639190197,0.0,-0.5186824202537537,0.0
27.558,-0.4324553906917572,-0.5229114294052124,0.0004814420535694808,-0.0025261598639190197,0.0,-0.5186824202537537,0.0
27.559,-0.4324553906917572,-0.5229114294052124,0.0004814420535694808,-0.0025261598639190197,0.0,-0.5186824202537537,0.0
27.560000000000002,-0.4324553906917572,-0.5229114294052124,0.0004814420535694808,-0.0025261598639190197,0.0,-0.5186824202537537,0.0
27.561,-0.4324553906917572,-0.5229114294052124,0.0004814420535694808,-0.0025261598639190197,0.0,-0.5186824202537537,0.0
27.562,-0.4324553906917572,-0.5229114294052124,0.0004814420535694808,-0.0025261598639190197,0.0,-0.5186824202537537,0.0
27.563000000000002,-0.4324553906917572,-0.5229114294052124,0.0004814420535694808,-0.0025261598639190197,0.0,-0.5186824202537537,0.0
27.564,-0.4324553906917572,-0.5229114294052124,0.0004814420535694808,-0.0025261598639190197,0.0,-0.5186824202537537,0.0
27.565,-0.4324553906917572,-0.5229114294052124,0.0004814420535694808,-0.0025261598639190197,0.0,-0.5186824202537537,0.0
27.566000000000003,-0.4324553906917572,-0.5229114294052124,0.0004814420535694808,-0.0025261598639190197,0.0,-0.5186824202537537,0.0
27.567,-0.4324553906917572,-0.5229114294052124,0.0004814420535694808,-0.0025261598639190197,0.0,-0.5186824202537537,0.0
27.568,-0.4324553906917572,-0.5229114294052124,0.0004814420535694808,-0.0025261598639190197,0.0,-0.5186824202537537,0.0
27.569000000000003,-0.4324553906917572,-0.5229114294052124,0.0004814420535694808,-0.0025261598639190197,0.0,-0.5186824202537537,0.0
27.57,-0.4324553906917572,-0.5229114294052124,0.0004814420535694808,-0.0025261598639190197,0.0,-0.5186824202537537,0.0
27.571,-0.4324553906917572,-0.5229114294052124,0.0004814420535694808,-0.0025261598639190197,0.0,-0.5186824202537537,0.0
27.572000000000003,-0.4324553906917572,-0.5229114294052124,0.0004814420535694808,-0.0025261598639190197,0.0,-0.5186824202537537,0.0
27.573,-0.4324553906917572,-0.5229114294052124,0.0004814420535694808,-0.0025261598639190197,0.0,-0.5186824202537537,0.0
27.574,-0.4324553906917572,-0.5229114294052124,0.0004814420535694808,-0.0025261598639190197,0.0,-0.5186824202537537,0.0
27.575000000000003,-0.4324553906917572,-0.5229114294052124,0.0004814420535694808,-0.0025261598639190197,0.0,-0.5186824202537537,0.0
27.576,-0.4324553906917572,-0.5229114294052124,0.0004814420535694808,-0.0025261598639190197,0.0,-0.5186824202537537,0.0
27.577,-0.4324553906917572,-0.5229114294052124,0.0004814420535694808,-0.0025261598639190197,0.0,-0.5186824202537537,0.0
27.578000000000003,-0.4324553906917572,-0.5229114294052124,0.0004814420535694808,-0.0025261598639190197,0.0,-0.5186824202537537,0.0
27.579,-0.4324553906917572,-0.5229114294052124,0.0004814420535694808,-0.0025261598639190197,0.0,-0.5186824202537537,0.0
27.580000000000002,-0.4324553906917572,-0.5229114294052124,0.0004814420535694808,-0.0025261598639190197,0.0,-0.5186824202537537,0.0
27.581000000000003,-0.4324553906917572,-0.5229114294052124,0.0004814420535694808,-0.0025261598639190197,0.0,-0.5186824202537537,0.0
27.582,-0.4324553906917572,-0.5229114294052124,0.0004814420535694808,-0.0025261598639190197,0.0,-0.5186824202537537,0.0
27.583000000000002,-0.4324553906917572,-0.5229114294052124,0.0004814420535694808,-0.0025261598639190197,0.0,-0.5186824202537537,0.0
27.584,-0.4324553906917572,-0.5229114294052124,0.0004814420535694808,-0.0025261598639190197,0.0,-0.5186824202537537,0.0
27.585,-0.4324553906917572,-0.5229114294052124,0.0004814420535694808,-0.0025261598639190197,0.0,-0.5186824202537537,0.0
27.586000000000002,-0.4324553906917572,-0.5229114294052124,0.0004814420535694808,-0.0025261598639190197,0.0,-0.5186824202537537,0.0
27.587,-0.4324553906917572,-0.5229114294052124,0.0004814420535694808,-0.0025261598639190197,0.0,-0.5186824202537537,0.0
27.588,-0.4324553906917572,-0.5229114294052124,0.0004814420535694808,-0.0025261598639190197,0.0,-0.5186824202537537,0.0
27.589000000000002,-0.4324553906917572,-0.5229114294052124,0.0004814420535694808,-0.0025261598639190197,0.0,-0.5186824202537537,0.0
27.59,-0.4324553906917572,-0.5229114294052124,0.0004814420535694808,-0.0025261598639190197,0.0,-0.5186824202537537,0.0
27.591,-0.4324553906917572,-0.5229114294052124,0.0004814420535694808,-0.0025261598639190197,0.0,-0.5186824202537537,0.0
27.592000000000002,-0.4324553906917572,-0.5229114294052124,0.0004814420535694808,-0.0025261598639190197,0.0,-0.5186824202537537,0.0
27.593,-0.4324553906917572,-0.5229114294052124,0.0004814420535694808,-0.0025261598639190197,0.0,-0.5186824202537537,0.0
27.594,-0.4324553906917572,-0.5229114294052124,0.0004814420535694808,-0.0025261598639190197,0.0,-0.5186824202537537,0.0
27.595000000000002,-0.4324553906917572,-0.5229114294052124,0.0004814420535694808,-0.0025261598639190197,0.0,-0.5186824202537537,0.0
27.596,-0.4324553906917572,-0.5229114294052124,0.0004814420535694808,-0.0025261598639190197,0.0,-0.5186824202537537,0.0
27.597,-0.4324553906917572,-0.5229114294052124,0.0004814420535694808,-0.0025261598639190197,0.0,-0.5186824202537537,0.0
27.598000000000003,-0.4324553906917572,-0.5229114294052124,0.0004814420535694808,-0.0025261598639190197,0.0,-0.5186824202537537,0.0
27.599,-0.4324553906917572,-0.5229114294052124,0.0004814420535694808,-0.0025261598639190197,0.0,-0.5186824202537537,0.0
27.6,-0.4324553906917572,-0.5229114294052124,0.0004814420535694808,-0.0025261598639190197,0.0,-0.5186824202537537,0.0
27.601000000000003,-0.4324553906917572,-0.5229114294052124,0.0004814420535694808,-0.0025261598639190197,0.0,-0.5186824202537537,0.0
27.602,-0.4324553906917572,-0.5229114294052124,0.0004814420535694808,-0.0025261598639190197,0.0,-0.5186824202537537,0.0
27.603,-0.4324553906917572,-0.5229114294052124,0.0004814420535694808,-0.0025261598639190197,0.0,-0.5186824202537537,0.0
27.604000000000003,-0.4324553906917572,-0.5229114294052124,0.0004814420535694808,-0.0025261598639190197,0.0,-0.5186824202537537,0.0
27.605,-0.4324553906917572,-0.5229114294052124,0.0004814420535694808,-0.0025261598639190197,0.0,-0.5186824202537537,0.0
27.606,-0.4324553906917572,-0.5229114294052124,0.0004814420535694808,-0.0025261598639190197,0.0,-0.5186824202537537,0.0
27.607000000000003,-0.4324553906917572,-0.5229114294052124,0.0004814420535694808,-0.0025261598639190197,0.0,-0.5186824202537537,0.0
27.608,-0.4324553906917572,-0.5229114294052124,0.0004814420535694808,-0.0025261598639190197,0.0,-0.5186824202537537,0.0
27.609,-0.4324553906917572,-0.5229114294052124,0.0004814420535694808,-0.0025261598639190197,0.0,-0.5186824202537537,0.0
27.610000000000003,-0.4324553906917572,-0.5229114294052124,0.0004814420535694808,-0.0025261598639190197,0.0,-0.5186824202537537,0.0
27.611,-0.4324553906917572,-0.5229114294052124,0.0004814420535694808,-0.0025261598639190197,0.0,-0.5186824202537537,0.0
27.612000000000002,-0.4324553906917572,-0.5229114294052124,0.0004814420535694808,-0.0025261598639190197,0.0,-0.5186824202537537,0.0
27.613,-0.4324553906917572,-0.5229114294052124,0.0004814420535694808,-0.0025261598639190197,0.0,-0.5186824202537537,0.0
27.614,-0.4324553906917572,-0.5229114294052124,0.0004814420535694808,-0.0025261598639190197,0.0,-0.5186824202537537,0.0
27.615000000000002,-0.4324553906917572,-0.5229114294052124,0.0004814420535694808,-0.0025261598639190197,0.0,-0.5186824202537537,0.0
27.616,-0.4324553906917572,-0.5229114294052124,0.0004814420535694808,-0.0025261598639190197,0.0,-0.5186824202537537,0.0
27.617,-0.4324553906917572,-0.5229114294052124,0.0004814420535694808,-0.0025261598639190197,0.0,-0.5186824202537537,0.0
27.618000000000002,-0.4324553906917572,-0.5229114294052124,0.0004814420535694808,-0.0025261598639190197,0.0,-0.5186824202537537,0.0
27.619,-0.4324553906917572,-0.5229114294052124,0.0004814420535694808,-0.0025261598639190197,0.0,-0.5186824202537537,0.0
27.62,-0.4324553906917572,-0.5229114294052124,0.0004814420535694808,-0.0025261598639190197,0.0,-0.5186824202537537,0.0
27.621000000000002,-0.4324553906917572,-0.5229114294052124,0.0004814420535694808,-0.0025261598639190197,0.0,-0.5186824202537537,0.0
27.622,-0.4324553906917572,-0.5229114294052124,0.0004814420535694808,-0.0025261598639190197,0.0,-0.5186824202537537,0.0
27.623,-0.4324553906917572,-0.5229114294052124,0.0004814420535694808,-0.0025261598639190197,0.0,-0.5186824202537537,0.0
27.624000000000002,-0.4324553906917572,-0.5229114294052124,0.0004814420535694808,-0.0025261598639190197,0.0,-0.5186824202537537,0.0
27.625,-0.4324553906917572,-0.5229114294052124,0.0004814420535694808,-0.0025261598639190197,0.0,-0.5186824202537537,0.0
27.626,-0.4324553906917572,-0.5229114294052124,0.0004814420535694808,-0.0025261598639190197,0.0,-0.5186824202537537,0.0
