marzuk-umich/fetch_joint_controls/test/commanded_all_joints.csv
Time,Joint_0,Joint_1,Joint_2,Joint_3,Joint_4,Joint_5,Joint_6
74.477,0.001022649696096778,0.001022555399686098,5.434283707472787e-07,3.7055553548270836e-05,0.0,1.9493396393954754e-05,0.0
74.602,0.004090598784387112,0.004090221598744392,2.1737134829891147e-06,0.00014822221419308335,0.0,7.797358557581902e-05,0.0
74.727,0.009203847264871001,0.009202998597174883,4.890855336725508e-06,0.00033349998193443753,0.0,0.00017544056754559278,0.0
74.852,0.016362395137548447,0.01636088639497757,8.694853931956459e-06,0.0005928888567723334,0.0,0.00031189434230327606,0.0
75.581,0.02473009959794581,0.02351901587098837,7.707842087256722e-06,0.0008612508081569104,0.0,-0.0005516615929082036,0.0
75.706,0.03347081784158945,0.028632517904043198,-3.948047378798947e-06,0.0010734478055383079,0.0,-0.0034542237408459187,0.0
75.831,0.04258454986847937,0.031701392494142056,-2.6272814466210548e-05,0.001229479848916526,0.0,-0.008395792101509869,0.0
75.956,0.05207129567861557,0.03272563964128494,-5.926645917497808e-05,0.0013293469382915646,0.0,-0.015376366674900055,0.0
76.125,0.05086213909089565,0.03272539796307683,-5.4475448735047394e-05,0.0013203738617448835,0.0,-0.014376356964930892,0.0
76.25,0.0472346693277359,0.03272467292845249,-4.010241741525533e-05,0.0012934546321048401,0.0,-0.011376327835023403,0.0
76.375,0.041188886389136314,0.03272346453741193,-1.6147365215601894e-05,0.0012485892493714346,0.0,-0.0063762792851775885,0.0
76.5,0.03272479027509689,0.03272177278995514,1.7389707863912918e-05,0.0011857777135446668,0.0,0.0006237886846065521,0.0
76.628,0.0231028460257221,0.031697186292149127,7.761511506032548e-05,0.0011335486269672401,0.0,0.00762101705186069,0.0
76.753,0.013583518681116402,0.028627293650060892,0.00018163516961067216,0.001120430591981858,0.0,0.012612546794116497,0.0
76.878,0.004166808241279796,0.023512094863690436,0.000329449871514953,0.0011464236085885204,0.0,0.015598377911373973,0.0
77.003,-0.005147285293787718,0.016351589933037758,0.0005210592207731679,0.0012115276767872274,0.0,0.016578510403633118,0.0
77.131,-0.014318855159217492,0.007146111805923283,0.0006853511272311152,0.0012479725155571941,0.0,0.017555624595843256,0.0
77.256,-0.02330799459014088,-0.004104006569832563,0.0007512135007345933,0.001187987843877636,0.0,0.02053240081295371,0.0
77.381,-0.03211470358655788,-0.01739876519422978,0.0007186463412836019,0.0010315736617485527,0.0,0.025508839054964483,0.0
77.506,-0.040738982148468494,-0.03273816406726837,0.0005876496488781413,0.0007787299691699445,0.0,0.03248493932187557,0.0
77.633,-0.04861601802986115,-0.05012253683526069,0.0004559085168693855,0.0005415151026681997,0.0,0.0414487348170951,0.0
77.758,-0.05518099898472428,-0.06955221714451909,0.00042110803860850865,0.0004319873987697065,0.0,0.05238825874403119,0.0
77.883,-0.06043392501305789,-0.09102720499504358,0.0004832482140955108,0.0004501468574744649,0.0,0.06530351110268384,0.0
78.008,-0.06437479611486197,-0.11454750038683414,0.0006423290433303919,0.000595993478782475,0.0,0.08019449189305305,0.0
78.136,-0.06663709925487638,-0.13900865270989016,0.0007972324797265173,0.0007115700718713924,0.0,0.095110121415928,0.0
78.261,-0.06685432139784098,-0.16330621135421097,0.0008468404766972526,0.000638919445918873,0.0,0.10809931997209787,0.0
78.386,-0.06502646254375577,-0.1874401763197966,0.0007911530342425976,0.00037804160092491657,0.0,0.11916208756156266,0.0
78.511,-0.061153522692620754,-0.21141054760664701,0.0006301701523625525,-7.106346311047673e-05,0.0,0.12829842418432236,0.0
78.638,-0.05523538857232779,-0.23427646863274276,0.0005006535570828419,-0.0004858284519286826,0.0,0.13552493118913844,0.0
78.763,-0.04727194691076875,-0.25509708281606436,0.0005393649744291906,-0.0006436860712710768,0.0,0.14085820992477238,0.0
78.888,-0.03726319770794362,-0.2738723901566118,0.0007463044044015987,-0.0005446363211376593,0.0,0.14429826039122418,0.0
79.013,-0.025209140963852406,-0.2906023906543851,0.0011214718470000662,-0.00018867920152842999,0.0,0.14584508258849382,0.0
79.14,-0.026843729778192937,-0.2886389722698368,0.001064061665886129,-0.0002492305520718219,0.0,0.145770056580659,0.0
79.265,-0.03174749622121453,-0.282748717116192,0.0008918311225443176,-0.00043088460370199755,0.0,0.14554497855715454,0.0
79.39,-0.03992044029291719,-0.2729316251934506,0.0006047802169746319,-0.000733641356418957,0.0,0.14516984851798043,0.0
79.515,-0.051362561993300915,-0.25918769650161266,0.00020290894917707192,-0.0011575008102227002,0.0,0.14464466646313667,0.0
79.642,-0.06341664819046855,-0.24351675296202302,-0.00032255219457510975,-0.0017034495904226787,0.0,0.1446832938818261,0.0
79.767,-0.07342548575252295,-0.22791861649602652,-0.0009803727280086605,-0.002372474322328344,0.0,0.14599959226325154,0.0
79.892,-0.0813890746794641,-0.21239328710362315,-0.0017705526511235803,-0.003164575005939696,0.0,0.148593561607413,0.0
80.017,-0.08730741497129202,-0.19694076478481293,-0.002693091963919869,-0.004079751641256735,0.0,0.15246520191431046,0.0
80.145,-0.09118047752417624,-0.18162791551003465,-0.0035487878690219077,-0.004934308322845027,0.0,0.15596964012365788,0.0
80.27,-0.09300823323428631,-0.16652160524972714,-0.0041384375690540764,-0.005544549145270139,0.0,0.15746200317516923,0.0
80.395,-0.09279068210162222,-0.1516218340038904,-0.0044620410640163755,-0.005910474108532071,0.0,0.1569422910688445,0.0
80.52,-0.09052782412618399,-0.13692860177252442,-0.004519598353908805,-0.006032083212630823,0.0,0.15441050380468369,0.0
80.647,-0.08621966536156833,-0.12222962432861095,-0.004591336921748734,-0.006163470563478768,0.0,0.15149772982113063,0.0
80.772,-0.079866211861372,-0.10731261744513176,-0.004957484250553534,-0.0065587302669882774,0.0,0.14983505755662918,0.0
80.897,-0.07146746362559497,-0.09217758112208685,-0.005618040340323205,-0.007217862323159352,0.0,0.14942248701117933,0.0
81.022,-0.06102342065423727,-0.07682451535947621,-0.006573005191057746,-0.008140866731991991,0.0,0.15026001818478107,0.0
81.149,-0.048534080386161804,-0.06132584378065076,-0.007499362329781434,-0.009047727595316246,0.0,0.15123228845186532,0.0
81.274,-0.033999440260231495,-0.04575399000896141,-0.008074095283518545,-0.009658429014962167,0.0,0.15122393518686295,0.0
81.399,-0.017419500276446342,-0.030108954044408165,-0.00829720405226908,-0.009972970990929753,0.0,0.15023495838977396,0.0
81.524,0.001205739565193653,-0.014390735886991024,-0.008168688636033039,-0.009991353523219004,0.0,0.14826535806059837,0.0
81.651,0.021876273676753044,0.00134226832051354,-0.00806094468180163,-0.010019072447903454,0.0,0.14624332208768465,0.0
81.776,0.04459209647029638,0.017031662435329054,-0.00834636783656606,-0.010361623601056635,0.0,0.14509703835938126,0.0
81.901,0.06935320794582367,0.03267744645745552,-0.00902495810032633,-0.011019006982678548,0.0,0.1448265068756882,0.0
82.026,0.0961596081033349,0.04827962038689293,-0.01009671547308244,-0.01199122259276919,0.0,0.1454317276366055,0.0
82.153,0.12501130579039454,0.06387010261914838,-0.011164093607021641,-0.012929806776810437,0.0,0.14613729080883786,0.0
82.278,0.15590830985456705,0.07948081154972897,-0.011829546154331183,-0.01348629588028416,0.0,0.14616778655909002,0.0
82.403,0.18885062029585242,0.09511174717863469,-0.012093073115011066,-0.01366068990319036,0.0,0.14552321488736197,0.0
82.528,0.22383823711425066,0.11076290950586554,-0.01195467448906129,-0.013452988845529035,0.0,0.14420357579365373,0.0
82.655,0.2608711358625442,0.12642915545848155,-0.011810418484401453,-0.01329314080066979,0.0,0.14269239241548348,0.0
82.78,0.2999492920935154,0.14210534196354274,-0.012056373308951152,-0.013611093861982226,0.0,0.14147318789036945,0.0
82.905,0.3410727058071643,0.15779146902104912,-0.012692538962710387,-0.014406848029466346,0.0,0.14054596221831162,0.0
83.03,0.3842413770034909,0.1734875366310007,-0.013718915445679158,-0.015680403303122148,0.0,0.13991071539931,0.0
83.163,0.42945518158376217,0.19021119266471942,-0.014739784989160398,-0.01696156174875796,0.0,0.13944251044813427,0.0
83.288,0.476713995449245,0.20898008499352727,-0.015359429824457038,-0.017780125432182103,0.0,0.13901641037955415,0.0
83.413,0.5260178185999393,0.22979421361742425,-0.015577849951569078,-0.018136094353394583,0.0,0.1386324151935696,0.0
83.538,0.5773666510358453,0.25265357853641035,-0.015395045370496518,-0.018029468512395397,0.0,0.13829052489018068,0.0
83.665,0.628715334343724,0.27755815460477606,-0.015228524455324077,-0.01786494597035926,0.0,0.13794995323041803,0.0
83.79,0.6780187101103365,0.3045079166768119,-0.015495795580136473,-0.01804722478846088,0.0,0.13756991397531237,0.0
83.915,0.725276778335683,0.3335028647525178,-0.016196858744933706,-0.018576304966700263,0.0,0.1371504071248637,0.0
84.04,0.7704895390197635,0.3645429988318938,-0.017331713949715777,-0.019452186505077407,0.0,0.13669143267907202,0.0
84.169,0.8136570006608963,0.39762831134794396,-0.018453177652645536,-0.02037464866589289,0.0,0.13618969594790542,0.0
84.294,0.8547791717574,0.4327587947336724,-0.019114066311885836,-0.0210434707114473,0.0,0.135641902241332,0.0
84.419,0.8938560523092747,0.4699344489890791,-0.019314379927436676,-0.021458652641740628,0.0,0.13504805155935173,0.0
84.544,0.9308876423165202,0.5091552741141641,-0.019054118499298056,-0.02162019445677288,0.0,0.13440814390196465,0.0
84.671,0.9658739442238584,0.5504208611419017,-0.018796655739151902,-0.0217474707387737,0.0,0.13374008041273555,0.0
84.796,0.998814960476011,0.5937308011052664,-0.019005365358680137,-0.02205985606997274,0.0,0.13306176223522925,0.0
84.921,1.029710691072978,0.6390850940042583,-0.019680247357882763,-0.022557350450369995,0.0,0.13237318936944575,0.0
85.046,1.0585611360147595,0.6864837398388772,-0.02082130173675978,-0.02323995387996547,0.0,0.13167436181538505,0.0
85.175,1.0853662856388837,0.73388194934887,-0.021979343570365018,-0.023962498496985063,0.0,0.13097858311539312,0.0
85.3,1.1101261302828789,0.7792349332739832,-0.022705187933752313,-0.024579816439654678,0.0,0.13029915681181592,0.0
85.425,1.132840669946745,0.8225426916142169,-0.022998834826921666,-0.025091907707974315,0.0,0.12963608290465345,0.0
85.55,1.1535099046304822,0.8638052243695711,-0.022860284249873075,-0.025498772301943973,0.0,0.1289893613939057,0.0
85.678,1.1721338334027678,0.9030224996422476,-0.02270291349168474,-0.02587632693212072,0.0,0.1283582832029424,0.0
85.803,1.1887124553322792,0.9401944855344482,-0.022940099841434858,-0.02630048830906162,0.0,0.12774213925513322,0.0
85.928,1.2032457704190165,0.9753211820461729,-0.02357184329912343,-0.026771256432766677,0.0,0.12714092955047818,0.0
86.053,1.2157337786629796,1.0084025891774218,-0.024598143864750455,-0.02728863130323589,0.0,0.12655465408897726,0.0
86.18,1.2261764835566282,1.0394387144951907,-0.025662892176569585,-0.02782003625179641,0.0,0.12597758566118955,0.0
86.305,1.234573888592422,1.0684295655664755,-0.026409978872834472,-0.028332894609775394,0.0,0.12540399705767413,0.0
86.43,1.240925993770361,1.0953751423912763,-0.026839403953545116,-0.028827206377172843,0.0,0.124833888278431,0.0
86.555,1.245232799090445,1.120275444969593,-0.026951167418701516,-0.029302971553988755,0.0,0.12426725932346017,0.0
86.684,1.2448222796665505,1.1172907367877087,-0.026957050836529106,-0.029244660068798112,0.0,0.1243378704538145,0.0
86.809,1.2435907213948667,1.1083366122420557,-0.026974701090011877,-0.029069725613226183,0.0,0.12454970384487751,0.0
86.934,1.2415381242753938,1.093413071332634,-0.027004118179149827,-0.028778168187272968,0.0,0.1249027594966492,0.0
87.059,1.2386644883081317,1.0725201140594436,-0.02704530210394296,-0.028369987790938467,0.0,0.12539703740912955,0.0
87.186,1.2343576800776646,1.0476198000724253,-0.02712937666228754,-0.027903898446027142,0.0,0.12596221203301639,0.0
87.311,1.2280055661685765,1.0206741890215199,-0.027287465652079845,-0.027438614174343456,0.0,0.1265279578190075,0.0
87.436,1.2196081465808675,0.9916832809067273,-0.02751956907331987,-0.02697413497588741,0.0,0.1270942747671029,0.0
87.561,1.2091654213145375,0.9606470757280476,-0.02782568692600762,-0.026510460850659,0.0,0.12766116287730256,0.0
87.688,1.1966773914173245,0.927565652764315,-0.028103255623591394,-0.026068026680604817,0.0,0.12822661782001887,0.0
87.813,1.1821440579369664,0.8924390912943636,-0.0282497115795195,-0.02566726734767144,0.0,0.1287886352656642,0.0
87.938,1.1655654208734632,0.8552673913181934,-0.028265054793791933,-0.025308182851858874,0.0,0.12934721521423853,0.0
88.063,1.1469414802268147,0.8160505528358044,-0.028149285266408697,-0.024990773193167115,0.0,0.12990235766574187,0.0
88.192,1.1262722359970212,0.7747885800381482,-0.028015978709390765,-0.0246392142712466,0.0,0.130457091355197,0.0
88.317,1.1035576881840825,0.7314814771161764,-0.027978710834759113,-0.024177681985747768,0.0,0.1310144450176267,0.0
88.442,1.0787978367879987,0.686129244069889,-0.02803748164251374,-0.023606176336670615,0.0,0.131574418653031,0.0
88.567,1.0519926818087697,0.6387318808992859,-0.028192291132654645,-0.022924697324015142,0.0,0.13213701226140984,0.0
88.695,1.0231422227807343,0.5913308256167511,-0.028358324689634173,-0.022242216102767998,0.0,0.1327018085638656,0.0
88.82,0.9922464592382312,0.5459675162346684,-0.028450767697904666,-0.02166770382791583,0.0,0.13326839028150061,0.0
88.945,0.9593053911812603,0.5026419527530379,-0.028469620157466125,-0.021201160499458638,0.0,0.1338367574143149,0.0
89.07,0.9243190186098218,0.4613541351718595,-0.028414882068318548,-0.020842586117396422,0.0,0.13440690996230842,0.0
89.198,0.8872873606160283,0.4221076157882635,-0.02835214246852047,-0.020514494432518404,0.0,0.1349780700792067,0.0
89.323,0.8482104362919927,0.38490594689938007,-0.028346990396130423,-0.020139399195613805,0.0,0.13554945991873524,0.0
89.448,0.8070882456377149,0.34974912850520923,-0.028399425851148408,-0.019717300406682625,0.0,0.13612107948089402,0.0
89.573,0.7639207886531949,0.316637160605751,-0.028509448833574424,-0.019248198065724864,0.0,0.13669292876568306,0.0
89.7,0.7187080471776426,0.28557025670670555,-0.028630961679027678,-0.018754698158772953,0.0,0.13726417597700902,0.0
89.825,0.6714500030502677,0.2565486303137732,-0.028717866723127372,-0.018259406671859324,0.0,0.13783398931877855,0.0
89.95,0.6221466562710702,0.22957228142695385,-0.028770163965873508,-0.017762323604983976,0.0,0.13840236879099166,0.0
90.075,0.5707980068400502,0.20464121004624758,-0.028787853407266084,-0.01726344895814691,0.0,0.13896931439364835,0.0
90.203,0.5174118874128908,0.18175512978996267,-0.028797944774396456,-0.016776964652763127,0.0,0.13953544030344034,0.0
90.328,0.4619961306452751,0.16091375427640742,-0.028827447794355976,-0.01631705261024763,0.0,0.14010136069705936,0.0
90.453,0.4045507365372032,0.14211708350558183,-0.028876362467144645,-0.015883712830600416,0.0,0.14066707557450542,0.0
90.578,0.345075705088675,0.1253651174774859,-0.028944688792762463,-0.015476945313821489,0.0,0.1412325849357785,0.0
90.706,0.35263693635351956,0.1273313191845773,-0.028934934773758414,-0.015526130486989587,0.0,0.14116190911038018,0.0
90.831,0.37532063014805317,0.13322992430585145,-0.028905672716746267,-0.01567368600649388,0.0,0.1409498816341852,0.0
90.956,0.41312678647227585,0.14306093284130839,-0.02885690262172602,-0.01591961187233437,0.0,0.14059650250719358,0.0
91.081,0.4660554053261876,0.1568243447909481,-0.02878862448869768,-0.01626390808451106,0.0,0.1401017717294053,0.0
91.21,0.5275667039677501,0.1735762980133586,-0.028708529960340456,-0.01664496127386883,0.0,0.13953621520839476,0.0
91.335,0.5911208996549249,0.192372930367128,-0.028624310679333576,-0.017001158071252576,0.0,0.13897035885173636,0.0
91.46,0.656717992387712,0.21321424185225624,-0.028535966645677036,-0.017332498476662295,0.0,0.1384042026594301,0.0
91.585,0.7243579821661115,0.23610023246874334,-0.028443497859370837,-0.017638982490097987,0.0,0.13783774663147597,0.0
91.713,0.7940406382549554,0.2600759927845502,-0.02835235733141417,-0.01794425680736822,0.0,0.1372712198720052,0.0
91.838,0.865765729919076,0.2841866133676376,-0.028267998072806222,-0.018271968124281557,0.0,0.136704851485149,0.0
91.963,0.9395332571584731,0.30843209421800566,-0.028190420083546996,-0.018622116440838,0.0,0.13613864147090737,0.0
92.088,1.015343219973147,0.3328124353356543,-0.028119623363636492,-0.018994701757037546,0.0,0.13557258982928033,0.0
92.215,1.0911517530912533,0.3562382007839915,-0.02804983682267448,-0.019385061758384836,0.0,0.13500675555195585,0.0
92.34,1.1649149912409484,0.37761995462642517,-0.027975289370260725,-0.019788534130384505,0.0,0.1344411976306219,0.0
92.465,1.2366329344222322,0.39695769686295534,-0.027895981006395232,-0.020205118873036554,0.0,0.1338759160652785,0.0
92.59,1.3063055826351047,0.414251427493582,-0.027811911731078,-0.020634815986340982,0.0,0.1333109108559256,0.0
92.718,1.373932930873707,0.42953373722048127,-0.027727775773655594,-0.021068164201778927,0.0,0.13274560628806853,0.0
92.843,1.4395149741321802,0.4428372167458292,-0.027648267363474588,-0.021495702250831528,0.0,0.1321794266472125,0.0
92.968,1.5030517124105245,0.45416186606962583,-0.02757338650053498,-0.021917430133498783,0.0,0.1316123719333575,0.0
93.093,1.5645431457087398,0.46350768519187113,-0.02750313318483677,-0.022333347849780694,0.0,0.13104444214650357,0.0
93.22,1.623989833286032,0.4728517564544745,-0.027432648245394375,-0.022736462190096063,0.0,0.1304763764644008,0.0
93.345,1.6813923344016075,0.4841711621993454,-0.027357072511222214,-0.023119779944863694,0.0,0.12990891406479932,0.0
93.47,1.736750649055466,0.4974659024264838,-0.027276405982320284,-0.023483301114083588,0.0,0.12934205494769913,0.0
93.595,1.7900647772476077,0.5127359771358897,-0.027190648658688588,-0.023827025697755744,0.0,0.12877579911310022,0.0
94.323,1.8429480629274622,0.5294419089950679,-0.027104725688559483,-0.02417207971075186,0.0,0.12821038947839725,0.0
94.448,1.897013850044459,0.5470442206715234,-0.02702356222016533,-0.024539589167943632,0.0,0.12764606896098485,0.0
94.573,1.9522621385985985,0.565542912165256,-0.02694715825350613,-0.02492955406933106,0.0,0.12708283756086303,0.0
94.698,2.0086929285898805,0.5849379834762658,-0.026875513788581884,-0.025341974414914148,0.0,0.12652069527803178,0.0
95.427,2.0662138035404496,0.6041878675350745,-0.026804975311279122,-0.025761163853985636,0.0,0.1259588198190329,0.0
95.552,2.1247323469724506,0.6222509972722037,-0.02673188930748438,-0.02617143603583827,0.0,0.12539638889040816,0.0
95.677,2.1842485588858835,0.6391273726876534,-0.026656255777197657,-0.026572790960472048,0.0,0.12483340249215757,0.0
95.802,2.2447624392807484,0.6548169937814237,-0.026578074720418954,-0.026965228627886972,0.0,0.12426986062428114,0.0
