marzuk-umich/fetch_joint_controls/test/commanded_all_joints_velocity.csv
Time,Joint_0,Joint_1,Joint_2,Joint_3,Joint_4,Joint_5,Joint_6
26.804000000000002,0.0,0.0,0.0,0.0,0.0,0.0,0.0
26.805,0.0005235987901687622,0.0005235753059387207,8.870052988640964e-08,-2.9479563818313183e-07,0.0,0.00040017250180244445,0.0
26.806,0.0010471975803375245,0.0010471506118774415,1.7740105977281927e-07,-5.895912763662637e-07,0.0,0.0008003450036048889,0.0
26.807000000000002,0.0015707963705062868,0.0015707259178161623,2.6610158965922894e-07,-8.843869145493954e-07,0.0,0.0012005175054073333,0.0
26.808,0.002094395160675049,0.002094301223754883,3.5480211954563855e-07,-1.1791825527325273e-06,0.0,0.0016006900072097778,0.0
26.809,0.002617993950843811,0.0026178765296936035,4.4350264943204815e-07,-1.4739781909156592e-06,0.0,0.002000862509012222,0.0
26.810000000000002,0.0031415927410125733,0.003141451835632324,5.322031793184578e-07,-1.768773829098791e-06,0.0,0.0024010350108146666,0.0
26.811,0.0036651915311813354,0.0036650271415710448,6.209037092048674e-07,-2.063569467281923e-06,0.0,0.002801207512617111,0.0
26.812,0.004188790321350098,0.004188602447509766,7.09604239091277e-07,-2.3583651054650546e-06,0.0,0.0032013800144195556,0.0
26.813000000000002,0.00471238911151886,0.0047121777534484864,7.983047689776866e-07,-2.6531607436481863e-06,0.0,0.003601552516222,0.0
26.814,0.005235987901687622,0.005235753059387207,8.870052988640962e-07,-2.947956381831318e-06,0.0,0.004001725018024444,0.0
26.815,0.005759586691856384,0.005759328365325928,9.75705828750506e-07,-3.2427520200144497e-06,0.0,0.004401897519826888,0.0
26.816000000000003,0.0062831854820251465,0.006282903671264648,1.0644063586369155e-06,-3.5375476581975813e-06,0.0,0.004802070021629332,0.0
26.817,0.006806784272193909,0.006806478977203369,1.1531068885233251e-06,-3.8323432963807134e-06,0.0,0.005202242523431776,0.0
26.818,0.007330383062362671,0.0073300542831420895,1.2418074184097347e-06,-4.127138934563845e-06,0.0,0.0056024150252342204,0.0
26.819,0.007853981852531434,0.007853629589080811,1.3305079482961444e-06,-4.421934572746977e-06,0.0,0.0060025875270366645,0.0
26.82,0.008377580642700196,0.008377204895019532,1.419208478182554e-06,-4.7167302109301084e-06,0.0,0.006402760028839109,0.0
26.821,0.008901179432868958,0.008900780200958252,1.5079090080689636e-06,-5.01152584911324e-06,0.0,0.006802932530641553,0.0
26.822,0.00942477822303772,0.009424355506896973,1.5966095379553732e-06,-5.306321487296372e-06,0.0,0.007203105032443997,0.0
26.823,0.009948377013206482,0.009947930812835694,1.6853100678417828e-06,-5.6011171254795035e-06,0.0,0.007603277534246441,0.0
26.824,0.010471975803375244,0.010471506118774414,1.7740105977281924e-06,-5.895912763662635e-06,0.0,0.008003450036048885,0.0
26.825,0.010995574593544007,0.010995081424713135,1.862711127614602e-06,-6.190708401845767e-06,0.0,0.008403622537851329,0.0
26.826,0.011519173383712769,0.011518656730651855,1.951411657501012e-06,-6.4855040400288985e-06,0.0,0.008803795039653773,0.0
26.827,0.012042772173881531,0.012042232036590576,2.0401121873874214e-06,-6.78029967821203e-06,0.0,0.009203967541456217,0.0
26.828,0.012566370964050293,0.012565807342529297,2.128812717273831e-06,-7.075095316395162e-06,0.0,0.009604140043258661,0.0
26.829,0.013089969754219055,0.013089382648468017,2.2175132471602407e-06,-7.3698909545782935e-06,0.0,0.010004312545061105,0.0
26.830000000000002,0.013613568544387817,0.013612957954406738,2.3062137770466503e-06,-7.664686592761425e-06,0.0,0.01040448504686355,0.0
26.831,0.01413716733455658,0.014136533260345458,2.39491430693306e-06,-7.959482230944558e-06,0.0,0.010804657548665993,0.0
26.832,0.014660766124725342,0.014660108566284179,2.4836148368194695e-06,-8.25427786912769e-06,0.0,0.011204830050468437,0.0
26.833000000000002,0.015184364914894104,0.0151836838722229,2.572315366705879e-06,-8.549073507310823e-06,0.0,0.011605002552270881,0.0
26.834,0.015707963705062868,0.015707259178161622,2.6610158965922887e-06,-8.843869145493955e-06,0.0,0.012005175054073326,0.0
26.835,0.01623156249523163,0.016230834484100343,2.7497164264786983e-06,-9.138664783677088e-06,0.0,0.01240534755587577,0.0
26.836000000000002,0.016755161285400395,0.016754409790039063,2.838416956365108e-06,-9.43346042186022e-06,0.0,0.012805520057678214,0.0
26.837,0.01727876007556916,0.017277985095977784,2.9271174862515175e-06,-9.728256060043353e-06,0.0,0.013205692559480658,0.0
26.838,0.017802358865737923,0.017801560401916505,3.015818016137927e-06,-1.0023051698226485e-05,0.0,0.013605865061283102,0.0
26.839000000000002,0.018325957655906687,0.018325135707855225,3.1045185460243368e-06,-1.0317847336409618e-05,0.0,0.014006037563085546,0.0
26.84,0.01884955644607545,0.018848711013793946,3.1932190759107464e-06,-1.061264297459275e-05,0.0,0.01440621006488799,0.0
26.841,0.019373155236244215,0.019372286319732666,3.281919605797156e-06,-1.0907438612775883e-05,0.0,0.014806382566690434,0.0
26.842000000000002,0.01989675402641298,0.019895861625671387,3.3706201356835656e-06,-1.1202234250959015e-05,0.0,0.015206555068492878,0.0
26.843,0.020420352816581742,0.020419436931610108,3.459320665569975e-06,-1.1497029889142148e-05,0.0,0.015606727570295322,0.0
26.844,0.020943951606750506,0.020943012237548828,3.548021195456385e-06,-1.179182552732528e-05,0.0,0.016006900072097766,0.0
26.845000000000002,0.02146755039691927,0.02146658754348755,3.6367217253427944e-06,-1.2086621165508413e-05,0.0,0.01640707257390021,0.0
26.846,0.021991149187088034,0.02199016284942627,3.725422255229204e-06,-1.2381416803691545e-05,0.0,0.016807245075702654,0.0
26.847,0.022514747977256798,0.02251373815536499,3.8141227851156136e-06,-1.2676212441874678e-05,0.0,0.0172074175775051,0.0
26.848000000000003,0.023038346767425562,0.02303731346130371,3.902823315002024e-06,-1.297100808005781e-05,0.0,0.017607590079307543,0.0
26.849,0.023561945557594326,0.02356088876724243,3.991523844888434e-06,-1.3265803718240943e-05,0.0,0.018007762581109987,0.0
26.85,0.02408554434776309,0.024084464073181152,4.080224374774844e-06,-1.3560599356424076e-05,0.0,0.01840793508291243,0.0
26.851,0.024609143137931853,0.024608039379119873,4.168924904661254e-06,-1.3855394994607208e-05,0.0,0.018808107584714875,0.0
26.852,0.025132741928100617,0.025131614685058593,4.257625434547664e-06,-1.415019063279034e-05,0.0,0.01920828008651732,0.0
26.853,0.02565634071826938,0.025655189990997314,4.346325964434074e-06,-1.4444986270973473e-05,0.0,0.019608452588319763,0.0
26.854,0.026179939508438145,0.026178765296936034,4.435026494320484e-06,-1.4739781909156606e-05,0.0,0.020008625090122207,0.0
26.855,0.02670353829860691,0.026702340602874755,4.523727024206894e-06,-1.5034577547339738e-05,0.0,0.02040879759192465,0.0
26.856,0.027227137088775673,0.027225915908813476,4.612427554093304e-06,-1.532937318552287e-05,0.0,0.020808970093727095,0.0
26.857,0.027750735878944437,0.027749491214752196,4.701128083979714e-06,-1.5624168823706003e-05,0.0,0.02120914259552954,0.0
26.858,0.0282743346691132,0.028273066520690917,4.789828613866124e-06,-1.5918964461889136e-05,0.0,0.021609315097331983,0.0
26.859,0.028797933459281964,0.028796641826629638,4.878529143752534e-06,-1.6213760100072268e-05,0.0,0.022009487599134427,0.0
26.86,0.02932153224945073,0.029320217132568358,4.967229673638944e-06,-1.65085557382554e-05,0.0,0.02240966010093687,0.0
26.861,0.029845131039619492,0.02984379243850708,5.055930203525354e-06,-1.6803351376438533e-05,0.0,0.022809832602739315,0.0
26.862000000000002,0.030368729829788256,0.0303673677444458,5.144630733411764e-06,-1.7098147014621666e-05,0.0,0.02321000510454176,0.0
26.863,0.03089232861995702,0.03089094305038452,5.233331263298174e-06,-1.7392942652804798e-05,0.0,0.023610177606344204,0.0
26.864,0.031415927410125784,0.031414518356323244,5.322031793184584e-06,-1.768773829098793e-05,0.0,0.024010350108146648,0.0
26.865000000000002,0.03193952620029455,0.03193809366226197,5.410732323070994e-06,-1.7982533929171063e-05,0.0,0.02441052260994909,0.0
26.866,0.03246312499046331,0.03246166896820069,5.499432852957404e-06,-1.8277329567354196e-05,0.0,0.024810695111751536,0.0
26.867,0.032986723780632075,0.032985244274139416,5.588133382843814e-06,-1.857212520553733e-05,0.0,0.02521086761355398,0.0
26.868000000000002,0.03351032257080084,0.03350881958007814,5.676833912730224e-06,-1.886692084372046e-05,0.0,0.025611040115356424,0.0
26.869,0.0340339213609696,0.034032394886016865,5.765534442616634e-06,-1.9161716481903593e-05,0.0,0.026011212617158868,0.0
26.87,0.03455752015113837,0.03455597019195559,5.854234972503044e-06,-1.9456512120086726e-05,0.0,0.026411385118961312,0.0
26.871000000000002,0.03508111894130713,0.03507954549789431,5.9429355023894544e-06,-1.975130775826986e-05,0.0,0.026811557620763756,0.0
26.872,0.035604717731475895,0.03560312080383304,6.0316360322758645e-06,-2.004610339645299e-05,0.0,0.0272117301225662,0.0
26.873,0.03612831652164466,0.03612669610977176,6.1203365621622745e-06,-2.0340899034636123e-05,0.0,0.027611902624368644,0.0
26.874000000000002,0.03665191531181342,0.036650271415710485,6.2090370920486845e-06,-2.0635694672819256e-05,0.0,0.02801207512617109,0.0
26.875,0.037175514101982186,0.03717384672164921,6.297737621935095e-06,-2.093049031100239e-05,0.0,0.028412247627973532,0.0
26.876,0.03769911289215095,0.03769742202758793,6.386438151821505e-06,-2.122528594918552e-05,0.0,0.028812420129775976,0.0
26.877000000000002,0.038222711682319714,0.03822099733352666,6.475138681707915e-06,-2.1520081587368654e-05,0.0,0.02921259263157842,0.0
26.878,0.03874631047248848,0.03874457263946538,6.563839211594325e-06,-2.1814877225551786e-05,0.0,0.029612765133380865,0.0
26.879,0.03926990926265724,0.039268147945404105,6.652539741480735e-06,-2.210967286373492e-05,0.0,0.03001293763518331,0.0
26.880000000000003,0.039793508052826006,0.03979172325134283,6.741240271367145e-06,-2.240446850191805e-05,0.0,0.030413110136985753,0.0
26.881,0.04031710684299477,0.040315298557281554,6.829940801253555e-06,-2.2699264140101184e-05,0.0,0.030813282638788197,0.0
26.882,0.040840705633163533,0.04083887386322028,6.918641331139965e-06,-2.2994059778284316e-05,0.0,0.03121345514059064,0.0
26.883,0.0413643044233323,0.041362449169159,7.007341861026375e-06,-2.328885541646745e-05,0.0,0.03161362764239309,0.0
26.884,0.04188790321350106,0.041886024475097726,7.096042390912785e-06,-2.358365105465058e-05,0.0,0.03201380014419553,0.0
26.885,0.042411502003669825,0.04240959978103645,7.184742920799195e-06,-2.3878446692833714e-05,0.0,0.03241397264599798,0.0
26.886,0.04293510079383859,0.042933175086975174,7.273443450685605e-06,-2.4173242331016846e-05,0.0,0.03281414514780042,0.0
26.887,0.04345869958400735,0.0434567503929139,7.362143980572015e-06,-2.446803796919998e-05,0.0,0.033214317649602865,0.0
26.888,0.04398229837417612,0.04398032569885262,7.450844510458425e-06,-2.476283360738311e-05,0.0,0.03361449015140531,0.0
26.889,0.04450589716434488,0.044503901004791346,7.539545040344835e-06,-2.5057629245566244e-05,0.0,0.03401466265320775,0.0
26.89,0.045029495954513644,0.04502747631073007,7.628245570231245e-06,-2.5352424883749376e-05,0.0,0.0344148351550102,0.0
26.891000000000002,0.04555309474468241,0.045551051616668795,7.716946100117654e-06,-2.564722052193251e-05,0.0,0.03481500765681264,0.0
26.892,0.04607669353485117,0.04607462692260752,7.805646630004064e-06,-2.594201616011564e-05,0.0,0.035215180158615085,0.0
26.893,0.046600292325019936,0.04659820222854624,7.894347159890474e-06,-2.6236811798298774e-05,0.0,0.03561535266041753,0.0
26.894000000000002,0.0471238911151887,0.04712177753448497,7.983047689776884e-06,-2.6531607436481906e-05,0.0,0.03601552516221997,0.0
26.895,0.047647489905357464,0.04764535284042369,8.071748219663294e-06,-2.682640307466504e-05,0.0,0.03641569766402242,0.0
26.896,0.04817108869552623,0.048168928146362415,8.160448749549704e-06,-2.712119871284817e-05,0.0,0.03681587016582486,0.0
26.897000000000002,0.04869468748569499,0.04869250345230114,8.249149279436114e-06,-2.7415994351031304e-05,0.0,0.037216042667627305,0.0
26.898,0.049218286275863755,0.04921607875823986,8.337849809322524e-06,-2.7710789989214436e-05,0.0,0.03761621516942975,0.0
26.899,0.04974188506603252,0.04973965406417859,8.426550339208935e-06,-2.800558562739757e-05,0.0,0.038016387671232194,0.0
26.900000000000002,0.05026548385620128,0.05026322937011731,8.515250869095345e-06,-2.83003812655807e-05,0.0,0.03841656017303464,0.0
26.901,0.05078908264637005,0.050786804676056035,8.603951398981755e-06,-2.8595176903763834e-05,0.0,0.03881673267483708,0.0
26.902,0.05131268143653881,0.05131037998199476,8.692651928868165e-06,-2.8889972541946967e-05,0.0,0.039216905176639526,0.0
26.903000000000002,0.051836280226707575,0.051833955287933484,8.781352458754575e-06,-2.91847681801301e-05,0.0,0.03961707767844197,0.0
26.904,0.05235987901687634,0.05235753059387221,8.870052988640985e-06,-2.947956381831323e-05,0.0,0.040017250180244414,0.0
26.905,0.0528834778070451,0.05288110589981093,8.958753518527395e-06,-2.9774359456496364e-05,0.0,0.04041742268204686,0.0
26.906000000000002,0.053407076597213866,0.053404681205749656,9.047454048413805e-06,-3.0069155094679497e-05,0.0,0.0408175951838493,0.0
26.907,0.05393067538738263,0.05392825651168838,9.136154578300215e-06,-3.036395073286263e-05,0.0,0.041217767685651746,0.0
26.908,0.054454274177551394,0.054451831817627104,9.224855108186625e-06,-3.065874637104576e-05,0.0,0.04161794018745419,0.0
26.909000000000002,0.05497787296772016,0.05497540712356583,9.313555638073035e-06,-3.0953542009228894e-05,0.0,0.042018112689256634,0.0
26.91,0.05550147175788892,0.05549898242950455,9.402256167959445e-06,-3.124833764741203e-05,0.0,0.04241828519105908,0.0
26.911,0.056025070548057686,0.056022557735443276,9.490956697845855e-06,-3.154313328559516e-05,0.0,0.04281845769286152,0.0
26.912000000000003,0.05654866933822645,0.056546133041382,9.579657227732265e-06,-3.183792892377829e-05,0.0,0.043218630194663966,0.0
26.913,0.057072268128395214,0.057069708347320725,9.668357757618675e-06,-3.2132724561961424e-05,0.0,0.04361880269646641,0.0
26.914,0.05759586691856398,0.05759328365325945,9.757058287505085e-06,-3.242752020014456e-05,0.0,0.044018975198268855,0.0
26.915,0.05811946570873274,0.05811685895919817,9.845758817391495e-06,-3.272231583832769e-05,0.0,0.0444191477000713,0.0
26.916,0.058643064498901505,0.0586404342651369,9.934459347277905e-06,-3.301711147651082e-05,0.0,0.04481932020187374,0.0
26.917,0.05916666328907027,0.05916400957107562,1.0023159877164315e-05,-3.3311907114693954e-05,0.0,0.04521949270367619,0.0
26.918,0.05969026207923903,0.059687584877014345,1.0111860407050725e-05,-3.360670275287709e-05,0.0,0.04561966520547863,0.0
26.919,0.0602138608694078,0.06021116018295307,1.0200560936937135e-05,-3.390149839106022e-05,0.0,0.046019837707281075,0.0
26.92,0.06073745965957656,0.06073473548889179,1.0289261466823545e-05,-3.419629402924335e-05,0.0,0.04642001020908352,0.0
26.921,0.061261058449745324,0.06125831079483052,1.0377961996709955e-05,-3.4491089667426484e-05,0.0,0.04682018271088596,0.0
26.922,0.06178465723991409,0.06178188610076924,1.0466662526596365e-05,-3.478588530560962e-05,0.0,0.04722035521268841,0.0
26.923000000000002,0.06230825603008285,0.062305461406707965,1.0555363056482775e-05,-3.508068094379275e-05,0.0,0.04762052771449085,0.0
26.924,0.06283185482025161,0.06282903671264668,1.0644063586369185e-05,-3.537547658197588e-05,0.0,0.048020700216293295,0.0
26.925,0.06335545361042037,0.0633526120185854,1.0732764116255595e-05,-3.5670272220159014e-05,0.0,0.04842087271809574,0.0
26.926000000000002,0.06387905240058914,0.06387618732452412,1.0821464646142005e-05,-3.596506785834215e-05,0.0,0.04882104521989818,0.0
26.927,0.0644026511907579,0.06439976263046283,1.0910165176028415e-05,-3.625986349652528e-05,0.0,0.04922121772170063,0.0
26.928,0.06492624998092666,0.06492333793640155,1.0998865705914825e-05,-3.655465913470841e-05,0.0,0.04962139022350307,0.0
26.929000000000002,0.06544984877109543,0.06544691324234027,1.1087566235801236e-05,-3.6849454772891545e-05,0.0,0.050021562725305516,0.0
26.93,0.06597344756126419,0.06597048854827899,1.1176266765687646e-05,-3.714425041107468e-05,0.0,0.05042173522710796,0.0
26.931,0.06649704635143296,0.0664940638542177,1.1264967295574056e-05,-3.743904604925781e-05,0.0,0.050821907728910404,0.0
26.932000000000002,0.06702064514160172,0.06701763916015642,1.1353667825460466e-05,-3.773384168744094e-05,0.0,0.05122208023071285,0.0
26.933,0.06754424393177048,0.06754121446609514,1.1442368355346876e-05,-3.8028637325624075e-05,0.0,0.05162225273251529,0.0
26.934,0.06806784272193925,0.06806478977203385,1.1531068885233286e-05,-3.832343296380721e-05,0.0,0.052022425234317736,0.0
26.935000000000002,0.06859144151210801,0.06858836507797257,1.1619769415119696e-05,-3.861822860199034e-05,0.0,0.05242259773612018,0.0
26.936,0.06911504030227678,0.06911194038391129,1.1708469945006106e-05,-3.891302424017347e-05,0.0,0.052822770237922624,0.0
26.937,0.06963863909244554,0.06963551568985,1.1797170474892516e-05,-3.9207819878356605e-05,0.0,0.05322294273972507,0.0
26.938000000000002,0.0701622378826143,0.07015909099578872,1.1885871004778926e-05,-3.950261551653974e-05,0.0,0.05362311524152751,0.0
26.939,0.07068583667278307,0.07068266630172744,1.1974571534665336e-05,-3.979741115472287e-05,0.0,0.054023287743329956,0.0
26.94,0.07120943546295183,0.07120624160766616,1.2063272064551746e-05,-4.0092206792906e-05,0.0,0.0544234602451324,0.0
26.941000000000003,0.0717330342531206,0.07172981691360487,1.2151972594438156e-05,-4.0387002431089135e-05,0.0,0.054823632746934844,0.0
26.942,0.07225663304328936,0.07225339221954359,1.2240673124324566e-05,-4.068179806927227e-05,0.0,0.05522380524873729,0.0
26.943,0.07278023183345812,0.07277696752548231,1.2329373654210976e-05,-4.09765937074554e-05,0.0,0.05562397775053973,0.0
26.944000000000003,0.07330383062362689,0.07330054283142103,1.2418074184097386e-05,-4.127138934563853e-05,0.0,0.05602415025234218,0.0
26.945,0.07382742941379565,0.07382411813735974,1.2506774713983796e-05,-4.1566184983821665e-05,0.0,0.05642432275414462,0.0
26.946,0.07435102820396441,0.07434769344329846,1.2595475243870206e-05,-4.18609806220048e-05,0.0,0.056824495255947065,0.0
26.947,0.07487462699413318,0.07487126874923718,1.2684175773756616e-05,-4.215577626018793e-05,0.0,0.05722466775774951,0.0
26.948,0.07539822578430194,0.0753948440551759,1.2772876303643026e-05,-4.245057189837106e-05,0.0,0.05762484025955195,0.0
26.949,0.0759218245744707,0.07591841936111461,1.2861576833529436e-05,-4.2745367536554195e-05,0.0,0.0580250127613544,0.0
26.95,0.07644542336463947,0.07644199466705333,1.2950277363415846e-05,-4.304016317473733e-05,0.0,0.05842518526315684,0.0
26.951,0.07696902215480823,0.07696556997299205,1.3038977893302256e-05,-4.333495881292046e-05,0.0,0.058825357764959285,0.0
26.952,0.077492620944977,0.07748914527893076,1.3127678423188666e-05,-4.362975445110359e-05,0.0,0.05922553026676173,0.0
26.953,0.07801621973514576,0.07801272058486948,1.3216378953075076e-05,-4.3924550089286725e-05,0.0,0.05962570276856417,0.0
26.954,0.07853981852531453,0.0785362958908082,1.3305079482961486e-05,-4.421934572746986e-05,0.0,0.06002587527036662,0.0
26.955000000000002,0.07906341731548329,0.07905987119674691,1.3393780012847896e-05,-4.451414136565299e-05,0.0,0.06042604777216906,0.0
26.956,0.07958701610565205,0.07958344650268563,1.3482480542734306e-05,-4.480893700383612e-05,0.0,0.060826220273971505,0.0
26.957,0.08011061489582082,0.08010702180862435,1.3571181072620716e-05,-4.5103732642019255e-05,0.0,0.06122639277577395,0.0
26.958000000000002,0.08063421368598958,0.08063059711456307,1.3659881602507126e-05,-4.539852828020239e-05,0.0,0.061626565277576394,0.0
26.959,0.08115781247615834,0.08115417242050178,1.3748582132393537e-05,-4.569332391838552e-05,0.0,0.06202673777937884,0.0
26.96,0.08168141126632711,0.0816777477264405,1.3837282662279947e-05,-4.598811955656865e-05,0.0,0.06242691028118128,0.0
26.961000000000002,0.08220501005649587,0.08220132303237922,1.3925983192166357e-05,-4.6282915194751785e-05,0.0,0.06282708278298373,0.0
26.962,0.08272860884666464,0.08272489833831793,1.4014683722052767e-05,-4.657771083293492e-05,0.0,0.06322725528478618,0.0
26.963,0.0832522076368334,0.08324847364425665,1.4103384251939177e-05,-4.687250647111805e-05,0.0,0.06362742778658863,0.0
26.964000000000002,0.08377580642700216,0.08377204895019537,1.4192084781825587e-05,-4.716730210930118e-05,0.0,0.06402760028839108,0.0
26.965,0.08429940521717093,0.08429562425613409,1.4280785311711997e-05,-4.7462097747484315e-05,0.0,0.06442777279019353,0.0
26.966,0.08482300400733969,0.0848191995620728,1.4369485841598407e-05,-4.775689338566745e-05,0.0,0.06482794529199598,0.0
26.967000000000002,0.08534660279750846,0.08534277486801152,1.4458186371484817e-05,-4.805168902385058e-05,0.0,0.06522811779379843,0.0
26.968,0.08587020158767722,0.08586635017395024,1.4546886901371227e-05,-4.834648466203371e-05,0.0,0.06562829029560088,0.0
26.969,0.08639380037784598,0.08638992547988895,1.4635587431257637e-05,-4.8641280300216845e-05,0.0,0.06602846279740333,0.0
26.970000000000002,0.08691739916801475,0.08691350078582767,1.4724287961144047e-05,-4.893607593839998e-05,0.0,0.06642863529920578,0.0
26.971,0.08744099795818351,0.08743707609176639,1.4812988491030457e-05,-4.923087157658311e-05,0.0,0.06682880780100824,0.0
26.972,0.08796459674835228,0.0879606513977051,1.4901689020916867e-05,-4.952566721476624e-05,0.0,0.06722898030281069,0.0
26.973000000000003,0.08848819553852104,0.08848422670364382,1.4990389550803277e-05,-4.9820462852949375e-05,0.0,0.06762915280461314,0.0
26.974,0.0890117943286898,0.08900780200958254,1.5079090080689687e-05,-5.011525849113251e-05,0.0,0.06802932530641559,0.0
26.975,0.08953539311885857,0.08953137731552126,1.5167790610576097e-05,-5.041005412931564e-05,0.0,0.06842949780821804,0.0
26.976,0.09005899190902733,0.09005495262145997,1.5256491140462507e-05,-5.070484976749877e-05,0.0,0.06882967031002049,0.0
26.977,0.0905825906991961,0.09057852792739869,1.5345191670348917e-05,-5.0999645405681905e-05,0.0,0.06922984281182294,0.0
26.978,0.09110618948936486,0.09110210323333741,1.5433892200235325e-05,-5.129444104386504e-05,0.0,0.06963001531362539,0.0
26.979,0.09162978827953362,0.09162567853927613,1.5522592730121734e-05,-5.158923668204817e-05,0.0,0.07003018781542784,0.0
26.98,0.09215338706970239,0.09214925384521484,1.5611293260008142e-05,-5.18840323202313e-05,0.0,0.0704303603172303,0.0
26.981,0.09267698585987115,0.09267282915115356,1.569999378989455e-05,-5.2178827958414435e-05,0.0,0.07083053281903275,0.0
26.982,0.09320058465003991,0.09319640445709228,1.578869431978096e-05,-5.247362359659757e-05,0.0,0.0712307053208352,0.0
26.983,0.09372418344020868,0.093719979763031,1.5877394849667367e-05,-5.27684192347807e-05,0.0,0.07163087782263765,0.0
26.984,0.09424778223037744,0.09424355506896971,1.5966095379553776e-05,-5.306321487296383e-05,0.0,0.0720310503244401,0.0
26.985,0.0947713810205462,0.09476713037490843,1.6054795909440184e-05,-5.3358010511146966e-05,0.0,0.07243122282624255,0.0
26.986,0.09529497981071497,0.09529070568084715,1.6143496439326592e-05,-5.36528061493301e-05,0.0,0.072831395328045,0.0
26.987000000000002,0.09581857860088373,0.09581428098678586,1.6232196969213e-05,-5.394760178751323e-05,0.0,0.07323156782984745,0.0
26.988,0.0963421773910525,0.09633785629272458,1.632089749909941e-05,-5.424239742569636e-05,0.0,0.0736317403316499,0.0
26.989,0.09686577618122126,0.0968614315986633,1.6409598028985817e-05,-5.4537193063879496e-05,0.0,0.07403191283345235,0.0
26.990000000000002,0.09738937497139002,0.09738500690460201,1.6498298558872226e-05,-5.483198870206263e-05,0.0,0.0744320853352548,0.0
26.991,0.09791297376155879,0.09790858221054073,1.6586999088758634e-05,-5.512678434024576e-05,0.0,0.07483225783705726,0.0
26.992,0.09843657255172755,0.09843215751647945,1.6675699618645042e-05,-5.542157997842889e-05,0.0,0.07523243033885971,0.0
26.993000000000002,0.09896017134189632,0.09895573282241817,1.676440014853145e-05,-5.5716375616612026e-05,0.0,0.07563260284066216,0.0
26.994,0.09948377013206508,0.09947930812835688,1.685310067841786e-05,-5.601117125479516e-05,0.0,0.07603277534246461,0.0
26.995,0.10000736892223384,0.1000028834342956,1.6941801208304267e-05,-5.630596689297829e-05,0.0,0.07643294784426706,0.0
26.996000000000002,0.10053096771240261,0.10052645874023432,1.7030501738190676e-05,-5.660076253116142e-05,0.0,0.07683312034606951,0.0
26.997,0.10105456650257137,0.10105003404617303,1.7119202268077084e-05,-5.6895558169344556e-05,0.0,0.07723329284787196,0.0
26.998,0.10157816529274014,0.10157360935211175,1.7207902797963492e-05,-5.719035380752769e-05,0.0,0.07763346534967441,0.0
26.999000000000002,0.1021017640829089,0.10209718465805047,1.72966033278499e-05,-5.748514944571082e-05,0.0,0.07803363785147686,0.0
27.0,0.10262536287307766,0.10262075996398919,1.738530385773631e-05,-5.777994508389395e-05,0.0,0.07843381035327932,0.0
27.001,0.10314896166324643,0.1031443352699279,1.7474004387622717e-05,-5.8074740722077086e-05,0.0,0.07883398285508177,0.0
27.002000000000002,0.10367256045341519,0.10366791057586662,1.7562704917509126e-05,-5.836953636026022e-05,0.0,0.07923415535688422,0.0
27.003,0.10419615924358396,0.10419148588180534,1.7651405447395534e-05,-5.866433199844335e-05,0.0,0.07963432785868667,0.0
27.004,0.10471975803375272,0.10471506118774405,1.7740105977281942e-05,-5.8959127636626483e-05,0.0,0.08003450036048912,0.0
27.005000000000003,0.10524335682392148,0.10523863649368277,1.782880650716835e-05,-5.9253923274809616e-05,0.0,0.08043467286229157,0.0
27.006,0.10576695561409025,0.10576221179962149,1.791750703705476e-05,-5.954871891299275e-05,0.0,0.08083484536409402,0.0
27.007,0.10629055440425901,0.1062857871055602,1.8006207566941167e-05,-5.984351455117588e-05,0.0,0.08123501786589647,0.0
27.008,0.10681415319442777,0.10680936241149892,1.8094908096827576e-05,-6.0138310189359013e-05,0.0,0.08163519036769892,0.0
27.009,0.10733775198459654,0.10733293771743764,1.8183608626713984e-05,-6.0433105827542146e-05,0.0,0.08203536286950137,0.0
27.01,0.1078613507747653,0.10785651302337636,1.8272309156600392e-05,-6.072790146572528e-05,0.0,0.08243553537130383,0.0
27.011,0.10838494956493407,0.10838008832931507,1.83610096864868e-05,-6.102269710390841e-05,0.0,0.08283570787310628,0.0
27.012,0.10890854835510283,0.10890366363525379,1.844971021637321e-05,-6.131749274209154e-05,0.0,0.08323588037490873,0.0
27.013,0.1094321471452716,0.10942723894119251,1.8538410746259617e-05,-6.161228838027466e-05,0.0,0.08363605287671118,0.0
27.014,0.10995574593544036,0.10995081424713123,1.8627111276146026e-05,-6.190708401845779e-05,0.0,0.08403622537851363,0.0
27.015,0.11047934472560912,0.11047438955306994,1.8715811806032434e-05,-6.220187965664091e-05,0.0,0.08443639788031608,0.0
27.016000000000002,0.11100294351577789,0.11099796485900866,1.8804512335918842e-05,-6.249667529482404e-05,0.0,0.08483657038211853,0.0
27.017,0.11152654230594665,0.11152154016494738,1.889321286580525e-05,-6.279147093300717e-05,0.0,0.08523674288392098,0.0
27.018,0.11205014109611541,0.1120451154708861,1.898191339569166e-05,-6.308626657119029e-05,0.0,0.08563691538572343,0.0
27.019000000000002,0.11257373988628418,0.11256869077682481,1.9070613925578067e-05,-6.338106220937342e-05,0.0,0.08603708788752588,0.0
27.02,0.11309733867645294,0.11309226608276353,1.9159314455464476e-05,-6.367585784755654e-05,0.0,0.08643726038932834,0.0
27.021,0.1136209374666217,0.11361584138870225,1.9248014985350884e-05,-6.397065348573967e-05,0.0,0.08683743289113079,0.0
27.022000000000002,0.11414453625679047,0.11413941669464096,1.9336715515237292e-05,-6.42654491239228e-05,0.0,0.08723760539293324,0.0
27.023,0.11466813504695923,0.11466299200057968,1.94254160451237e-05,-6.456024476210592e-05,0.0,0.08763777789473569,0.0
27.024,0.115191733837128,0.1151865673065184,1.951411657501011e-05,-6.485504040028905e-05,0.0,0.08803795039653814,0.0
27.025000000000002,0.11571533262729676,0.11571014261245711,1.9602817104896517e-05,-6.514983603847217e-05,0.0,0.08843812289834059,0.0
27.026,0.11623893141746552,0.11623371791839583,1.9691517634782926e-05,-6.54446316766553e-05,0.0,0.08883829540014304,0.0
27.027,0.11676253020763429,0.11675729322433455,1.9780218164669334e-05,-6.573942731483842e-05,0.0,0.08923846790194549,0.0
27.028000000000002,0.11728612899780305,0.11728086853027327,1.9868918694555742e-05,-6.603422295302155e-05,0.0,0.08963864040374794,0.0
27.029,0.11780972778797182,0.11780444383621198,1.995761922444215e-05,-6.632901859120467e-05,0.0,0.0900388129055504,0.0
27.03,0.11833332657814058,0.1183280191421507,2.004631975432856e-05,-6.66238142293878e-05,0.0,0.09043898540735285,0.0
27.031000000000002,0.11885692536830934,0.11885159444808942,2.0135020284214967e-05,-6.691860986757093e-05,0.0,0.0908391579091553,0.0
27.032,0.11938052415847811,0.11937516975402813,2.0223720814101376e-05,-6.721340550575405e-05,0.0,0.09123933041095775,0.0
27.033,0.11990412294864687,0.11989874505996685,2.0312421343987784e-05,-6.750820114393718e-05,0.0,0.0916395029127602,0.0
27.034000000000002,0.12042772173881564,0.12042232036590557,2.0401121873874192e-05,-6.78029967821203e-05,0.0,0.09203967541456265,0.0
27.035,0.1209513205289844,0.12094589567184429,2.04898224037606e-05,-6.809779242030343e-05,0.0,0.0924398479163651,0.0
27.036,0.12147491931915316,0.121469470977783,2.057852293364701e-05,-6.839258805848655e-05,0.0,0.09284002041816755,0.0
27.037000000000003,0.12199851810932193,0.12199304628372172,2.0667223463533417e-05,-6.868738369666968e-05,0.0,0.09324019291997,0.0
27.038,0.12252211689949069,0.12251662158966044,2.0755923993419826e-05,-6.89821793348528e-05,0.0,0.09364036542177245,0.0
27.039,0.12304571568965945,0.12304019689559915,2.0844624523306234e-05,-6.927697497303593e-05,0.0,0.0940405379235749,0.0
27.04,0.12356931447982822,0.12356377220153787,2.0933325053192643e-05,-6.957177061121906e-05,0.0,0.09444071042537736,0.0
27.041,0.12409291326999698,0.12408734750747659,2.102202558307905e-05,-6.986656624940218e-05,0.0,0.0948408829271798,0.0
27.042,0.12461651206016575,0.1246109228134153,2.111072611296546e-05,-7.016136188758531e-05,0.0,0.09524105542898226,0.0
27.043,0.1251401108503345,0.12513449811935404,2.1199426642851868e-05,-7.045615752576843e-05,0.0,0.09564122793078471,0.0
27.044,0.12566370964050325,0.12565807342529275,2.1288127172738276e-05,-7.075095316395156e-05,0.0,0.09604140043258716,0.0
27.045,0.126187308430672,0.12618164873123147,2.1376827702624684e-05,-7.104574880213469e-05,0.0,0.09644157293438961,0.0
27.046,0.12671090722084075,0.1267052240371702,2.1465528232511093e-05,-7.134054444031781e-05,0.0,0.09684174543619206,0.0
27.047,0.1272345060110095,0.1272287993431089,2.15542287623975e-05,-7.163534007850094e-05,0.0,0.09724191793799451,0.0
27.048000000000002,0.12775810480117825,0.12775237464904762,2.164292929228391e-05,-7.193013571668406e-05,0.0,0.09764209043979696,0.0
27.049,0.128281703591347,0.12827594995498634,2.1731629822170318e-05,-7.222493135486719e-05,0.0,0.09804226294159941,0.0
27.05,0.12880530238151575,0.12879952526092506,2.1820330352056726e-05,-7.251972699305032e-05,0.0,0.09844243544340187,0.0
27.051000000000002,0.1293289011716845,0.12932310056686377,2.1909030881943134e-05,-7.281452263123344e-05,0.0,0.09884260794520432,0.0
27.052,0.12985249996185325,0.1298466758728025,2.1997731411829543e-05,-7.310931826941657e-05,0.0,0.09924278044700677,0.0
27.053,0.130376098752022,0.1303702511787412,2.208643194171595e-05,-7.340411390759969e-05,0.0,0.09964295294880922,0.0
27.054000000000002,0.13089969754219075,0.13089382648467993,2.217513247160236e-05,-7.369890954578282e-05,0.0,0.10004312545061167,0.0
27.055,0.1314232963323595,0.13141740179061864,2.2263833001488768e-05,-7.399370518396594e-05,0.0,0.10044329795241412,0.0
27.056,0.13194689512252825,0.13194097709655736,2.2352533531375176e-05,-7.428850082214907e-05,0.0,0.10084347045421657,0.0
27.057000000000002,0.132470493912697,0.13246455240249608,2.2441234061261584e-05,-7.45832964603322e-05,0.0,0.10124364295601902,0.0
27.058,0.13299409270286575,0.1329881277084348,2.2529934591147993e-05,-7.487809209851532e-05,0.0,0.10164381545782147,0.0
27.059,0.1335176914930345,0.1335117030143735,2.26186351210344e-05,-7.517288773669845e-05,0.0,0.10204398795962392,0.0
27.060000000000002,0.13404129028320325,0.13403527832031223,2.270733565092081e-05,-7.546768337488157e-05,0.0,0.10244416046142638,0.0
27.061,0.134564889073372,0.13455885362625095,2.2796036180807218e-05,-7.57624790130647e-05,0.0,0.10284433296322883,0.0
27.062,0.13508848786354075,0.13508242893218966,2.2884736710693626e-05,-7.605727465124782e-05,0.0,0.10324450546503128,0.0
27.063000000000002,0.1356120866537095,0.13560600423812838,2.2973437240580034e-05,-7.635207028943095e-05,0.0,0.10364467796683373,0.0
27.064,0.13613568544387825,0.1361295795440671,2.3062137770466443e-05,-7.664686592761408e-05,0.0,0.10404485046863618,0.0
27.065,0.136659284234047,0.13665315485000581,2.315083830035285e-05,-7.69416615657972e-05,0.0,0.10444502297043863,0.0
27.066000000000003,0.13718288302421575,0.13717673015594453,2.323953883023926e-05,-7.723645720398033e-05,0.0,0.10484519547224108,0.0
27.067,0.1377064818143845,0.13770030546188325,2.3328239360125668e-05,-7.753125284216345e-05,0.0,0.10524536797404353,0.0
27.068,0.13823008060455325,0.13822388076782197,2.3416939890012076e-05,-7.782604848034658e-05,0.0,0.10564554047584598,0.0
27.069000000000003,0.138753679394722,0.13874745607376068,2.3505640419898484e-05,-7.81208441185297e-05,0.0,0.10604571297764843,0.0
27.07,0.13927727818489075,0.1392710313796994,2.3594340949784893e-05,-7.841563975671283e-05,0.0,0.10644588547945089,0.0
27.071,0.1398008769750595,0.13979460668563812,2.36830414796713e-05,-7.871043539489596e-05,0.0,0.10684605798125334,0.0
27.072,0.14032447576522825,0.14031818199157683,2.377174200955771e-05,-7.900523103307908e-05,0.0,0.10724623048305579,0.0
27.073,0.140848074555397,0.14084175729751555,2.3860442539444118e-05,-7.930002667126221e-05,0.0,0.10764640298485824,0.0
27.074,0.14137167334556575,0.14136533260345427,2.3949143069330526e-05,-7.959482230944533e-05,0.0,0.10804657548666069,0.0
27.075,0.1418952721357345,0.141888907909393,2.4037843599216934e-05,-7.988961794762846e-05,0.0,0.10844674798846314,0.0
27.076,0.14241887092590325,0.1424124832153317,2.4126544129103343e-05,-8.018441358581158e-05,0.0,0.10884692049026559,0.0
27.077,0.142942469716072,0.14293605852127042,2.421524465898975e-05,-8.047920922399471e-05,0.0,0.10924709299206804,0.0
27.078,0.14346606850624075,0.14345963382720914,2.430394518887616e-05,-8.077400486217784e-05,0.0,0.1096472654938705,0.0
27.079,0.1439896672964095,0.14398320913314785,2.4392645718762568e-05,-8.106880050036096e-05,0.0,0.11004743799567294,0.0
27.080000000000002,0.14451326608657825,0.14450678443908657,2.4481346248648976e-05,-8.136359613854409e-05,0.0,0.1104476104974754,0.0
27.081,0.145036864876747,0.1450303597450253,2.4570046778535384e-05,-8.165839177672721e-05,0.0,0.11084778299927785,0.0
27.082,0.14556046366691575,0.145553935050964,2.4658747308421793e-05,-8.195318741491034e-05,0.0,0.1112479555010803,0.0
27.083000000000002,0.1460840624570845,0.14607751035690272,2.47474478383082e-05,-8.224798305309346e-05,0.0,0.11164812800288275,0.0
27.084,0.14660766124725325,0.14660108566284144,2.483614836819461e-05,-8.254277869127659e-05,0.0,0.1120483005046852,0.0
27.085,0.147131260037422,0.14712466096878016,2.4924848898081018e-05,-8.283757432945972e-05,0.0,0.11244847300648765,0.0
27.086000000000002,0.14765485882759075,0.14764823627471887,2.5013549427967426e-05,-8.313236996764284e-05,0.0,0.1128486455082901,0.0
27.087,0.1481784576177595,0.1481718115806576,2.5102249957853834e-05,-8.342716560582597e-05,0.0,0.11324881801009255,0.0
27.088,0.14870205640792825,0.1486953868865963,2.5190950487740243e-05,-8.372196124400909e-05,0.0,0.113648990511895,0.0
27.089000000000002,0.149225655198097,0.14921896219253503,2.527965101762665e-05,-8.401675688219222e-05,0.0,0.11404916301369745,0.0
27.09,0.14974925398826575,0.14974253749847374,2.536835154751306e-05,-8.431155252037534e-05,0.0,0.1144493355154999,0.0
27.091,0.1502728527784345,0.15026611280441246,2.5457052077399468e-05,-8.460634815855847e-05,0.0,0.11484950801730236,0.0
27.092000000000002,0.15079645156860325,0.15078968811035118,2.5545752607285876e-05,-8.49011437967416e-05,0.0,0.11524968051910481,0.0
27.093,0.151320050358772,0.1513132634162899,2.5634453137172284e-05,-8.519593943492472e-05,0.0,0.11564985302090726,0.0
27.094,0.15184364914894075,0.1518368387222286,2.5723153667058693e-05,-8.549073507310785e-05,0.0,0.11605002552270971,0.0
27.095000000000002,0.1523672479391095,0.15236041402816733,2.58118541969451e-05,-8.578553071129097e-05,0.0,0.11645019802451216,0.0
27.096,0.15289084672927825,0.15288398933410605,2.590055472683151e-05,-8.60803263494741e-05,0.0,0.11685037052631461,0.0
27.097,0.153414445519447,0.15340756464004476,2.5989255256717918e-05,-8.637512198765722e-05,0.0,0.11725054302811706,0.0
27.098000000000003,0.15393804430961575,0.15393113994598348,2.6077955786604326e-05,-8.666991762584035e-05,0.0,0.11765071552991951,0.0
27.099,0.1544616430997845,0.1544547152519222,2.6166656316490735e-05,-8.696471326402348e-05,0.0,0.11805088803172196,0.0
27.1,0.15498524188995325,0.15497829055786091,2.6255356846377143e-05,-8.72595089022066e-05,0.0,0.11845106053352442,0.0
27.101,0.155508840680122,0.15550186586379963,2.634405737626355e-05,-8.755430454038973e-05,0.0,0.11885123303532687,0.0
27.102,0.15603243947029075,0.15602544116973835,2.643275790614996e-05,-8.784910017857285e-05,0.0,0.11925140553712932,0.0
27.103,0.1565560382604595,0.15654901647567707,2.6521458436036368e-05,-8.814389581675598e-05,0.0,0.11965157803893177,0.0
27.104,0.15707963705062825,0.15707259178161578,2.6610158965922776e-05,-8.84386914549391e-05,0.0,0.12005175054073422,0.0
27.105,0.157603235840797,0.1575961670875545,2.6698859495809185e-05,-8.873348709312223e-05,0.0,0.12045192304253667,0.0
27.106,0.15812683463096575,0.15811974239349322,2.6787560025695593e-05,-8.902828273130536e-05,0.0,0.12085209554433912,0.0
27.107,0.1586504334211345,0.15864331769943193,2.6876260555582e-05,-8.932307836948848e-05,0.0,0.12125226804614157,0.0
27.108,0.15917403221130325,0.15916689300537065,2.696496108546841e-05,-8.961787400767161e-05,0.0,0.12165244054794402,0.0
27.109,0.159697631001472,0.15969046831130937,2.7053661615354818e-05,-8.991266964585473e-05,0.0,0.12205261304974648,0.0
27.11,0.16022122979164075,0.1602140436172481,2.7142362145241226e-05,-9.020746528403786e-05,0.0,0.12245278555154893,0.0
27.111,0.1607448285818095,0.1607376189231868,2.7231062675127635e-05,-9.050226092222099e-05,0.0,0.12285295805335138,0.0
27.112000000000002,0.16126842737197825,0.16126119422912552,2.7319763205014043e-05,-9.079705656040411e-05,0.0,0.12325313055515383,0.0
27.113,0.161792026162147,0.16178476953506424,2.740846373490045e-05,-9.109185219858724e-05,0.0,0.12365330305695628,0.0
27.114,0.16231562495231575,0.16230834484100296,2.749716426478686e-05,-9.138664783677036e-05,0.0,0.12405347555875873,0.0
27.115000000000002,0.1628392237424845,0.16283192014694167,2.7585864794673268e-05,-9.168144347495349e-05,0.0,0.12445364806056118,0.0
27.116,0.16336282253265325,0.1633554954528804,2.7674565324559676e-05,-9.197623911313661e-05,0.0,0.12485382056236363,0.0
27.117,0.163886421322822,0.1638790707588191,2.7763265854446085e-05,-9.227103475131974e-05,0.0,0.12525399306416607,0.0
27.118000000000002,0.16441002011299075,0.16440264606475782,2.7851966384332493e-05,-9.256583038950287e-05,0.0,0.1256541655659685,0.0
27.119,0.1649336189031595,0.16492622137069654,2.79406669142189e-05,-9.286062602768599e-05,0.0,0.12605433806777094,0.0
27.12,0.16545721769332825,0.16544979667663526,2.802936744410531e-05,-9.315542166586912e-05,0.0,0.12645451056957338,0.0
27.121000000000002,0.165980816483497,0.16597337198257398,2.8118067973991718e-05,-9.345021730405224e-05,0.0,0.12685468307137582,0.0
27.122,0.16650441527366575,0.1664969472885127,2.8206768503878126e-05,-9.374501294223537e-05,0.0,0.12725485557317825,0.0
27.123,0.1670280140638345,0.1670205225944514,2.8295469033764535e-05,-9.40398085804185e-05,0.0,0.1276550280749807,0.0
27.124000000000002,0.16755161285400325,0.16754409790039013,2.8384169563650943e-05,-9.433460421860162e-05,0.0,0.12805520057678313,0.0
27.125,0.168075211644172,0.16806767320632884,2.847287009353735e-05,-9.462939985678475e-05,0.0,0.12845537307858557,0.0
27.126,0.16859881043434075,0.16859124851226756,2.856157062342376e-05,-9.492419549496787e-05,0.0,0.128855545580388,0.0
27.127000000000002,0.1691224092245095,0.16911482381820628,2.8650271153310168e-05,-9.5218991133151e-05,0.0,0.12925571808219044,0.0
27.128,0.16964600801467825,0.169638399124145,2.8738971683196576e-05,-9.551378677133412e-05,0.0,0.12965589058399288,0.0
27.129,0.170169606804847,0.1701619744300837,2.8827672213082985e-05,-9.580858240951725e-05,0.0,0.13005606308579531,0.0
27.130000000000003,0.17069320559501575,0.17068554973602243,2.8916372742969393e-05,-9.610337804770037e-05,0.0,0.13045623558759775,0.0
27.131,0.1712168043851845,0.17120912504196115,2.90050732728558e-05,-9.63981736858835e-05,0.0,0.1308564080894002,0.0
27.132,0.17174040317535325,0.17173270034789986,2.909377380274221e-05,-9.669296932406663e-05,0.0,0.13125658059120263,0.0
27.133,0.172264001965522,0.17225627565383858,2.9182474332628618e-05,-9.698776496224975e-05,0.0,0.13165675309300506,0.0
27.134,0.17278760075569075,0.1727798509597773,2.9271174862515026e-05,-9.728256060043288e-05,0.0,0.1320569255948075,0.0
27.135,0.1733111995458595,0.17330342626571602,2.9359875392401435e-05,-9.7577356238616e-05,0.0,0.13245709809660994,0.0
27.136,0.17383479833602825,0.17382700157165473,2.9448575922287843e-05,-9.787215187679913e-05,0.0,0.13285727059841237,0.0
27.137,0.174358397126197,0.17435057687759345,2.953727645217425e-05,-9.816694751498225e-05,0.0,0.1332574431002148,0.0
27.138,0.17488199591636575,0.17487415218353217,2.962597698206066e-05,-9.846174315316538e-05,0.0,0.13365761560201725,0.0
27.139,0.1754055947065345,0.17539772748947088,2.9714677511947068e-05,-9.87565387913485e-05,0.0,0.1340577881038197,0.0
27.14,0.17592919349670325,0.1759213027954096,2.9803378041833476e-05,-9.905133442953163e-05,0.0,0.13445796060562212,0.0
27.141000000000002,0.176452792286872,0.17644487810134832,2.9892078571719885e-05,-9.934613006771476e-05,0.0,0.13485813310742456,0.0
27.142,0.17697639107704075,0.17696845340728704,2.9980779101606293e-05,-9.964092570589788e-05,0.0,0.135258305609227,0.0
27.143,0.1774999898672095,0.17749202871322575,3.00694796314927e-05,-9.993572134408101e-05,0.0,0.13565847811102943,0.0
27.144000000000002,0.17802358865737825,0.17801560401916447,3.015818016137911e-05,-0.00010023051698226413,0.0,0.13605865061283187,0.0
27.145,0.178547187447547,0.1785391793251032,3.0246880691265518e-05,-0.00010052531262044726,0.0,0.1364588231146343,0.0
27.146,0.17907078623771575,0.1790627546310419,3.0335581221151926e-05,-0.00010082010825863039,0.0,0.13685899561643675,0.0
27.147000000000002,0.1795943850278845,0.17958632993698062,3.0424281751038335e-05,-0.00010111490389681351,0.0,0.13725916811823918,0.0
27.148,0.18011798381805325,0.18010990524291934,3.0512982280924743e-05,-0.00010140969953499664,0.0,0.13765934062004162,0.0
27.149,0.180641582608222,0.18063348054885806,3.0601682810811155e-05,-0.00010170449517317976,0.0,0.13805951312184406,0.0
27.150000000000002,0.18116518139839075,0.18115705585479677,3.069038334069756e-05,-0.00010199929081136289,0.0,0.1384596856236465,0.0
27.151,0.1816887801885595,0.1816806311607355,3.077908387058397e-05,-0.00010229408644954601,0.0,0.13885985812544893,0.0
27.152,0.18221237897872825,0.1822042064666742,3.086778440047038e-05,-0.00010258888208772914,0.0,0.13926003062725137,0.0
27.153000000000002,0.182735977768897,0.18272778177261292,3.095648493035679e-05,-0.00010288367772591227,0.0,0.1396602031290538,0.0
27.154,0.18325957655906575,0.18325135707855164,3.1045185460243197e-05,-0.00010317847336409539,0.0,0.14006037563085624,0.0
27.155,0.1837831753492345,0.18377493238449036,3.1133885990129605e-05,-0.00010347326900227852,0.0,0.14046054813265868,0.0
27.156000000000002,0.18430677413940325,0.18429850769042908,3.122258652001601e-05,-0.00010376806464046164,0.0,0.14086072063446112,0.0
27.157,0.184830372929572,0.1848220829963678,3.131128704990242e-05,-0.00010406286027864477,0.0,0.14126089313626355,0.0
27.158,0.18535397171974075,0.1853456583023065,3.139998757978883e-05,-0.0001043576559168279,0.0,0.141661065638066,0.0
27.159000000000002,0.1858775705099095,0.18586923360824523,3.148868810967524e-05,-0.00010465245155501102,0.0,0.14206123813986843,0.0
27.16,0.18640116930007825,0.18639280891418394,3.1577388639561647e-05,-0.00010494724719319415,0.0,0.14246141064167087,0.0
27.161,0.186924768090247,0.18691638422012266,3.1666089169448055e-05,-0.00010524204283137727,0.0,0.1428615831434733,0.0
27.162,0.18744836688041575,0.18743995952606138,3.175478969933446e-05,-0.0001055368384695604,0.0,0.14326175564527574,0.0
27.163,0.1879719656705845,0.1879635348320001,3.184349022922087e-05,-0.00010583163410774352,0.0,0.14366192814707818,0.0
27.164,0.18849556446075325,0.1884871101379388,3.193219075910728e-05,-0.00010612642974592665,0.0,0.14406210064888061,0.0
27.165,0.189019163250922,0.18901068544387753,3.202089128899369e-05,-0.00010642122538410978,0.0,0.14446227315068305,0.0
27.166,0.18954276204109075,0.18953426074981625,3.21095918188801e-05,-0.0001067160210222929,0.0,0.1448624456524855,0.0
27.167,0.1900663608312595,0.19005783605575496,3.2198292348766505e-05,-0.00010701081666047603,0.0,0.14526261815428793,0.0
27.168,0.19058995962142825,0.19058141136169368,3.228699287865291e-05,-0.00010730561229865915,0.0,0.14566279065609036,0.0
27.169,0.191113558411597,0.1911049866676324,3.237569340853932e-05,-0.00010760040793684228,0.0,0.1460629631578928,0.0
27.17,0.19163715720176575,0.19162856197357112,3.246439393842573e-05,-0.0001078952035750254,0.0,0.14646313565969524,0.0
27.171,0.1921607559919345,0.19215213727950983,3.255309446831214e-05,-0.00010818999921320853,0.0,0.14686330816149767,0.0
27.172,0.19268435478210325,0.19267571258544855,3.264179499819855e-05,-0.00010848479485139166,0.0,0.1472634806633001,0.0
27.173000000000002,0.193207953572272,0.19319928789138727,3.2730495528084955e-05,-0.00010877959048957478,0.0,0.14766365316510255,0.0
27.174,0.19373155236244075,0.19372286319732598,3.281919605797136e-05,-0.00010907438612775791,0.0,0.14806382566690499,0.0
27.175,0.1942551511526095,0.1942464385032647,3.290789658785777e-05,-0.00010936918176594103,0.0,0.14846399816870742,0.0
27.176000000000002,0.19477874994277825,0.19477001380920342,3.299659711774418e-05,-0.00010966397740412416,0.0,0.14886417067050986,0.0
27.177,0.195302348732947,0.19529358911514214,3.308529764763059e-05,-0.00010995877304230728,0.0,0.1492643431723123,0.0
27.178,0.19582594752311575,0.19581716442108085,3.3173998177517e-05,-0.00011025356868049041,0.0,0.14966451567411473,0.0
27.179000000000002,0.1963495463132845,0.19634073972701957,3.3262698707403405e-05,-0.00011054836431867354,0.0,0.15006468817591717,0.0
27.18,0.19687314510345325,0.1968643150329583,3.3351399237289813e-05,-0.00011084315995685666,0.0,0.1504648606777196,0.0
27.181,0.197396743893622,0.197387890338897,3.344009976717622e-05,-0.00011113795559503979,0.0,0.15086503317952205,0.0
27.182000000000002,0.19792034268379075,0.19791146564483572,3.352880029706263e-05,-0.00011143275123322291,0.0,0.15126520568132448,0.0
27.183,0.1984439414739595,0.19843504095077444,3.361750082694904e-05,-0.00011172754687140604,0.0,0.15166537818312692,0.0
27.184,0.19896754026412825,0.19895861625671316,3.370620135683545e-05,-0.00011202234250958916,0.0,0.15206555068492936,0.0
27.185000000000002,0.199491139054297,0.19948219156265187,3.3794901886721855e-05,-0.00011231713814777229,0.0,0.1524657231867318,0.0
27.186,0.20001473784446575,0.2000057668685906,3.3883602416608263e-05,-0.00011261193378595542,0.0,0.15286589568853423,0.0
27.187,0.2005383366346345,0.2005293421745293,3.397230294649467e-05,-0.00011290672942413854,0.0,0.15326606819033667,0.0
27.188000000000002,0.20106193542480325,0.20105291748046802,3.406100347638108e-05,-0.00011320152506232167,0.0,0.1536662406921391,0.0
27.189,0.201585534214972,0.20157649278640674,3.414970400626749e-05,-0.00011349632070050479,0.0,0.15406641319394154,0.0
27.19,0.20210913300514075,0.20210006809234546,3.42384045361539e-05,-0.00011379111633868792,0.0,0.15446658569574398,0.0
27.191000000000003,0.2026327317953095,0.20262364339828418,3.4327105066040305e-05,-0.00011408591197687104,0.0,0.15486675819754642,0.0
27.192,0.20315633058547825,0.2031472187042229,3.4415805595926713e-05,-0.00011438070761505417,0.0,0.15526693069934885,0.0
27.193,0.203679929375647,0.2036707940101616,3.450450612581312e-05,-0.0001146755032532373,0.0,0.1556671032011513,0.0
27.194000000000003,0.20420352816581575,0.20419436931610033,3.459320665569953e-05,-0.00011497029889142042,0.0,0.15606727570295373,0.0
27.195,0.2047271269559845,0.20471794462203904,3.468190718558594e-05,-0.00011526509452960355,0.0,0.15646744820475617,0.0
27.196,0.20525072574615325,0.20524151992797776,3.477060771547235e-05,-0.00011555989016778667,0.0,0.1568676207065586,0.0
27.197,0.205774324536322,0.20576509523391648,3.4859308245358755e-05,-0.0001158546858059698,0.0,0.15726779320836104,0.0
27.198,0.20629792332649075,0.2062886705398552,3.4948008775245163e-05,-0.00011614948144415292,0.0,0.15766796571016348,0.0
27.199,0.2068215221166595,0.2068122458457939,3.503670930513157e-05,-0.00011644427708233605,0.0,0.15806813821196591,0.0
27.2,0.20734512090682825,0.20733582115173263,3.512540983501798e-05,-0.00011673907272051918,0.0,0.15846831071376835,0.0
27.201,0.207868719696997,0.20785939645767135,3.521411036490439e-05,-0.0001170338683587023,0.0,0.1588684832155708,0.0
27.202,0.20839231848716575,0.20838297176361006,3.53028108947908e-05,-0.00011732866399688543,0.0,0.15926865571737323,0.0
27.203,0.2089159172773345,0.20890654706954878,3.5391511424677205e-05,-0.00011762345963506855,0.0,0.15966882821917566,0.0
27.204,0.20943951606750325,0.2094301223754875,3.5480211954563614e-05,-0.00011791825527325168,0.0,0.1600690007209781,0.0
27.205000000000002,0.209963114857672,0.20995369768142622,3.556891248445002e-05,-0.0001182130509114348,0.0,0.16046917322278054,0.0
27.206,0.21048671364784075,0.21047727298736493,3.565761301433643e-05,-0.00011850784654961793,0.0,0.16086934572458297,0.0
27.207,0.2110103124380095,0.21100084829330365,3.574631354422284e-05,-0.00011880264218780106,0.0,0.1612695182263854,0.0
27.208000000000002,0.21153391122817825,0.21152442359924237,3.583501407410925e-05,-0.00011909743782598418,0.0,0.16166969072818785,0.0
27.209,0.212057510018347,0.21204799890518108,3.5923714603995655e-05,-0.00011939223346416731,0.0,0.16206986322999029,0.0
27.21,0.21258110880851575,0.2125715742111198,3.6012415133882064e-05,-0.00011968702910235043,0.0,0.16247003573179272,0.0
27.211000000000002,0.2131047075986845,0.21309514951705852,3.610111566376847e-05,-0.00011998182474053356,0.0,0.16287020823359516,0.0
27.212,0.21362830638885325,0.21361872482299724,3.618981619365488e-05,-0.00012027662037871669,0.0,0.1632703807353976,0.0
27.213,0.214151905179022,0.21414230012893595,3.627851672354129e-05,-0.00012057141601689981,0.0,0.16367055323720003,0.0
27.214000000000002,0.21467550396919075,0.21466587543487467,3.63672172534277e-05,-0.00012086621165508294,0.0,0.16407072573900247,0.0
27.215,0.2151991027593595,0.2151894507408134,3.6455917783314105e-05,-0.00012116100729326606,0.0,0.1644708982408049,0.0
27.216,0.21572270154952825,0.2157130260467521,3.6544618313200514e-05,-0.00012145580293144919,0.0,0.16487107074260735,0.0
27.217000000000002,0.216246300339697,0.21623660135269082,3.663331884308692e-05,-0.00012175059856963231,0.0,0.16527124324440978,0.0
27.218,0.21676989912986575,0.21676017665862954,3.672201937297333e-05,-0.00012204539420781544,0.0,0.16567141574621222,0.0
27.219,0.2172934979200345,0.21728375196456826,3.681071990285974e-05,-0.00012234018984599857,0.0,0.16607158824801466,0.0
27.220000000000002,0.21781709671020325,0.21780732727050697,3.689942043274615e-05,-0.0001226349854841817,0.0,0.1664717607498171,0.0
27.221,0.218340695500372,0.2183309025764457,3.6988120962632555e-05,-0.00012292978112236482,0.0,0.16687193325161953,0.0
27.222,0.21886429429054075,0.2188544778823844,3.7076821492518964e-05,-0.00012322457676054794,0.0,0.16727210575342197,0.0
27.223000000000003,0.2193878930807095,0.21937805318832312,3.716552202240537e-05,-0.00012351937239873107,0.0,0.1676722782552244,0.0
27.224,0.21991149187087825,0.21990162849426184,3.725422255229178e-05,-0.0001238141680369142,0.0,0.16807245075702684,0.0
27.225,0.220435090661047,0.22042520380020056,3.734292308217819e-05,-0.00012410896367509732,0.0,0.16847262325882928,0.0
27.226,0.22095868945121575,0.22094877910613928,3.74316236120646e-05,-0.00012440375931328045,0.0,0.16887279576063172,0.0
27.227,0.2214822882413845,0.221472354412078,3.7520324141951005e-05,-0.00012469855495146357,0.0,0.16927296826243415,0.0
27.228,0.22200588703155325,0.2219959297180167,3.7609024671837414e-05,-0.0001249933505896467,0.0,0.1696731407642366,0.0
27.229,0.222529485821722,0.22251950502395543,3.769772520172382e-05,-0.00012528814622782982,0.0,0.17007331326603903,0.0
27.23,0.22305308461189075,0.22304308032989414,3.778642573161023e-05,-0.00012558294186601295,0.0,0.17047348576784147,0.0
27.231,0.2235766834020595,0.22356665563583286,3.787512626149664e-05,-0.00012587773750419607,0.0,0.1708736582696439,0.0
27.232,0.22410028219222825,0.22409023094177158,3.796382679138305e-05,-0.0001261725331423792,0.0,0.17127383077144634,0.0
27.233,0.224623880982397,0.2246138062477103,3.8052527321269455e-05,-0.00012646732878056233,0.0,0.17167400327324878,0.0
27.234,0.22514747977256575,0.225137381553649,3.8141227851155864e-05,-0.00012676212441874545,0.0,0.1720741757750512,0.0
27.235,0.2256710785627345,0.22566095685958773,3.822992838104227e-05,-0.00012705692005692858,0.0,0.17247434827685365,0.0
27.236,0.22619467735290325,0.22618453216552645,3.831862891092868e-05,-0.0001273517156951117,0.0,0.1728745207786561,0.0
27.237000000000002,0.226718276143072,0.22670810747146516,3.840732944081509e-05,-0.00012764651133329483,0.0,0.17327469328045852,0.0
27.238,0.22724187493324075,0.22723168277740388,3.84960299707015e-05,-0.00012794130697147795,0.0,0.17367486578226096,0.0
27.239,0.2277654737234095,0.2277552580833426,3.8584730500587905e-05,-0.00012823610260966108,0.0,0.1740750382840634,0.0
27.240000000000002,0.22828907251357825,0.22827883338928132,3.8673431030474314e-05,-0.0001285308982478442,0.0,0.17447521078586584,0.0
27.241,0.228812671303747,0.22880240869522003,3.876213156036072e-05,-0.00012882569388602733,0.0,0.17487538328766827,0.0
27.242,0.22933627009391575,0.22932598400115875,3.885083209024713e-05,-0.00012912048952421046,0.0,0.1752755557894707,0.0
27.243000000000002,0.2298598688840845,0.22984955930709747,3.893953262013354e-05,-0.00012941528516239358,0.0,0.17567572829127315,0.0
27.244,0.23038346767425325,0.23037313461303618,3.902823315001995e-05,-0.0001297100808005767,0.0,0.17607590079307558,0.0
27.245,0.230907066464422,0.2308967099189749,3.9116933679906355e-05,-0.00013000487643875983,0.0,0.17647607329487802,0.0
27.246000000000002,0.23143066525459075,0.23142028522491362,3.9205634209792764e-05,-0.00013029967207694296,0.0,0.17687624579668046,0.0
27.247,0.2319542640447595,0.23194386053085234,3.929433473967917e-05,-0.00013059446771512609,0.0,0.1772764182984829,0.0
27.248,0.23247786283492824,0.23246743583679105,3.938303526956558e-05,-0.0001308892633533092,0.0,0.17767659080028533,0.0
27.249000000000002,0.233001461625097,0.23299101114272977,3.947173579945199e-05,-0.00013118405899149234,0.0,0.17807676330208777,0.0
27.25,0.23352506041526574,0.2335145864486685,3.95604363293384e-05,-0.00013147885462967546,0.0,0.1784769358038902,0.0
27.251,0.2340486592054345,0.2340381617546072,3.9649136859224805e-05,-0.0001317736502678586,0.0,0.17887710830569264,0.0
27.252000000000002,0.23457225799560324,0.23456173706054592,3.9737837389111214e-05,-0.00013206844590604171,0.0,0.17927728080749508,0.0
27.253,0.235095856785772,0.23508531236648464,3.982653791899762e-05,-0.00013236324154422484,0.0,0.17967745330929752,0.0
27.254,0.23561945557594074,0.23560888767242336,3.991523844888403e-05,-0.00013265803718240797,0.0,0.18007762581109996,0.0
27.255000000000003,0.2361430543661095,0.23613246297836207,4.000393897877044e-05,-0.0001329528328205911,0.0,0.1804777983129024,0.0
27.256,0.23666665315627824,0.2366560382843008,4.009263950865685e-05,-0.00013324762845877422,0.0,0.18087797081470483,0.0
27.257,0.237190251946447,0.2371796135902395,4.0181340038543256e-05,-0.00013354242409695734,0.0,0.18127814331650727,0.0
27.258,0.23771385073661574,0.23770318889617822,4.0270040568429664e-05,-0.00013383721973514047,0.0,0.1816783158183097,0.0
27.259,0.2382374495267845,0.23822676420211694,4.035874109831607e-05,-0.0001341320153733236,0.0,0.18207848832011214,0.0
27.26,0.23876104831695324,0.23875033950805566,4.044744162820248e-05,-0.00013442681101150672,0.0,0.18247866082191458,0.0
27.261,0.239284647107122,0.23927391481399438,4.053614215808889e-05,-0.00013472160664968985,0.0,0.18287883332371702,0.0
27.262,0.23980824589729074,0.2397974901199331,4.06248426879753e-05,-0.00013501640228787297,0.0,0.18327900582551945,0.0
27.263,0.2403318446874595,0.2403210654258718,4.0713543217861706e-05,-0.0001353111979260561,0.0,0.1836791783273219,0.0
27.264,0.24085544347762824,0.24084464073181053,4.0802243747748114e-05,-0.00013560599356423922,0.0,0.18407935082912433,0.0
27.265,0.241379042267797,0.24136821603774924,4.089094427763452e-05,-0.00013590078920242235,0.0,0.18447952333092676,0.0
27.266000000000002,0.24190264105796574,0.24189179134368796,4.097964480752093e-05,-0.00013619558484060548,0.0,0.1848796958327292,0.0
27.267,0.2424262398481345,0.24241536664962668,4.106834533740734e-05,-0.0001364903804787886,0.0,0.18527986833453164,0.0
27.268,0.24294983863830324,0.2429389419555654,4.115704586729375e-05,-0.00013678517611697173,0.0,0.18568004083633408,0.0
27.269000000000002,0.243473437428472,0.2434625172615041,4.1245746397180156e-05,-0.00013707997175515485,0.0,0.1860802133381365,0.0
27.27,0.24399703621864074,0.24398609256744283,4.1334446927066564e-05,-0.00013737476739333798,0.0,0.18648038583993895,0.0
27.271,0.2445206350088095,0.24450966787338155,4.142314745695297e-05,-0.0001376695630315211,0.0,0.1868805583417414,0.0
27.272000000000002,0.24504423379897824,0.24503324317932026,4.151184798683938e-05,-0.00013796435866970423,0.0,0.18728073084354382,0.0
27.273,0.245567832589147,0.24555681848525898,4.160054851672579e-05,-0.00013825915430788736,0.0,0.18768090334534626,0.0
27.274,0.24609143137931574,0.2460803937911977,4.16892490466122e-05,-0.00013855394994607048,0.0,0.1880810758471487,0.0
27.275000000000002,0.2466150301694845,0.24660396909713642,4.1777949576498606e-05,-0.0001388487455842536,0.0,0.18848124834895114,0.0
27.276,0.24713862895965324,0.24712754440307513,4.1866650106385014e-05,-0.00013914354122243673,0.0,0.18888142085075357,0.0
27.277,0.247662227749822,0.24765111970901385,4.195535063627142e-05,-0.00013943833686061986,0.0,0.189281593352556,0.0
27.278000000000002,0.24818582653999074,0.24817469501495257,4.204405116615783e-05,-0.00013973313249880298,0.0,0.18968176585435845,0.0
27.279,0.2487094253301595,0.24869827032089128,4.213275169604424e-05,-0.0001400279281369861,0.0,0.19008193835616088,0.0
27.28,0.24923302412032824,0.24922184562683,4.222145222593065e-05,-0.00014032272377516924,0.0,0.19048211085796332,0.0
27.281000000000002,0.249756622910497,0.24974542093276872,4.2310152755817056e-05,-0.00014061751941335236,0.0,0.19088228335976576,0.0
27.282,0.2502802217006658,0.25026899623870746,4.2398853285703464e-05,-0.0001409123150515355,0.0,0.1912824558615682,0.0
27.283,0.25080382049083455,0.2507925715446462,4.248755381558987e-05,-0.0001412071106897186,0.0,0.19168262836337063,0.0
27.284000000000002,0.25132741928100333,0.2513161468505849,4.257625434547628e-05,-0.00014150190632790174,0.0,0.19208280086517307,0.0
27.285,0.2518510180711721,0.2518397221565236,4.266495487536269e-05,-0.00014179670196608486,0.0,0.1924829733669755,0.0
27.286,0.2523746168613409,0.25236329746246233,4.27536554052491e-05,-0.000142091497604268,0.0,0.19288314586877794,0.0
27.287,0.25289821565150966,0.25288687276840105,4.2842355935135506e-05,-0.00014238629324245112,0.0,0.19328331837058038,0.0
27.288,0.25342181444167844,0.25341044807433977,4.2931056465021914e-05,-0.00014268108888063424,0.0,0.19368349087238282,0.0
27.289,0.2539454132318472,0.2539340233802785,4.301975699490832e-05,-0.00014297588451881737,0.0,0.19408366337418526,0.0
27.29,0.254469012022016,0.2544575986862172,4.310845752479473e-05,-0.0001432706801570005,0.0,0.1944838358759877,0.0
27.291,0.2549926108121848,0.2549811739921559,4.319715805468114e-05,-0.00014356547579518362,0.0,0.19488400837779013,0.0
27.292,0.25551620960235355,0.25550474929809464,4.328585858456755e-05,-0.00014386027143336674,0.0,0.19528418087959257,0.0
27.293,0.25603980839252233,0.25602832460403335,4.3374559114453956e-05,-0.00014415506707154987,0.0,0.195684353381395,0.0
27.294,0.2565634071826911,0.25655189990997207,4.3463259644340364e-05,-0.000144449862709733,0.0,0.19608452588319744,0.0
27.295,0.2570870059728599,0.2570754752159108,4.355196017422677e-05,-0.00014474465834791612,0.0,0.19648469838499988,0.0
27.296,0.25761060476302866,0.2575990505218495,4.364066070411318e-05,-0.00014503945398609925,0.0,0.19688487088680232,0.0
27.297,0.25813420355319744,0.2581226258277882,4.372936123399959e-05,-0.00014533424962428237,0.0,0.19728504338860475,0.0
27.298000000000002,0.2586578023433662,0.25864620113372694,4.3818061763886e-05,-0.0001456290452624655,0.0,0.1976852158904072,0.0
27.299,0.259181401133535,0.25916977643966566,4.3906762293772406e-05,-0.00014592384090064862,0.0,0.19808538839220963,0.0
27.3,0.25970499992370377,0.2596933517456044,4.3995462823658814e-05,-0.00014621863653883175,0.0,0.19848556089401206,0.0
27.301000000000002,0.26022859871387255,0.2602169270515431,4.408416335354522e-05,-0.00014651343217701488,0.0,0.1988857333958145,0.0
27.302,0.2607521975040413,0.2607405023574818,4.417286388343163e-05,-0.000146808227815198,0.0,0.19928590589761694,0.0
27.303,0.2612757962942101,0.2612640776634205,4.426156441331804e-05,-0.00014710302345338113,0.0,0.19968607839941938,0.0
27.316000000000003,0.2612757962942101,0.2612640776634205,4.426156441331804e-05,-0.00014710302345338113,0.0,0.19968607839941938,0.0
27.317,0.26084334090351835,0.26074116623401533,4.474300646688752e-05,-0.00014962918331730014,0.0,0.19916739597916563,0.0
27.318,0.2604108855128266,0.26021825480461014,4.5224448520457e-05,-0.00015215534318121916,0.0,0.1986487135589119,0.0
27.319000000000003,0.25997843012213484,0.25969534337520495,4.570589057402648e-05,-0.00015468150304513817,0.0,0.19813003113865815,0.0
27.32,0.2595459747314431,0.25917243194579975,4.618733262759596e-05,-0.00015720766290905718,0.0,0.1976113487184044,0.0
27.321,0.25911351934075133,0.25864952051639456,4.666877468116544e-05,-0.0001597338227729762,0.0,0.19709266629815067,0.0
27.322000000000003,0.2586810639500596,0.25812660908698937,4.7150216734734923e-05,-0.0001622599826368952,0.0,0.19657398387789693,0.0
27.323,0.2582486085593678,0.2576036976575842,4.7631658788304404e-05,-0.00016478614250081423,0.0,0.1960553014576432,0.0
27.324,0.25781615316867607,0.257080786228179,4.8113100841873885e-05,-0.00016731230236473324,0.0,0.19553661903738945,0.0
27.325000000000003,0.2573836977779843,0.2565578747987738,4.8594542895443366e-05,-0.00016983846222865225,0.0,0.1950179366171357,0.0
27.326,0.25695124238729256,0.2560349633693686,4.9075984949012846e-05,-0.00017236462209257127,0.0,0.19449925419688197,0.0
27.327,0.2565187869966008,0.2555120519399634,4.955742700258233e-05,-0.00017489078195649028,0.0,0.19398057177662822,0.0
27.328000000000003,0.25608633160590905,0.2549891405105582,5.003886905615181e-05,-0.0001774169418204093,0.0,0.19346188935637448,0.0
27.329,0.2556538762152173,0.254466229081153,5.052031110972129e-05,-0.0001799431016843283,0.0,0.19294320693612074,0.0
27.330000000000002,0.25522142082452554,0.2539433176517478,5.100175316329077e-05,-0.00018246926154824732,0.0,0.192424524515867,0.0
27.331,0.2547889654338338,0.25342040622234263,5.148319521686025e-05,-0.00018499542141216634,0.0,0.19190584209561326,0.0
27.332,0.254356510043142,0.25289749479293744,5.196463727042973e-05,-0.00018752158127608535,0.0,0.19138715967535952,0.0
27.333000000000002,0.25392405465245027,0.25237458336353225,5.244607932399921e-05,-0.00019004774114000437,0.0,0.19086847725510578,0.0
27.334,0.2534915992617585,0.25185167193412705,5.292752137756869e-05,-0.00019257390100392338,0.0,0.19034979483485204,0.0
27.335,0.25305914387106676,0.25132876050472186,5.340896343113817e-05,-0.0001951000608678424,0.0,0.1898311124145983,0.0
27.336000000000002,0.252626688480375,0.25080584907531667,5.3890405484707654e-05,-0.0001976262207317614,0.0,0.18931242999434456,0.0
27.337,0.25219423308968325,0.2502829376459115,5.4371847538277134e-05,-0.00020015238059568042,0.0,0.18879374757409081,0.0
27.338,0.2517617776989915,0.24976002621650625,5.4853289591846615e-05,-0.00020267854045959944,0.0,0.18827506515383707,0.0
27.339000000000002,0.25132932230829974,0.24923711478710103,5.5334731645416096e-05,-0.00020520470032351845,0.0,0.18775638273358333,0.0
27.34,0.250896866917608,0.2487142033576958,5.5816173698985576e-05,-0.00020773086018743747,0.0,0.1872377003133296,0.0
27.341,0.25046441152691623,0.2481912919282906,5.629761575255506e-05,-0.00021025702005135648,0.0,0.18671901789307585,0.0
27.342000000000002,0.2500319561362245,0.24766838049888537,5.677905780612454e-05,-0.0002127831799152755,0.0,0.1862003354728221,0.0
27.343,0.24959950074553272,0.24714546906948015,5.726049985969402e-05,-0.0002153093397791945,0.0,0.18568165305256837,0.0
27.344,0.24916704535484097,0.24662255764007493,5.77419419132635e-05,-0.00021783549964311352,0.0,0.18516297063231463,0.0
27.345000000000002,0.2487345899641492,0.2460996462106697,5.822338396683298e-05,-0.00022036165950703254,0.0,0.1846442882120609,0.0
27.346,0.24830213457345746,0.2455767347812645,5.870482602040246e-05,-0.00022288781937095155,0.0,0.18412560579180715,0.0
27.347,0.2478696791827657,0.24505382335185927,5.918626807397194e-05,-0.00022541397923487056,0.0,0.1836069233715534,0.0
27.348000000000003,0.24743722379207395,0.24453091192245405,5.966771012754142e-05,-0.00022794013909878958,0.0,0.18308824095129966,0.0
27.349,0.2470047684013822,0.24400800049304883,6.01491521811109e-05,-0.0002304662989627086,0.0,0.18256955853104592,0.0
27.35,0.24657231301069044,0.2434850890636436,6.0630594234680384e-05,-0.0002329924588266276,0.0,0.18205087611079218,0.0
27.351000000000003,0.24613985761999868,0.24296217763423839,6.111203628824986e-05,-0.00023551861869054662,0.0,0.18153219369053844,0.0
27.352,0.24570740222930693,0.24243926620483316,6.159347834181935e-05,-0.00023804477855446563,0.0,0.1810135112702847,0.0
27.353,0.24527494683861517,0.24191635477542794,6.207492039538884e-05,-0.00024057093841838465,0.0,0.18049482885003096,0.0
27.354000000000003,0.24484249144792342,0.24139344334602272,6.255636244895833e-05,-0.00024309709828230366,0.0,0.17997614642977722,0.0
27.355,0.24441003605723166,0.2408705319166175,6.303780450252781e-05,-0.0002456232581462227,0.0,0.17945746400952348,0.0
27.356,0.2439775806665399,0.24034762048721228,6.35192465560973e-05,-0.0002481494180101417,0.0,0.17893878158926974,0.0
27.357000000000003,0.24354512527584815,0.23982470905780706,6.400068860966679e-05,-0.00025067557787406073,0.0,0.178420099169016,0.0
27.358,0.2431126698851564,0.23930179762840184,6.448213066323628e-05,-0.00025320173773797975,0.0,0.17790141674876225,0.0
27.359,0.24268021449446464,0.23877888619899662,6.496357271680576e-05,-0.00025572789760189876,0.0,0.1773827343285085,0.0
27.360000000000003,0.2422477591037729,0.2382559747695914,6.544501477037525e-05,-0.0002582540574658178,0.0,0.17686405190825477,0.0
27.361,0.24181530371308113,0.23773306334018618,6.592645682394474e-05,-0.0002607802173297368,0.0,0.17634536948800103,0.0
27.362000000000002,0.24138284832238938,0.23721015191078096,6.640789887751423e-05,-0.0002633063771936558,0.0,0.1758266870677473,0.0
27.363,0.24095039293169762,0.23668724048137574,6.688934093108371e-05,-0.0002658325370575748,0.0,0.17530800464749355,0.0
27.364,0.24051793754100587,0.23616432905197052,6.73707829846532e-05,-0.00026835869692149383,0.0,0.1747893222272398,0.0
27.365000000000002,0.2400854821503141,0.2356414176225653,6.785222503822269e-05,-0.00027088485678541284,0.0,0.17427063980698607,0.0
27.366,0.23965302675962236,0.23511850619316008,6.833366709179218e-05,-0.00027341101664933186,0.0,0.17375195738673233,0.0
27.367,0.2392205713689306,0.23459559476375486,6.881510914536166e-05,-0.00027593717651325087,0.0,0.17323327496647858,0.0
27.368000000000002,0.23878811597823885,0.23407268333434963,6.929655119893115e-05,-0.0002784633363771699,0.0,0.17271459254622484,0.0
27.369,0.2383556605875471,0.23354977190494441,6.977799325250064e-05,-0.0002809894962410889,0.0,0.1721959101259711,0.0
27.37,0.23792320519685534,0.2330268604755392,7.025943530607013e-05,-0.0002835156561050079,0.0,0.17167722770571736,0.0
27.371000000000002,0.23749074980616358,0.23250394904613397,7.074087735963961e-05,-0.00028604181596892693,0.0,0.17115854528546362,0.0
27.372,0.23705829441547183,0.23198103761672875,7.12223194132091e-05,-0.00028856797583284594,0.0,0.17063986286520988,0.0
27.373,0.23662583902478007,0.23145812618732353,7.170376146677859e-05,-0.00029109413569676496,0.0,0.17012118044495614,0.0
27.374000000000002,0.23619338363408832,0.2309352147579183,7.218520352034808e-05,-0.00029362029556068397,0.0,0.1696024980247024,0.0
27.375,0.23576092824339656,0.2304123033285131,7.266664557391756e-05,-0.000296146455424603,0.0,0.16908381560444866,0.0
27.376,0.2353284728527048,0.22988939189910787,7.314808762748705e-05,-0.000298672615288522,0.0,0.16856513318419492,0.0
27.377000000000002,0.23489601746201305,0.22936648046970265,7.362952968105654e-05,-0.000301198775152441,0.0,0.16804645076394117,0.0
27.378,0.2344635620713213,0.22884356904029743,7.411097173462603e-05,-0.00030372493501636,0.0,0.16752776834368743,0.0
27.379,0.23403110668062954,0.2283206576108922,7.459241378819551e-05,-0.00030625109488027904,0.0,0.1670090859234337,0.0
27.380000000000003,0.2335986512899378,0.227797746181487,7.5073855841765e-05,-0.00030877725474419805,0.0,0.16649040350317995,0.0
27.381,0.23316619589924603,0.22727483475208177,7.555529789533449e-05,-0.00031130341460811707,0.0,0.1659717210829262,0.0
27.382,0.23273374050855428,0.22675192332267655,7.603673994890398e-05,-0.0003138295744720361,0.0,0.16545303866267247,0.0
27.383000000000003,0.23230128511786252,0.22622901189327133,7.651818200247346e-05,-0.0003163557343359551,0.0,0.16493435624241873,0.0
27.384,0.23186882972717077,0.2257061004638661,7.699962405604295e-05,-0.0003188818941998741,0.0,0.164415673822165,0.0
27.385,0.231436374336479,0.22518318903446088,7.748106610961244e-05,-0.0003214080540637931,0.0,0.16389699140191125,0.0
27.386000000000003,0.23100391894578726,0.22466027760505566,7.796250816318193e-05,-0.00032393421392771214,0.0,0.1633783089816575,0.0
27.387,0.2305714635550955,0.22413736617565044,7.844395021675141e-05,-0.00032646037379163115,0.0,0.16285962656140376,0.0
27.388,0.23013900816440375,0.22361445474624522,7.89253922703209e-05,-0.00032898653365555017,0.0,0.16234094414115002,0.0
27.389000000000003,0.229706552773712,0.22309154331684,7.940683432389039e-05,-0.0003315126935194692,0.0,0.16182226172089628,0.0
27.39,0.22927409738302024,0.22256863188743478,7.988827637745988e-05,-0.0003340388533833882,0.0,0.16130357930064254,0.0
27.391000000000002,0.22884164199232848,0.22204572045802956,8.036971843102936e-05,-0.0003365650132473072,0.0,0.1607848968803888,0.0
27.392000000000003,0.22840918660163673,0.22152280902862434,8.085116048459885e-05,-0.0003390911731112262,0.0,0.16026621446013506,0.0
27.393,0.22797673121094497,0.22099989759921912,8.133260253816834e-05,-0.00034161733297514524,0.0,0.15974753203988132,0.0
27.394000000000002,0.22754427582025322,0.2204769861698139,8.181404459173783e-05,-0.00034414349283906425,0.0,0.15922884961962758,0.0
27.395,0.22711182042956146,0.21995407474040868,8.229548664530731e-05,-0.00034666965270298327,0.0,0.15871016719937384,0.0
27.396,0.2266793650388697,0.21943116331100346,8.27769286988768e-05,-0.0003491958125669023,0.0,0.1581914847791201,0.0
27.397000000000002,0.22624690964817795,0.21890825188159824,8.325837075244629e-05,-0.0003517219724308213,0.0,0.15767280235886635,0.0
27.398,0.2258144542574862,0.21838534045219302,8.373981280601578e-05,-0.0003542481322947403,0.0,0.1571541199386126,0.0
27.399,0.22538199886679444,0.2178624290227878,8.422125485958526e-05,-0.0003567742921586593,0.0,0.15663543751835887,0.0
27.400000000000002,0.2249495434761027,0.21733951759338258,8.470269691315475e-05,-0.00035930045202257834,0.0,0.15611675509810513,0.0
27.401,0.22451708808541093,0.21681660616397735,8.518413896672424e-05,-0.00036182661188649735,0.0,0.1555980726778514,0.0
27.402,0.22408463269471918,0.21629369473457213,8.566558102029373e-05,-0.00036435277175041636,0.0,0.15507939025759765,0.0
27.403000000000002,0.22365217730402742,0.2157707833051669,8.614702307386321e-05,-0.0003668789316143354,0.0,0.1545607078373439,0.0
27.404,0.22321972191333567,0.2152478718757617,8.66284651274327e-05,-0.0003694050914782544,0.0,0.15404202541709017,0.0
27.405,0.2227872665226439,0.21472496044635647,8.710990718100219e-05,-0.0003719312513421734,0.0,0.15352334299683643,0.0
27.406000000000002,0.22235481113195216,0.21420204901695125,8.759134923457168e-05,-0.0003744574112060924,0.0,0.15300466057658269,0.0
27.407,0.2219223557412604,0.21367913758754603,8.807279128814116e-05,-0.00037698357107001143,0.0,0.15248597815632894,0.0
27.408,0.22148990035056865,0.2131562261581408,8.855423334171065e-05,-0.00037950973093393045,0.0,0.1519672957360752,0.0
27.409000000000002,0.2210574449598769,0.2126333147287356,8.903567539528014e-05,-0.00038203589079784946,0.0,0.15144861331582146,0.0
27.41,0.22062498956918514,0.21211040329933037,8.951711744884963e-05,-0.0003845620506617685,0.0,0.15092993089556772,0.0
27.411,0.22019253417849338,0.21158749186992515,8.999855950241911e-05,-0.0003870882105256875,0.0,0.15041124847531398,0.0
27.412000000000003,0.21976007878780163,0.21106458044051993,9.04800015559886e-05,-0.0003896143703896065,0.0,0.14989256605506024,0.0
27.413,0.21932762339710987,0.2105416690111147,9.096144360955809e-05,-0.0003921405302535255,0.0,0.1493738836348065,0.0
27.414,0.21889516800641812,0.2100187575817095,9.144288566312758e-05,-0.00039466669011744453,0.0,0.14885520121455276,0.0
27.415000000000003,0.21846271261572636,0.20949584615230427,9.192432771669706e-05,-0.00039719284998136355,0.0,0.14833651879429902,0.0
27.416,0.2180302572250346,0.20897293472289905,9.240576977026655e-05,-0.00039971900984528256,0.0,0.14781783637404527,0.0
27.417,0.21759780183434285,0.20845002329349382,9.288721182383604e-05,-0.0004022451697092016,0.0,0.14729915395379153,0.0
27.418000000000003,0.2171653464436511,0.2079271118640886,9.336865387740553e-05,-0.0004047713295731206,0.0,0.1467804715335378,0.0
27.419,0.21673289105295934,0.20740420043468338,9.385009593097501e-05,-0.0004072974894370396,0.0,0.14626178911328405,0.0
27.42,0.2163004356622676,0.20688128900527816,9.43315379845445e-05,-0.0004098236493009586,0.0,0.1457431066930303,0.0
27.421000000000003,0.21586798027157583,0.20635837757587294,9.481298003811399e-05,-0.00041234980916487763,0.0,0.14522442427277657,0.0
27.422,0.21543552488088408,0.20583546614646772,9.529442209168348e-05,-0.00041487596902879665,0.0,0.14470574185252283,0.0
27.423000000000002,0.21500306949019232,0.2053125547170625,9.577586414525296e-05,-0.00041740212889271566,0.0,0.1441870594322691,0.0
27.424000000000003,0.21457061409950057,0.20478964328765728,9.625730619882245e-05,-0.0004199282887566347,0.0,0.14366837701201535,0.0
27.425,0.2141381587088088,0.20426673185825206,9.673874825239194e-05,-0.0004224544486205537,0.0,0.1431496945917616,0.0
27.426000000000002,0.21370570331811706,0.20374382042884684,9.722019030596143e-05,-0.0004249806084844727,0.0,0.14263101217150786,0.0
27.427,0.2132732479274253,0.20322090899944162,9.770163235953091e-05,-0.0004275067683483917,0.0,0.14211232975125412,0.0
27.428,0.21284079253673355,0.2026979975700364,9.81830744131004e-05,-0.00043003292821231073,0.0,0.14159364733100038,0.0
27.429000000000002,0.2124083371460418,0.20217508614063118,9.866451646666989e-05,-0.00043255908807622974,0.0,0.14107496491074664,0.0
27.43,0.21197588175535004,0.20165217471122596,9.914595852023938e-05,-0.00043508524794014876,0.0,0.1405562824904929,0.0
27.431,0.21154342636465828,0.20112926328182074,9.962740057380886e-05,-0.00043761140780406777,0.0,0.14003760007023916,0.0
27.432000000000002,0.21111097097396653,0.20060635185241552,0.00010010884262737835,-0.0004401375676679868,0.0,0.13951891764998542,0.0
27.433,0.21067851558327477,0.2000834404230103,0.00010059028468094784,-0.0004426637275319058,0.0,0.13900023522973168,0.0
27.434,0.21024606019258302,0.19956052899360507,0.00010107172673451733,-0.0004451898873958248,0.0,0.13848155280947794,0.0
27.435000000000002,0.20981360480189126,0.19903761756419985,0.00010155316878808681,-0.00044771604725974383,0.0,0.1379628703892242,0.0
27.436,0.2093811494111995,0.19851470613479463,0.0001020346108416563,-0.00045024220712366284,0.0,0.13744418796897045,0.0
27.437,0.20894869402050775,0.1979917947053894,0.00010251605289522579,-0.00045276836698758186,0.0,0.1369255055487167,0.0
27.438000000000002,0.208516238629816,0.1974688832759842,0.00010299749494879528,-0.00045529452685150087,0.0,0.13640682312846297,0.0
27.439,0.20808378323912424,0.19694597184657897,0.00010347893700236476,-0.0004578206867154199,0.0,0.13588814070820923,0.0
27.44,0.2076513278484325,0.19642306041717375,0.00010396037905593425,-0.0004603468465793389,0.0,0.1353694582879555,0.0
27.441000000000003,0.20721887245774073,0.19590014898776853,0.00010444182110950374,-0.0004628730064432579,0.0,0.13485077586770175,0.0
27.442,0.20678641706704898,0.1953772375583633,0.00010492326316307323,-0.0004653991663071769,0.0,0.134332093447448,0.0
27.443,0.20635396167635722,0.1948543261289581,0.00010540470521664271,-0.00046792532617109594,0.0,0.13381341102719427,0.0
27.444000000000003,0.20592150628566547,0.19433141469955287,0.0001058861472702122,-0.00047045148603501495,0.0,0.13329472860694053,0.0
27.445,0.2054890508949737,0.19380850327014765,0.00010636758932378169,-0.00047297764589893397,0.0,0.13277604618668679,0.0
27.446,0.20505659550428196,0.19328559184074243,0.00010684903137735118,-0.000475503805762853,0.0,0.13225736376643304,0.0
27.447000000000003,0.2046241401135902,0.1927626804113372,0.00010733047343092066,-0.000478029965626772,0.0,0.1317386813461793,0.0
27.448,0.20419168472289845,0.19223976898193199,0.00010781191548449015,-0.000480556125490691,0.0,0.13121999892592556,0.0
27.449,0.2037592293322067,0.19171685755252676,0.00010829335753805964,-0.00048308228535461,0.0,0.13070131650567182,0.0
27.450000000000003,0.20332677394151494,0.19119394612312154,0.00010877479959162913,-0.00048560844521852904,0.0,0.13018263408541808,0.0
27.451,0.20289431855082318,0.19067103469371632,0.00010925624164519861,-0.00048813460508244805,0.0,0.12966395166516434,0.0
27.452,0.20246186316013143,0.1901481232643111,0.0001097376836987681,-0.0004906607649463671,0.0,0.1291452692449106,0.0
27.453000000000003,0.20202940776943967,0.18962521183490588,0.00011021912575233759,-0.0004931869248102861,0.0,0.12862658682465686,0.0
27.454,0.20159695237874792,0.18910230040550066,0.00011070056780590708,-0.0004957130846742052,0.0,0.12810790440440312,0.0
27.455000000000002,0.20116449698805616,0.18857938897609544,0.00011118200985947656,-0.0004982392445381243,0.0,0.12758922198414938,0.0
27.456000000000003,0.2007320415973644,0.18805647754669022,0.00011166345191304605,-0.0005007654044020433,0.0,0.12707053956389563,0.0
27.457,0.20029958620667265,0.187533566117285,0.00011214489396661554,-0.0005032915642659624,0.0,0.1265518571436419,0.0
27.458000000000002,0.1998671308159809,0.18701065468787978,0.00011262633602018503,-0.0005058177241298815,0.0,0.12603317472338815,0.0
27.459,0.19943467542528914,0.18648774325847456,0.00011310777807375451,-0.0005083438839938005,0.0,0.1255144923031344,0.0
27.46,0.1990022200345974,0.18596483182906934,0.000113589220127324,-0.0005108700438577196,0.0,0.12499580988288066,0.0
27.461000000000002,0.19856976464390563,0.18544192039966412,0.00011407066218089349,-0.0005133962037216387,0.0,0.1244771274626269,0.0
27.462,0.19813730925321388,0.1849190089702589,0.00011455210423446298,-0.0005159223635855577,0.0,0.12395844504237315,0.0
27.463,0.19770485386252212,0.18439609754085368,0.00011503354628803246,-0.0005184485234494768,0.0,0.12343976262211939,0.0
27.464000000000002,0.19727239847183037,0.18387318611144846,0.00011551498834160195,-0.0005209746833133959,0.0,0.12292108020186564,0.0
27.465,0.1968399430811386,0.18335027468204323,0.00011599643039517144,-0.000523500843177315,0.0,0.12240239778161188,0.0
27.466,0.19640748769044686,0.18282736325263801,0.00011647787244874093,-0.000526027003041234,0.0,0.12188371536135813,0.0
27.467000000000002,0.1959750322997551,0.1823044518232328,0.00011695931450231041,-0.0005285531629051531,0.0,0.12136503294110437,0.0
27.468,0.19554257690906335,0.18178154039382757,0.0001174407565558799,-0.0005310793227690722,0.0,0.12084635052085062,0.0
27.469,0.1951101215183716,0.18125862896442235,0.00011792219860944939,-0.0005336054826329912,0.0,0.12032766810059686,0.0
27.470000000000002,0.19467766612767984,0.18073571753501713,0.00011840364066301888,-0.0005361316424969103,0.0,0.11980898568034311,0.0
27.471,0.19424521073698808,0.1802128061056119,0.00011888508271658836,-0.0005386578023608294,0.0,0.11929030326008935,0.0
27.472,0.19381275534629633,0.1796898946762067,0.00011936652477015785,-0.0005411839622247484,0.0,0.1187716208398356,0.0
27.473000000000003,0.19338029995560457,0.17916698324680147,0.00011984796682372734,-0.0005437101220886675,0.0,0.11825293841958184,0.0
27.474,0.19294784456491282,0.17864407181739625,0.00012032940887729683,-0.0005462362819525866,0.0,0.11773425599932809,0.0
27.475,0.19251538917422106,0.17812116038799103,0.00012081085093086631,-0.0005487624418165056,0.0,0.11721557357907433,0.0
27.476000000000003,0.1920829337835293,0.1775982489585858,0.0001212922929844358,-0.0005512886016804247,0.0,0.11669689115882058,0.0
27.477,0.19165047839283755,0.1770753375291806,0.00012177373503800529,-0.0005538147615443438,0.0,0.11617820873856682,0.0
27.478,0.1912180230021458,0.17655242609977537,0.00012225517709157476,-0.0005563409214082628,0.0,0.11565952631831307,0.0
27.479000000000003,0.19078556761145404,0.17602951467037015,0.00012273661914514425,-0.0005588670812721819,0.0,0.11514084389805931,0.0
27.48,0.1903531122207623,0.17550660324096493,0.00012321806119871374,-0.000561393241136101,0.0,0.11462216147780556,0.0
27.481,0.18992065683007053,0.1749836918115597,0.00012369950325228323,-0.00056391940100002,0.0,0.1141034790575518,0.0
27.482000000000003,0.18948820143937878,0.17446078038215448,0.0001241809453058527,-0.0005664455608639391,0.0,0.11358479663729805,0.0
27.483,0.18905574604868702,0.17393786895274926,0.0001246623873594222,-0.0005689717207278582,0.0,0.1130661142170443,0.0
27.484,0.18862329065799527,0.17341495752334404,0.0001251438294129917,-0.0005714978805917773,0.0,0.11254743179679054,0.0
27.485000000000003,0.1881908352673035,0.17289204609393882,0.00012562527146656118,-0.0005740240404556963,0.0,0.11202874937653678,0.0
27.486,0.18775837987661176,0.1723691346645336,0.00012610671352013066,-0.0005765502003196154,0.0,0.11151006695628303,0.0
27.487000000000002,0.18732592448592,0.17184622323512838,0.00012658815557370015,-0.0005790763601835345,0.0,0.11099138453602928,0.0
27.488,0.18689346909522825,0.17132331180572316,0.00012706959762726964,-0.0005816025200474535,0.0,0.11047270211577552,0.0
27.489,0.1864610137045365,0.17080040037631794,0.00012755103968083913,-0.0005841286799113726,0.0,0.10995401969552177,0.0
27.490000000000002,0.18602855831384474,0.17027748894691272,0.0001280324817344086,-0.0005866548397752917,0.0,0.10943533727526801,0.0
27.491,0.18559610292315298,0.1697545775175075,0.0001285139237879781,-0.0005891809996392107,0.0,0.10891665485501426,0.0
27.492,0.18516364753246123,0.16923166608810228,0.0001289953658415476,-0.0005917071595031298,0.0,0.1083979724347605,0.0
27.493000000000002,0.18473119214176947,0.16870875465869706,0.00012947680789511708,-0.0005942333193670489,0.0,0.10787929001450675,0.0
27.494,0.18429873675107772,0.16818584322929184,0.00012995824994868656,-0.0005967594792309679,0.0,0.10736060759425299,0.0
27.495,0.18386628136038596,0.16766293179988662,0.00013043969200225605,-0.000599285639094887,0.0,0.10684192517399924,0.0
27.496000000000002,0.1834338259696942,0.1671400203704814,0.00013092113405582554,-0.0006018117989588061,0.0,0.10632324275374548,0.0
27.497,0.18300137057900245,0.16661710894107618,0.00013140257610939503,-0.0006043379588227251,0.0,0.10580456033349173,0.0
27.498,0.1825689151883107,0.16609419751167095,0.0001318840181629645,-0.0006068641186866442,0.0,0.10528587791323797,0.0
27.499000000000002,0.18213645979761894,0.16557128608226573,0.000132365460216534,-0.0006093902785505633,0.0,0.10476719549298422,0.0
27.5,0.1817040044069272,0.1650483746528605,0.0001328469022701035,-0.0006119164384144823,0.0,0.10424851307273046,0.0
27.501,0.18127154901623543,0.1645254632234553,0.00013332834432367298,-0.0006144425982784014,0.0,0.1037298306524767,0.0
27.502000000000002,0.18083909362554368,0.16400255179405007,0.00013380978637724246,-0.0006169687581423205,0.0,0.10321114823222295,0.0
27.503,0.18040663823485192,0.16347964036464485,0.00013429122843081195,-0.0006194949180062395,0.0,0.1026924658119692,0.0
27.504,0.17997418284416017,0.16295672893523963,0.00013477267048438144,-0.0006220210778701586,0.0,0.10217378339171544,0.0
27.505000000000003,0.1795417274534684,0.1624338175058344,0.00013525411253795093,-0.0006245472377340777,0.0,0.10165510097146169,0.0
27.506,0.17910927206277666,0.1619109060764292,0.0001357355545915204,-0.0006270733975979968,0.0,0.10113641855120793,0.0
27.507,0.1786768166720849,0.16138799464702397,0.0001362169966450899,-0.0006295995574619158,0.0,0.10061773613095418,0.0
27.508000000000003,0.17824436128139315,0.16086508321761875,0.0001366984386986594,-0.0006321257173258349,0.0,0.10009905371070042,0.0
27.509,0.1778119058907014,0.16034217178821353,0.00013717988075222888,-0.000634651877189754,0.0,0.09958037129044667,0.0
27.51,0.17737945050000964,0.1598192603588083,0.00013766132280579836,-0.000637178037053673,0.0,0.09906168887019291,0.0
27.511000000000003,0.17694699510931788,0.1592963489294031,0.00013814276485936785,-0.0006397041969175921,0.0,0.09854300644993916,0.0
27.512,0.17651453971862613,0.15877343749999787,0.00013862420691293734,-0.0006422303567815112,0.0,0.0980243240296854,0.0
27.513,0.17608208432793437,0.15825052607059265,0.00013910564896650683,-0.0006447565166454302,0.0,0.09750564160943165,0.0
27.514000000000003,0.17564962893724262,0.15772761464118742,0.0001395870910200763,-0.0006472826765093493,0.0,0.0969869591891779,0.0
27.515,0.17521717354655086,0.1572047032117822,0.0001400685330736458,-0.0006498088363732684,0.0,0.09646827676892414,0.0
27.516000000000002,0.1747847181558591,0.15668179178237698,0.0001405499751272153,-0.0006523349962371874,0.0,0.09594959434867038,0.0
27.517000000000003,0.17435226276516735,0.15615888035297176,0.00014103141718078478,-0.0006548611561011065,0.0,0.09543091192841663,0.0
27.518,0.1739198073744756,0.15563596892356654,0.00014151285923435426,-0.0006573873159650256,0.0,0.09491222950816287,0.0
27.519000000000002,0.17348735198378384,0.15511305749416132,0.00014199430128792375,-0.0006599134758289446,0.0,0.09439354708790912,0.0
27.52,0.1730548965930921,0.1545901460647561,0.00014247574334149324,-0.0006624396356928637,0.0,0.09387486466765536,0.0
27.521,0.17262244120240033,0.15406723463535088,0.00014295718539506273,-0.0006649657955567828,0.0,0.09335618224740161,0.0
27.522000000000002,0.17218998581170858,0.15354432320594566,0.0001434386274486322,-0.0006674919554207018,0.0,0.09283749982714785,0.0
27.523,0.17175753042101682,0.15302141177654044,0.0001439200695022017,-0.0006700181152846209,0.0,0.0923188174068941,0.0
27.524,0.17132507503032507,0.15249850034713522,0.0001444015115557712,-0.00067254427514854,0.0,0.09180013498664034,0.0
27.525000000000002,0.17089261963963331,0.15197558891773,0.00014488295360934068,-0.000675070435012459,0.0,0.09128145256638659,0.0
27.526,0.17046016424894156,0.15145267748832478,0.00014536439566291016,-0.0006775965948763781,0.0,0.09076277014613283,0.0
27.527,0.1700277088582498,0.15092976605891956,0.00014584583771647965,-0.0006801227547402972,0.0,0.09024408772587908,0.0
27.528000000000002,0.16959525346755805,0.15040685462951434,0.00014632727977004914,-0.0006826489146042163,0.0,0.08972540530562532,0.0
27.529,0.1691627980768663,0.14988394320010912,0.00014680872182361863,-0.0006851750744681353,0.0,0.08920672288537157,0.0
27.53,0.16873034268617454,0.1493610317707039,0.0001472901638771881,-0.0006877012343320544,0.0,0.08868804046511782,0.0
27.531000000000002,0.16829788729548278,0.14883812034129867,0.0001477716059307576,-0.0006902273941959735,0.0,0.08816935804486406,0.0
27.532,0.16786543190479103,0.14831520891189345,0.0001482530479843271,-0.0006927535540598925,0.0,0.0876506756246103,0.0
27.533,0.16743297651409927,0.14779229748248823,0.00014873449003789658,-0.0006952797139238116,0.0,0.08713199320435655,0.0
27.534000000000002,0.16700052112340752,0.147269386053083,0.00014921593209146606,-0.0006978058737877307,0.0,0.0866133107841028,0.0
27.535,0.16656806573271576,0.1467464746236778,0.00014969737414503555,-0.0007003320336516497,0.0,0.08609462836384904,0.0
27.536,0.166135610342024,0.14622356319427257,0.00015017881619860504,-0.0007028581935155688,0.0,0.08557594594359529,0.0
27.537000000000003,0.16570315495133225,0.14570065176486735,0.00015066025825217453,-0.0007053843533794879,0.0,0.08505726352334153,0.0
27.538,0.1652706995606405,0.14517774033546213,0.000151141700305744,-0.0007079105132434069,0.0,0.08453858110308778,0.0
27.539,0.16483824416994874,0.1446548289060569,0.0001516231423593135,-0.000710436673107326,0.0,0.08401989868283402,0.0
27.540000000000003,0.164405788779257,0.1441319174766517,0.000152104584412883,-0.0007129628329712451,0.0,0.08350121626258027,0.0
27.541,0.16397333338856523,0.14360900604724647,0.00015258602646645248,-0.0007154889928351641,0.0,0.08298253384232651,0.0
27.542,0.16354087799787348,0.14308609461784125,0.00015306746852002196,-0.0007180151526990832,0.0,0.08246385142207276,0.0
27.543000000000003,0.16310842260718172,0.14256318318843603,0.00015354891057359145,-0.0007205413125630023,0.0,0.081945169001819,0.0
27.544,0.16267596721648997,0.1420402717590308,0.00015403035262716094,-0.0007230674724269213,0.0,0.08142648658156525,0.0
27.545,0.16224351182579821,0.14151736032962559,0.00015451179468073043,-0.0007255936322908404,0.0,0.08090780416131149,0.0
27.546000000000003,0.16181105643510646,0.14099444890022036,0.0001549932367342999,-0.0007281197921547595,0.0,0.08038912174105774,0.0
27.547,0.1613786010444147,0.14047153747081514,0.0001554746787878694,-0.0007306459520186786,0.0,0.07987043932080398,0.0
27.548000000000002,0.16094614565372295,0.13994862604140992,0.0001559561208414389,-0.0007331721118825976,0.0,0.07935175690055023,0.0
27.549000000000003,0.1605136902630312,0.1394257146120047,0.00015643756289500838,-0.0007356982717465167,0.0,0.07883307448029647,0.0
27.55,0.16008123487233944,0.13890280318259948,0.00015691900494857786,-0.0007382244316104358,0.0,0.07831439206004272,0.0
27.551000000000002,0.15964877948164768,0.13837989175319426,0.00015740044700214735,-0.0007407505914743548,0.0,0.07779570963978896,0.0
27.552,0.15921632409095593,0.13785698032378904,0.00015788188905571684,-0.0007432767513382739,0.0,0.07727702721953521,0.0
27.553,0.15878386870026417,0.13733406889438382,0.00015836333110928633,-0.000745802911202193,0.0,0.07675834479928145,0.0
27.554000000000002,0.15835141330957242,0.1368111574649786,0.0001588447731628558,-0.000748329071066112,0.0,0.0762396623790277,0.0
27.555,0.15791895791888066,0.13628824603557338,0.0001593262152164253,-0.0007508552309300311,0.0,0.07572097995877394,0.0
27.556,0.1574865025281889,0.13576533460616816,0.0001598076572699948,-0.0007533813907939502,0.0,0.07520229753852019,0.0
27.557000000000002,0.15705404713749715,0.13524242317676294,0.00016028909932356428,-0.0007559075506578692,0.0,0.07468361511826643,0.0
27.558,0.1566215917468054,0.13471951174735772,0.00016077054137713376,-0.0007584337105217883,0.0,0.07416493269801268,0.0
27.559,0.15618913635611364,0.1341966003179525,0.00016125198343070325,-0.0007609598703857074,0.0,0.07364625027775892,0.0
27.560000000000002,0.1557566809654219,0.13367368888854728,0.00016173342548427274,-0.0007634860302496264,0.0,0.07312756785750517,0.0
27.561,0.15532422557473013,0.13315077745914206,0.00016221486753784223,-0.0007660121901135455,0.0,0.07260888543725141,0.0
27.562,0.15489177018403838,0.13262786602973684,0.0001626963095914117,-0.0007685383499774646,0.0,0.07209020301699766,0.0
27.563000000000002,0.15445931479334662,0.13210495460033161,0.0001631777516449812,-0.0007710645098413836,0.0,0.0715715205967439,0.0
27.564,0.15402685940265487,0.1315820431709264,0.0001636591936985507,-0.0007735906697053027,0.0,0.07105283817649015,0.0
27.565,0.15359440401196311,0.13105913174152117,0.00016414063575212018,-0.0007761168295692218,0.0,0.0705341557562364,0.0
27.566000000000003,0.15316194862127136,0.13053622031211595,0.00016462207780568966,-0.0007786429894331409,0.0,0.07001547333598264,0.0
27.567,0.1527294932305796,0.13001330888271073,0.00016510351985925915,-0.0007811691492970599,0.0,0.06949679091572888,0.0
27.568,0.15229703783988785,0.1294903974533055,0.00016558496191282864,-0.000783695309160979,0.0,0.06897810849547513,0.0
27.569000000000003,0.1518645824491961,0.1289674860239003,0.00016606640396639813,-0.0007862214690248981,0.0,0.06845942607522137,0.0
27.57,0.15143212705850434,0.12844457459449507,0.0001665478460199676,-0.0007887476288888171,0.0,0.06794074365496762,0.0
27.571,0.15099967166781258,0.12792166316508985,0.0001670292880735371,-0.0007912737887527362,0.0,0.06742206123471386,0.0
27.572000000000003,0.15056721627712083,0.12739875173568463,0.0001675107301271066,-0.0007937999486166553,0.0,0.06690337881446011,0.0
27.573,0.15013476088642908,0.1268758403062794,0.00016799217218067608,-0.0007963261084805743,0.0,0.06638469639420636,0.0
27.574,0.14970230549573732,0.1263529288768742,0.00016847361423424556,-0.0007988522683444934,0.0,0.0658660139739526,0.0
27.575000000000003,0.14926985010504557,0.12583001744746897,0.00016895505628781505,-0.0008013784282084125,0.0,0.06534733155369885,0.0
27.576,0.1488373947143538,0.12530710601806375,0.00016943649834138454,-0.0008039045880723315,0.0,0.06482864913344509,0.0
27.577,0.14840493932366206,0.12478419458865854,0.00016991794039495403,-0.0008064307479362506,0.0,0.06430996671319134,0.0
27.578000000000003,0.1479724839329703,0.12426128315925333,0.0001703993824485235,-0.0008089569078001697,0.0,0.06379128429293758,0.0
27.579,0.14754002854227855,0.12373837172984813,0.000170880824502093,-0.0008114830676640887,0.0,0.06327260187268383,0.0
27.580000000000002,0.1471075731515868,0.12321546030044292,0.0001713622665556625,-0.0008140092275280078,0.0,0.06275391945243007,0.0
27.581000000000003,0.14667511776089504,0.12269254887103771,0.00017184370860923198,-0.0008165353873919269,0.0,0.062235237032176316,0.0
27.582,0.14624266237020328,0.1221696374416325,0.00017232515066280146,-0.0008190615472558459,0.0,0.06171655461192256,0.0
27.583000000000002,0.14581020697951153,0.1216467260122273,0.00017280659271637095,-0.000821587707119765,0.0,0.061197872191668806,0.0
27.584,0.14537775158881977,0.12112381458282209,0.00017328803476994044,-0.0008241138669836841,0.0,0.06067918977141505,0.0
27.585,0.14494529619812802,0.12060090315341689,0.00017376947682350993,-0.0008266400268476031,0.0,0.060160507351161296,0.0
27.586000000000002,0.14451284080743626,0.12007799172401168,0.0001742509188770794,-0.0008291661867115222,0.0,0.05964182493090754,0.0
27.587,0.1440803854167445,0.11955508029460647,0.0001747323609306489,-0.0008316923465754413,0.0,0.05912314251065379,0.0
27.588,0.14364793002605275,0.11903216886520127,0.0001752138029842184,-0.0008342185064393604,0.0,0.05860446009040003,0.0
27.589000000000002,0.143215474635361,0.11850925743579606,0.00017569524503778788,-0.0008367446663032794,0.0,0.05808577767014628,0.0
27.59,0.14278301924466924,0.11798634600639085,0.00017617668709135736,-0.0008392708261671985,0.0,0.05756709524989252,0.0
27.591,0.14235056385397749,0.11746343457698565,0.00017665812914492685,-0.0008417969860311176,0.0,0.05704841282963877,0.0
27.592000000000002,0.14191810846328573,0.11694052314758044,0.00017713957119849634,-0.0008443231458950366,0.0,0.05652973040938501,0.0
27.593,0.14148565307259398,0.11641761171817523,0.00017762101325206583,-0.0008468493057589557,0.0,0.05601104798913126,0.0
27.594,0.14105319768190222,0.11589470028877003,0.0001781024553056353,-0.0008493754656228748,0.0,0.0554923655688775,0.0
27.595000000000002,0.14062074229121047,0.11537178885936482,0.0001785838973592048,-0.0008519016254867938,0.0,0.05497368314862375,0.0
27.596,0.1401882869005187,0.11484887742995961,0.0001790653394127743,-0.0008544277853507129,0.0,0.05445500072836999,0.0
27.597,0.13975583150982696,0.1143259660005544,0.00017954678146634378,-0.000856953945214632,0.0,0.05393631830811624,0.0
27.598000000000003,0.1393233761191352,0.1138030545711492,0.00018002822351991326,-0.000859480105078551,0.0,0.05341763588786248,0.0
27.599,0.13889092072844345,0.11328014314174399,0.00018050966557348275,-0.0008620062649424701,0.0,0.05289895346760873,0.0
27.6,0.1384584653377517,0.11275723171233878,0.00018099110762705224,-0.0008645324248063892,0.0,0.05238027104735497,0.0
27.601000000000003,0.13802600994705994,0.11223432028293358,0.00018147254968062173,-0.0008670585846703082,0.0,0.05186158862710122,0.0
27.602,0.13759355455636818,0.11171140885352837,0.0001819539917341912,-0.0008695847445342273,0.0,0.05134290620684746,0.0
27.603,0.13716109916567643,0.11118849742412316,0.0001824354337877607,-0.0008721109043981464,0.0,0.05082422378659371,0.0
27.604000000000003,0.13672864377498467,0.11066558599471796,0.0001829168758413302,-0.0008746370642620654,0.0,0.050305541366339954,0.0
27.605,0.13629618838429292,0.11014267456531275,0.00018339831789489968,-0.0008771632241259845,0.0,0.0497868589460862,0.0
27.606,0.13586373299360116,0.10961976313590754,0.00018387975994846916,-0.0008796893839899036,0.0,0.049268176525832444,0.0
27.607000000000003,0.1354312776029094,0.10909685170650234,0.00018436120200203865,-0.0008822155438538226,0.0,0.04874949410557869,0.0
27.608,0.13499882221221765,0.10857394027709713,0.00018484264405560814,-0.0008847417037177417,0.0,0.048230811685324934,0.0
27.609,0.1345663668215259,0.10805102884769192,0.00018532408610917763,-0.0008872678635816608,0.0,0.04771212926507118,0.0
27.610000000000003,0.13413391143083414,0.10752811741828672,0.0001858055281627471,-0.0008897940234455799,0.0,0.047193446844817424,0.0
27.611,0.13370145604014239,0.10700520598888151,0.0001862869702163166,-0.0008923201833094989,0.0,0.04667476442456367,0.0
27.612000000000002,0.13326900064945063,0.1064822945594763,0.0001867684122698861,-0.000894846343173418,0.0,0.046156082004309915,0.0
27.613,0.13283654525875888,0.1059593831300711,0.00018724985432345558,-0.0008973725030373371,0.0,0.04563739958405616,0.0
27.614,0.13240408986806712,0.10543647170066589,0.00018773129637702506,-0.0008998986629012561,0.0,0.045118717163802405,0.0
27.615000000000002,0.13197163447737537,0.10491356027126068,0.00018821273843059455,-0.0009024248227651752,0.0,0.04460003474354865,0.0
27.616,0.1315391790866836,0.10439064884185548,0.00018869418048416404,-0.0009049509826290943,0.0,0.044081352323294895,0.0
27.617,0.13110672369599186,0.10386773741245027,0.00018917562253773353,-0.0009074771424930133,0.0,0.04356266990304114,0.0
27.618000000000002,0.1306742683053001,0.10334482598304506,0.000189657064591303,-0.0009100033023569324,0.0,0.043043987482787385,0.0
