marzuk-umich/fetch_joint_controls/test/commanded_all_joints.csv
Time,Joint_0,Joint_1,Joint_2,Joint_3,Joint_4,Joint_5,Joint_6
74.531,-0.785391618420803,0.010006544674705358,-1.2279559591377165e-09,-1.1636751446317664e-07,0.0,0.050006542604706467,0.0
74.532,-0.7853902439758934,0.010007919053192009,-1.438767763362063e-09,-1.3726946192872265e-07,0.0,0.05000785237322513,0.0
74.533,-0.7853887386318227,0.010009424318769819,-1.5800207361307575e-09,-1.5342829854008998e-07,0.0,0.05000916463689853,0.0
74.534,-0.7853871023885909,0.01001106047143879,-1.6517148774438005e-09,-1.6484402429727865e-07,0.0,0.05001047939572666,0.0
74.535,-0.785385335246198,0.01001282751119892,-1.6538501873011918e-09,-1.7151663920028864e-07,0.0,0.05001179664970954,0.0
74.536,-0.785383437204644,0.01001472543805021,-1.5864266657029315e-09,-1.7344614324911998e-07,0.0,0.05001311639884715,0.0
74.537,-0.7853814082639289,0.010016754251992659,-1.4494443126490193e-09,-1.7063253644377266e-07,0.0,0.05001443864313951,0.0
74.538,-0.7853792484240527,0.010018913953026268,-1.2429031281394555e-09,-1.6307581878424666e-07,0.0,0.0500157633825866,0.0
74.539,-0.7853769576850155,0.010021204541151038,-9.668031121742401e-10,-1.50775990270542e-07,0.0,0.05001709061718843,0.0
74.54,-0.7853745360468171,0.010023626016366968,-6.211442647533731e-10,-1.3373305090265865e-07,0.0,0.050018420346945,0.0
74.541,-0.7853719835094576,0.010026178378674056,-2.0592658587685425e-10,-1.1194700068059665e-07,0.0,0.050019752571856306,0.0
74.542,-0.785369300072937,0.010028861628072304,2.7884992445531625e-10,-8.541783960435599e-08,0.0,0.05002108729192235,0.0
74.543,-0.7853664857372553,0.010031675764561713,8.331852662431383e-10,-5.414556767393664e-08,0.0,0.050022424507143136,0.0
74.544,-0.7853635405024125,0.010034620788142282,1.4570794394866119e-09,-1.8130184889338633e-08,0.0,0.05002376421751866,0.0
74.545,-0.7853604643684087,0.01003769669881401,2.1505324441857375e-09,2.2628308749438037e-08,0.0,0.05002510642304892,0.0
74.546,-0.7853572573352436,0.010040903496576898,2.9135442803405146e-09,6.812991324239337e-08,0.0,0.05002645112373392,0.0
74.547,-0.7853539194029175,0.010044241181430946,3.746114947950943e-09,1.1837462858952736e-07,0.0,0.05002779831957366,0.0
74.548,-0.7853504505714304,0.010047709753376153,4.648244447017024e-09,1.7336245479084003e-07,0.0,0.05002914801056813,0.0
74.549,-0.785346850840782,0.010051309212412521,5.619932777538756e-09,2.3309339184633136e-07,0.0,0.05003050019671735,0.0
74.55,-0.7853431202109726,0.01005503955854005,6.6611799395161396e-09,2.975674397560014e-07,0.0,0.0500318548780213,0.0
74.551,-0.7853392586820022,0.010058900791758736,7.771985932949175e-09,3.6678459851985007e-07,0.0,0.05003321205447999,0.0
74.552,-0.7853352662538706,0.010062892912068582,8.952350757837862e-09,4.407448681378774e-07,0.0,0.05003457172609342,0.0
74.553,-0.7853311429265779,0.01006701591946959,1.0202274414182201e-08,5.194482486100835e-07,0.0,0.05003593389286159,0.0
74.554,-0.7853268887001241,0.010071269813961756,1.1521756901982192e-08,6.028947399364681e-07,0.0,0.0500372985547845,0.0
74.555,-0.7853225035745093,0.010075654595545084,1.2910798221237833e-08,6.910843421170316e-07,0.0,0.05003866571186214,0.0
74.556,-0.7853179875497333,0.01008017026421957,1.4369398371949127e-08,7.840170551517737e-07,0.0,0.05004003536409452,0.0
74.557,-0.7853133406257962,0.010084816819985215,1.5897557354116072e-08,8.816928790406944e-07,0.0,0.050041407511481645,0.0
74.558,-0.785308562802698,0.010089594262842021,1.749527516773867e-08,9.841118137837937e-07,0.0,0.0500427821540235,0.0
74.559,-0.7853036540804387,0.010094502592789987,1.916255181281692e-08,1.0912738593810716e-06,0.0,0.050044159291720104,0.0
74.56,-0.7852986144590183,0.010099541809829114,2.0899387289350817e-08,1.2031790158325283e-06,0.0,0.05004553892457144,0.0
74.561,-0.7852934439384368,0.010104711913959398,2.2705781597340368e-08,1.3198272831381636e-06,0.0,0.05004692105257751,0.0
74.562,-0.7852881425186942,0.010110012905180843,2.458173473678557e-08,1.4412186612979776e-06,0.0,0.05004830567573833,0.0
74.563,-0.7852827101997905,0.010115444783493448,2.6527246707686424e-08,1.5673531503119702e-06,0.0,0.05004969279405388,0.0
74.56400000000001,-0.7852771469817257,0.010121007548897214,2.854231751004293e-08,1.6982307501801415e-06,0.0,0.05005108240752417,0.0
74.565,-0.7852714528644998,0.01012670120139214,3.0626947143855086e-08,1.8338514609024914e-06,0.0,0.0500524745161492,0.0
74.566,-0.7852656278481128,0.010132525740978223,3.2781135609122893e-08,1.9742152824790203e-06,0.0,0.05005386911992896,0.0
74.56700000000001,-0.7852596719325647,0.010138481167655467,3.500488290584635e-08,2.1193222149097275e-06,0.0,0.05005526621886347,0.0
74.568,-0.7852535851178556,0.010144567481423871,3.7298189034025464e-08,2.2691722581946136e-06,0.0,0.05005666581295271,0.0
74.569,-0.7852473674039853,0.010150784682283436,3.966105399366023e-08,2.4237654123336783e-06,0.0,0.0500580679021967,0.0
74.57000000000001,-0.7852410187909539,0.01015713277023416,4.209347778475064e-08,2.5831016773269216e-06,0.0,0.05005947248659542,0.0
74.571,-0.7852345392787614,0.010163611745276043,4.459546040729671e-08,2.747181053174344e-06,0.0,0.05006087956614888,0.0
74.572,-0.7852279288674078,0.010170221607409087,4.716700186129843e-08,2.9160035398759447e-06,0.0,0.05006228914085708,0.0
74.57300000000001,-0.7852211875568931,0.01017696235663329,4.98081021467558e-08,3.089569137431724e-06,0.0,0.05006370121072001,0.0
74.574,-0.7852143153472173,0.010183833992948654,5.2518761263668825e-08,3.267877845841682e-06,0.0,0.05006511577573769,0.0
74.575,-0.7852073122383804,0.010190836516355177,5.52989792120375e-08,3.4509296651058188e-06,0.0,0.0500665328359101,0.0
74.57600000000001,-0.7852001782303824,0.01019796992685286,5.814875599186183e-08,3.638724595224134e-06,0.0,0.05006795239123726,0.0
74.577,-0.7851929133232233,0.010205234224441702,6.10680916031418e-08,3.831262636196629e-06,0.0,0.05006937444171915,0.0
74.578,-0.785185517516903,0.010212629409121704,6.405698604587743e-08,4.028543788023302e-06,0.0,0.05007079898735577,0.0
74.57900000000001,-0.7851779908114217,0.010220155480892867,6.71154393200687e-08,4.230568050704154e-06,0.0,0.05007222602814714,0.0
74.58,-0.7851703332067793,0.01022781243975519,7.024345142571563e-08,4.437335424239185e-06,0.0,0.050073655564093246,0.0
74.581,-0.7851625447029759,0.010235600285708671,7.344102236281821e-08,4.648845908628394e-06,0.0,0.05007508759519409,0.0
74.58200000000001,-0.7851546253000112,0.010243519018753313,7.670815213137645e-08,4.865099503871781e-06,0.0,0.050076522121449675,0.0
74.583,-0.7851465749978855,0.010251568638889114,8.004484073139033e-08,5.086096209969348e-06,0.0,0.05007795914285999,0.0
74.584,-0.7851383937965988,0.010259749146116076,8.345108816285987e-08,5.311836026921094e-06,0.0,0.05007939865942505,0.0
74.58500000000001,-0.7851300816961508,0.010268060540434196,8.692689442578506e-08,5.542318954727018e-06,0.0,0.05008084067114485,0.0
74.586,-0.7851216386965418,0.010276502821843477,9.04722595201659e-08,5.7775449933871205e-06,0.0,0.05008228517801939,0.0
74.587,-0.7851130647977718,0.010285075990343917,9.40871834460024e-08,6.017514142901402e-06,0.0,0.05008373218004866,0.0
74.58800000000001,-0.7851043599998405,0.010293780045935518,9.777166620329454e-08,6.262226403269861e-06,0.0,0.05008518167723267,0.0
74.589,-0.7850955243027482,0.010302614988618279,1.0152570779204234e-07,6.5116817744925e-06,0.0,0.050086633669571425,0.0
74.59,-0.7850865577064948,0.010311580818392199,1.0534930821224579e-07,6.765880256569317e-06,0.0,0.05008808815706491,0.0
74.59100000000001,-0.7850774602110803,0.010320677535257278,1.0924246746390489e-07,7.024821849500314e-06,0.0,0.05008954513971314,0.0
74.592,-0.7850682318165046,0.010329905139213518,1.1320518554701964e-07,7.288506553285488e-06,0.0,0.05009100461751611,0.0
74.593,-0.785058872522768,0.010339263630260918,1.1723746246159005e-07,7.556934367924842e-06,0.0,0.05009246659047381,0.0
74.594,-0.7850493823298702,0.010348753008399478,1.213392982076161e-07,7.830105293418373e-06,0.0,0.050093931058586255,0.0
74.595,-0.7850397612378113,0.010358373273629196,1.255106927850978e-07,8.108019329766082e-06,0.0,0.050095398021853435,0.0
74.596,-0.7850300092465913,0.010368124425950075,1.2975164619403515e-07,8.390676476967971e-06,0.0,0.05009686748027536,0.0
74.597,-0.7850201263562102,0.010378006465362114,1.3406215843442815e-07,8.678076735024038e-06,0.0,0.050098339433852015,0.0
74.598,-0.785010112566668,0.010388019391865313,1.384422295062768e-07,8.970220103934284e-06,0.0,0.050099813882583416,0.0
74.599,-0.7849999678779647,0.010398163205459672,1.428918594095811e-07,9.26710658369871e-06,0.0,0.05010129082646955,0.0
74.6,-0.7849896922901003,0.01040843790614519,1.4741104814434107e-07,9.568736174317313e-06,0.0,0.050102770265510424,0.0
74.601,-0.7849792858030747,0.010418843493921867,1.5199979571055668e-07,9.875108875790095e-06,0.0,0.05010425219970604,0.0
74.602,-0.7849687484168881,0.010429379968789705,1.5665810210822794e-07,1.0186224688117055e-05,0.0,0.05010573662905639,0.0
74.603,-0.7849580801315404,0.010440047330748704,1.6138596733735485e-07,1.0502083611298195e-05,0.0,0.05010722355356148,0.0
74.604,-0.7849472809470316,0.010450845579798862,1.6618339139793742e-07,1.0822685645333513e-05,0.0,0.05010871297322131,0.0
74.605,-0.7849363508633617,0.010461774715940179,1.7105037428997563e-07,1.114803079022301e-05,0.0,0.05011020488803587,0.0
74.606,-0.7849252898805307,0.010472834739172656,1.759869160134695e-07,1.1478119045966685e-05,0.0,0.05011169929800518,0.0
74.607,-0.7849140979985386,0.010484025649496293,1.8099301656841903e-07,1.181295041256454e-05,0.0,0.05011319620312922,0.0
74.608,-0.7849027752173854,0.01049534744691109,1.860686759548242e-07,1.2152524890016573e-05,0.0,0.050114695603408005,0.0
74.609,-0.7848913215370711,0.010506800131417048,1.9121389417268502e-07,1.2496842478322784e-05,0.0,0.050116197498841525,0.0
74.61,-0.7848797369575957,0.010518383703014163,1.964286712220015e-07,1.2845903177483174e-05,0.0,0.05011770188942978,0.0
74.611,-0.7848680214789592,0.01053009816170244,2.0171300710277363e-07,1.3199706987497742e-05,0.0,0.05011920877517278,0.0
74.612,-0.7848561751011616,0.010541943507481876,2.070669018150014e-07,1.355825390836649e-05,0.0,0.05012071815607051,0.0
74.613,-0.7848441978242029,0.010553919740352472,2.1249035535868485e-07,1.3921543940089416e-05,0.0,0.05012223003212299,0.0
74.614,-0.784832089648083,0.010566026860314229,2.1798336773382393e-07,1.4289577082666521e-05,0.0,0.0501237444033302,0.0
74.615,-0.7848198505728021,0.010578264867367144,2.2354593894041867e-07,1.4662353336097805e-05,0.0,0.05012526126969215,0.0
74.616,-0.7848074805983601,0.010590633761511219,2.2917806897846906e-07,1.5039872700383267e-05,0.0,0.05012678063120884,0.0
74.617,-0.784794979724757,0.010603133542746454,2.348797578479751e-07,1.5422135175522908e-05,0.0,0.050128302487880264,0.0
74.618,-0.7847823479519928,0.01061576421107285,2.4065100554893677e-07,1.5809140761516728e-05,0.0,0.05012982683970643,0.0
74.619,-0.7847695852800675,0.010628525766490406,2.464918120813541e-07,1.6200889458364726e-05,0.0,0.050131353686687335,0.0
74.62,-0.784756691708981,0.01064141820899912,2.524021774452271e-07,1.6597381266066902e-05,0.0,0.050132883028822975,0.0
74.621,-0.7847436672387335,0.010654441538598994,2.583821016405557e-07,1.699861618462326e-05,0.0,0.05013441486611336,0.0
74.622,-0.7847305118693249,0.010667595755290029,2.6443158466733996e-07,1.7404594214033794e-05,0.0,0.050135949198558474,0.0
74.623,-0.7847172256007552,0.010680880859072223,2.7055062652557986e-07,1.7815315354298506e-05,0.0,0.050137486026158334,0.0
74.624,-0.7847038084330243,0.010694296849945578,2.767392272152754e-07,1.8230779605417396e-05,0.0,0.05013902534891293,0.0
74.625,-0.7846902603661324,0.010707843727910091,2.829973867364266e-07,1.8650986967390467e-05,0.0,0.05014056716682226,0.0
74.626,-0.7846765814000795,0.010721521492965765,2.893251050890335e-07,1.9075937440217716e-05,0.0,0.050142111479886335,0.0
74.627,-0.7846627715348653,0.010735330145112599,2.95722382273096e-07,1.9505631023899143e-05,0.0,0.050143658288105145,0.0
74.628,-0.7846488307704901,0.010749269684350592,3.0218921828861415e-07,1.994006771843475e-05,0.0,0.0501452075914787,0.0
74.629,-0.7846347591069538,0.010763340110679746,3.0872561313558796e-07,2.0379247523824536e-05,0.0,0.050146759390006984,0.0
74.63,-0.7846205565442563,0.010777541424100059,3.153315668140174e-07,2.08231704400685e-05,0.0,0.050148313683690014,0.0
74.631,-0.7846062230823978,0.010791873624611531,3.2200707932390254e-07,2.127183646716664e-05,0.0,0.05014987047252778,0.0
74.632,-0.7845917587213782,0.010806336712214164,3.287521506652433e-07,2.172524560511896e-05,0.0,0.05015142975652028,0.0
74.633,-0.7845771634611974,0.010820930686907957,3.3556678083803973e-07,2.218339785392546e-05,0.0,0.050152991535667525,0.0
74.634,-0.7845624373018556,0.01083565554869291,3.424509698422918e-07,2.264629321358614e-05,0.0,0.050154555809969505,0.0
74.635,-0.7845475802433527,0.010850511297569022,3.4940471767799953e-07,2.3113931684100997e-05,0.0,0.05015612257942623,0.0
74.636,-0.7845325922856887,0.010865497933536293,3.564280243451629e-07,2.3586313265470033e-05,0.0,0.050157691844037684,0.0
74.637,-0.7845174734288636,0.010880615456594725,3.6352088984378194e-07,2.4063437957693247e-05,0.0,0.05015926360380388,0.0
74.638,-0.7845022236728774,0.010895863866744317,3.706833141738566e-07,2.454530576077064e-05,0.0,0.05016083785872481,0.0
74.639,-0.7844868430177301,0.01091124316398507,3.7791529733538696e-07,2.5031916674702214e-05,0.0,0.050162414608800485,0.0
74.64,-0.7844713314634216,0.01092675334831698,3.8521683932837294e-07,2.5523270699487964e-05,0.0,0.0501639938540309,0.0
74.641,-0.7844556890099521,0.010942394419740051,3.925879401528146e-07,2.6019367835127892e-05,0.0,0.05016557559441605,0.0
74.642,-0.7844399156573215,0.010958166378254282,4.0002859980871187e-07,2.6520208081622e-05,0.0,0.05016715982995593,0.0
74.643,-0.7844240114055298,0.010974069223859673,4.075388182960648e-07,2.7025791438970288e-05,0.0,0.05016874656065056,0.0
74.644,-0.7844079762545769,0.010990102956556225,4.151185956148734e-07,2.7536117907172753e-05,0.0,0.050170335786499924,0.0
74.645,-0.784391810204463,0.011006267576343935,4.2276793176513765e-07,2.8051187486229395e-05,0.0,0.05017192750750403,0.0
74.646,-0.784375513255188,0.011022563083222804,4.3048682674685755e-07,2.8571000176140218e-05,0.0,0.05017352172366287,0.0
74.647,-0.7843590854067518,0.011038989477192835,4.382752805600331e-07,2.909555597690522e-05,0.0,0.05017511843497645,0.0
74.648,-0.7843425266591546,0.011055546758254025,4.461332932046643e-07,2.9624854888524398e-05,0.0,0.05017671764144477,0.0
74.649,-0.7843258370123962,0.011072234926406374,4.5406086468075116e-07,3.0158896910997758e-05,0.0,0.05017831934306782,0.0
74.65,-0.7843090164664768,0.011089053981649883,4.6205799498829366e-07,3.0697682044325295e-05,0.0,0.05017992353984562,0.0
74.651,-0.7842920650213963,0.011106003923984552,4.701246841272918e-07,3.1241210288507014e-05,0.0,0.050181530231778154,0.0
74.652,-0.7842749826771547,0.011123084753410381,4.782609320977457e-07,3.178948164354291e-05,0.0,0.05018313941886542,0.0
74.653,-0.7842577694337519,0.01114029646992737,4.864667388996553e-07,3.2342496109432984e-05,0.0,0.050184751101107435,0.0
74.654,-0.7842404252911881,0.011157639073535518,4.947421045330204e-07,3.2900253686177236e-05,0.0,0.05018636527850418,0.0
74.655,-0.7842229502494632,0.011175112564234826,5.030870289978413e-07,3.3462754373775665e-05,0.0,0.05018798195105567,0.0
74.656,-0.7842053443085771,0.011192716942025295,5.115015122941178e-07,3.402999817222827e-05,0.0,0.050189601118761897,0.0
74.657,-0.78418760746853,0.011210452206906923,5.199855544218499e-07,3.460198508153506e-05,0.0,0.05019122278162286,0.0
74.658,-0.7841697397293218,0.011228318358879712,5.285391553810377e-07,3.5178715101696026e-05,0.0,0.05019284693963856,0.0
74.659,-0.7841517410909524,0.011246315397943659,5.371623151716812e-07,3.576018823271117e-05,0.0,0.050194473592809,0.0
74.66,-0.784133611553422,0.011264443324098766,5.458550337937803e-07,3.63464044745805e-05,0.0,0.05019610274113418,0.0
74.661,-0.7841153511167305,0.011282702137345033,5.546173112473351e-07,3.6937363827304e-05,0.0,0.0501977343846141,0.0
74.662,-0.7840969597808778,0.01130109183768246,5.634491475323454e-07,3.753306629088168e-05,0.0,0.05019936852324876,0.0
74.663,-0.784078437545864,0.011319612425111049,5.723505426488115e-07,3.813351186531354e-05,0.0,0.05020100515703815,0.0
74.664,-0.7840597844116892,0.011338263899630795,5.813214965967332e-07,3.8738700550599573e-05,0.0,0.050202644285982284,0.0
74.665,-0.7840410003783533,0.011357046261241701,5.903620093761106e-07,3.934863234673979e-05,0.0,0.05020428591008116,0.0
74.666,-0.7840220854458563,0.011375959509943767,5.994720809869436e-07,3.996330725373419e-05,0.0,0.05020593002933477,0.0
74.667,-0.7840030396141981,0.011395003645736994,6.086517114292323e-07,4.0582725271582766e-05,0.0,0.05020757664374312,0.0
74.668,-0.783983862883379,0.011414178668621381,6.179009007029766e-07,4.120688640028552e-05,0.0,0.050209225753306205,0.0
74.669,-0.7839645552533986,0.011433484578596926,6.272196488081766e-07,4.183579063984245e-05,0.0,0.05021087735802403,0.0
74.67,-0.7839451167242572,0.011452921375663632,6.366079557448322e-07,4.246943799025356e-05,0.0,0.05021253145789659,0.0
74.671,-0.7839255472959547,0.011472489059821497,6.460658215129435e-07,4.310782845151885e-05,0.0,0.050214188052923894,0.0
74.672,-0.783905846968491,0.011492187631070523,6.555932461125104e-07,4.375096202363832e-05,0.0,0.05021584714310594,0.0
74.673,-0.7838860157418662,0.011512017089410709,6.65190229543533e-07,4.439883870661197e-05,0.0,0.05021750872844272,0.0
74.674,-0.7838660536160804,0.011531977434842054,6.748567718060112e-07,4.50514585004398e-05,0.0,0.05021917280893423,0.0
74.675,-0.7838459605911334,0.011552068667364558,6.845928728999451e-07,4.57088214051218e-05,0.0,0.05022083938458049,0.0
74.676,-0.7838257366670254,0.011572290786978223,6.943985328253347e-07,4.637092742065798e-05,0.0,0.05022250845538148,0.0
74.677,-0.7838053818437563,0.011592643793683048,7.042737515821799e-07,4.703777654704834e-05,0.0,0.05022418002133722,0.0
74.678,-0.7837848961213261,0.011613127687479033,7.142185291704807e-07,4.770936878429288e-05,0.0,0.05022585408244769,0.0
74.679,-0.7837642794997347,0.011633742468366176,7.242328655902372e-07,4.83857041323916e-05,0.0,0.050227530638712894,0.0
74.68,-0.7837435319789823,0.01165448813634448,7.343167608414493e-07,4.90667825913445e-05,0.0,0.050229209690132844,0.0
74.681,-0.7837226535590688,0.011675364691413944,7.444702149241172e-07,4.9752604161151575e-05,0.0,0.05023089123670753,0.0
74.682,-0.7837016442399941,0.011696372133574568,7.546932278382406e-07,5.044316884181283e-05,0.0,0.050232575278436956,0.0
74.683,-0.7836805040217584,0.011717510462826352,7.649857995838197e-07,5.113847663332826e-05,0.0,0.05023426181532112,0.0
74.684,-0.7836592329043616,0.011738779679169295,7.753479301608544e-07,5.183852753569787e-05,0.0,0.05023595084736002,0.0
74.685,-0.7836378308878036,0.011760179782603398,7.857796195693449e-07,5.2543321548921666e-05,0.0,0.05023764237455366,0.0
74.686,-0.7836162979720845,0.01178171077312866,7.962808678092909e-07,5.325285867299964e-05,0.0,0.050239336396902035,0.0
74.687,-0.7835946341572044,0.011803372650745084,8.068516748806926e-07,5.396713890793179e-05,0.0,0.050241032914405154,0.0
74.688,-0.7835728394431631,0.011825165415452667,8.1749204078355e-07,5.4686162253718116e-05,0.0,0.05024273192706301,0.0
74.68900000000001,-0.7835509138299608,0.01184708906725141,8.28201965517863e-07,5.540992871035862e-05,0.0,0.050244433434875606,0.0
74.69,-0.7835288573175974,0.011869143606141311,8.389814490836317e-07,5.6138438277853304e-05,0.0,0.05024613743784294,0.0
74.691,-0.7835066699060728,0.011891329032122373,8.49830491480856e-07,5.6871690956202164e-05,0.0,0.05024784393596501,0.0
74.69200000000001,-0.7834843515953871,0.011913645345194596,8.60749092709536e-07,5.760968674540521e-05,0.0,0.05024955292924182,0.0
74.693,-0.7834619023855404,0.011936092545357978,8.717372527696716e-07,5.835242564546243e-05,0.0,0.050251264417673365,0.0
74.694,-0.7834393222765326,0.011958670632612519,8.827949716612629e-07,5.909990765637383e-05,0.0,0.050252978401259654,0.0
74.69500000000001,-0.7834166112683636,0.01198137960695822,8.939222493843098e-07,5.985213277813941e-05,0.0,0.05025469488000068,0.0
74.696,-0.7833937693610336,0.012004219468395081,9.051190859388124e-07,6.0609101010759167e-05,0.0,0.05025641385389644,0.0
74.697,-0.7833707965545424,0.012027190216923103,9.163854813247706e-07,6.137081235423311e-05,0.0,0.05025813532294694,0.0
74.69800000000001,-0.7833476928488902,0.012050291852542284,9.277214355421845e-07,6.213726680856122e-05,0.0,0.05025985928715218,0.0
74.699,-0.7833244582440768,0.012073524375252625,9.39126948591054e-07,6.290846437374352e-05,0.0,0.05026158574651216,0.0
74.7,-0.7833010927401024,0.012096887785054125,9.506020204713792e-07,6.368440504978e-05,0.0,0.05026331470102688,0.0
74.70100000000001,-0.7832775963369668,0.012120382081946785,9.6214665118316e-07,6.446508883667065e-05,0.0,0.05026504615069633,0.0
74.702,-0.7832539690346701,0.012144007265930606,9.737608407263965e-07,6.525051573441547e-05,0.0,0.050266780095520526,0.0
74.703,-0.7832302108332124,0.012167763337005585,9.854445891010887e-07,6.60406857430145e-05,0.0,0.050268516535499456,0.0
74.70400000000001,-0.7832063217325935,0.012191650295171724,9.971978963072366e-07,6.683559886246769e-05,0.0,0.05027025547063313,0.0
74.705,-0.7831823017328136,0.012215668140429023,1.00902076234484e-06,6.763525509277507e-05,0.0,0.05027199690092154,0.0
74.706,-0.7831581508338725,0.012239816872777483,1.020913187213899e-06,6.843965443393662e-05,0.0,0.05027374082636468,0.0
74.70700000000001,-0.7831338690357704,0.012264096492217103,1.0328751709144138e-06,6.924879688595235e-05,0.0,0.05027548724696257,0.0
74.708,-0.7831094563385071,0.01228850699874788,1.0449067134463843e-06,7.006268244882226e-05,0.0,0.05027723616271519,0.0
74.709,-0.7830849127420828,0.012313048392369819,1.0570078148098103e-06,7.088131112254635e-05,0.0,0.050278987573622556,0.0
74.71000000000001,-0.7830602382464974,0.012337720673082917,1.069178475004692e-06,7.170468290712461e-05,0.0,0.05028074147968466,0.0
74.711,-0.7830354328517508,0.012362523840887176,1.0814186940310293e-06,7.253279780255705e-05,0.0,0.05028249788090149,0.0
74.712,-0.7830104965578432,0.012387457895782595,1.0937284718888224e-06,7.336565580884367e-05,0.0,0.05028425677727307,0.0
74.71300000000001,-0.7829854293647744,0.012412522837769172,1.106107808578071e-06,7.420325692598447e-05,0.0,0.050286018168799386,0.0
74.714,-0.7829602312725445,0.01243771866684691,1.1185567040987753e-06,7.504560115397944e-05,0.0,0.05028778205548044,0.0
74.715,-0.7829349022811536,0.012463045383015807,1.1310751584509353e-06,7.58926884928286e-05,0.0,0.050289548437316235,0.0
74.71600000000001,-0.7829094423906016,0.012488502986275865,1.143663171634551e-06,7.674451894253193e-05,0.0,0.05029131731430676,0.0
74.717,-0.7828838516008884,0.012514091476627083,1.1563207436496222e-06,7.760109250308945e-05,0.0,0.050293088686452034,0.0
74.718,-0.7828581299120141,0.01253981085406946,1.169047874496149e-06,7.846240917450115e-05,0.0,0.05029486255375204,0.0
74.719,-0.7828322773239788,0.012565661118602996,1.1818445641741317e-06,7.932846895676702e-05,0.0,0.05029663891620679,0.0
74.72,-0.7828062938367824,0.012591642270227693,1.19471081268357e-06,8.019927184988708e-05,0.0,0.05029841777381627,0.0
74.721,-0.7827801794504248,0.01261775430894355,1.2076466200244638e-06,8.107481785386131e-05,0.0,0.0503001991265805,0.0
74.722,-0.7827539341649061,0.012643997234750567,1.2206519861968133e-06,8.195510696868972e-05,0.0,0.05030198297449946,0.0
74.723,-0.7827275579802264,0.012670371047648742,1.2337269112006185e-06,8.284013919437231e-05,0.0,0.05030376931757316,0.0
74.724,-0.7827010508963855,0.012696875747638078,1.2468713950358794e-06,8.372991453090907e-05,0.0,0.0503055581558016,0.0
74.725,-0.7826744129133836,0.012723511334718574,1.2600854377025959e-06,8.462443297830002e-05,0.0,0.05030734948918478,0.0
74.726,-0.7826476440312206,0.01275027780889023,1.273369039200768e-06,8.552369453654514e-05,0.0,0.050309143317722696,0.0
74.727,-0.7826207442498964,0.012777175170153046,1.2867221995303958e-06,8.642769920564444e-05,0.0,0.05031093964141535,0.0
74.728,-0.7825937135694111,0.01280420341850702,1.3001449186914793e-06,8.733644698559791e-05,0.0,0.05031273846026274,0.0
74.729,-0.7825665519897648,0.012831362553952156,1.3136371966840183e-06,8.824993787640557e-05,0.0,0.05031453977426487,0.0
74.73,-0.7825392595109573,0.01285865257648845,1.327199033508013e-06,8.916817187806741e-05,0.0,0.05031634358342174,0.0
74.731,-0.7825118361329887,0.012886073486115906,1.3408304291634635e-06,9.009114899058344e-05,0.0,0.05031814988773335,0.0
74.732,-0.782484281855859,0.012913625282834521,1.3545313836503696e-06,9.101886921395364e-05,0.0,0.0503199586871997,0.0
74.733,-0.7824565966795682,0.012941307966644295,1.3683018969687312e-06,9.195133254817801e-05,0.0,0.05032176998182078,0.0
74.734,-0.7824287806041164,0.012969121537545229,1.3821419691185486e-06,9.288853899325657e-05,0.0,0.050323583771596604,0.0
74.735,-0.7824008336295034,0.012997065995537323,1.3960516000998216e-06,9.38304885491893e-05,0.0,0.050325400056527164,0.0
74.736,-0.7823727557557294,0.013025141340620577,1.4100307899125503e-06,9.477718121597622e-05,0.0,0.05032721883661247,0.0
74.737,-0.7823445469827942,0.013053347572794992,1.4240795385567348e-06,9.57286169936173e-05,0.0,0.050329040111852505,0.0
74.738,-0.782316207310698,0.013081684692060565,1.4381978460323747e-06,9.668479588211257e-05,0.0,0.05033086388224728,0.0
74.739,-0.7822877367394406,0.013110152698417298,1.4523857123394704e-06,9.764571788146202e-05,0.0,0.050332690147796795,0.0
74.74,-0.7822591352690221,0.013138751591865191,1.4666431374780217e-06,9.861138299166564e-05,0.0,0.05033451890850105,0.0
74.741,-0.7822304028994426,0.013167481372404245,1.4809701214480288e-06,9.958179121272344e-05,0.0,0.05033635016436004,0.0
74.742,-0.7822015396307019,0.013196342040034458,1.4953666642494913e-06,0.00010055694254463542,0.0,0.05033818391537377,0.0
74.743,-0.7821725454628001,0.01322533359475583,1.5098327658824096e-06,0.00010153683698740157,0.0,0.05034002016154224,0.0
74.744,-0.7821434203957373,0.013254456036568362,1.5243684263467835e-06,0.00010252147454102192,0.0,0.050341858902865445,0.0
74.745,-0.7821141644295133,0.013283709365472055,1.5389736456426132e-06,0.00010351085520549644,0.0,0.05034370013934339,0.0
74.746,-0.7820847775641282,0.013313093581466907,1.5536484237698984e-06,0.00010450497898082514,0.0,0.050345543870976076,0.0
74.747,-0.782055259799582,0.01334260868455292,1.5683927607286392e-06,0.00010550384586700802,0.0,0.0503473900977635,0.0
74.748,-0.7820256111358748,0.013372254674730091,1.5832066565188358e-06,0.00010650745586404508,0.0,0.050349238819705655,0.0
74.749,-0.7819958315730065,0.013402031551998423,1.598090111140488e-06,0.00010751580897193632,0.0,0.050351090036802555,0.0
74.75,-0.781965921110977,0.013431939316357914,1.6130431245935958e-06,0.00010852890519068173,0.0,0.05035294374905419,0.0
74.751,-0.7819358797497864,0.013461977967808566,1.6280656968781593e-06,0.00010954674452028132,0.0,0.05035479995646057,0.0
74.752,-0.7819057074894348,0.013492147506350376,1.6431578279941785e-06,0.00011056932696073509,0.0,0.05035665865902168,0.0
74.753,-0.781875404329922,0.013522447931983346,1.6583195179416533e-06,0.00011159665251204303,0.0,0.05035851985673754,0.0
74.754,-0.7818449702712481,0.013552879244707477,1.6735507667205837e-06,0.00011262872117420516,0.0,0.05036038354960813,0.0
74.755,-0.7818144053134132,0.013583441444522767,1.6888515743309698e-06,0.00011366553294722146,0.0,0.05036224973763346,0.0
74.756,-0.7817837094564171,0.013614134531429218,1.7042219407728116e-06,0.00011470708783109194,0.0,0.05036411842081353,0.0
74.757,-0.7817528827002599,0.013644958505426828,1.719661866046109e-06,0.0001157533858258166,0.0,0.050365989599148335,0.0
74.758,-0.7817219250449416,0.013675913366515597,1.735171350150862e-06,0.00011680442693139544,0.0,0.05036786327263788,0.0
74.759,-0.7816908364904622,0.013706999114695527,1.7507503930870707e-06,0.00011786021114782847,0.0,0.05036973944128217,0.0
74.76,-0.7816596170368217,0.013738215749966616,1.7663989948547351e-06,0.00011892073847511567,0.0,0.05037161810508119,0.0
74.761,-0.7816282666840202,0.013769563272328866,1.7821171554538552e-06,0.00011998600891325705,0.0,0.05037349926403495,0.0
74.762,-0.7815967854320576,0.013801041681782275,1.7979048748844308e-06,0.00012105602246225261,0.0,0.050375382918143446,0.0
74.763,-0.7815651732809338,0.013832650978326843,1.813762153146462e-06,0.00012213077912210234,0.0,0.05037726906740669,0.0
74.764,-0.7815334302306489,0.013864391161962572,1.829688990239949e-06,0.00012321027889280624,0.0,0.05037915771182466,0.0
74.765,-0.781501556281203,0.013896262232689461,1.8456853861648916e-06,0.00012429452177436433,0.0,0.050381048851397374,0.0
74.766,-0.7814695514325959,0.01392826419050751,1.8617513409212898e-06,0.00012538350776677658,0.0,0.05038294248612483,0.0
74.767,-0.7814374156848277,0.013960397035416718,1.8778868545091437e-06,0.00012647723687004303,0.0,0.05038483861600702,0.0
74.768,-0.7814051490378985,0.013992660767417085,1.8940919269284533e-06,0.00012757570908416364,0.0,0.05038673724104395,0.0
74.769,-0.7813727514918081,0.014025055386508613,1.910366558179218e-06,0.00012867892440913845,0.0,0.05038863836123562,0.0
74.77,-0.7813402230465566,0.014057580892691301,1.926710748261439e-06,0.0001297868828449674,0.0,0.05039054197658202,0.0
74.771,-0.781307563702144,0.01409023728596515,1.943124497175115e-06,0.00013089958439165057,0.0,0.050392448087083166,0.0
74.772,-0.7812747734585703,0.014123024566330156,1.959607804920247e-06,0.0001320170290491879,0.0,0.05039435669273905,0.0
74.773,-0.7812418523158355,0.014155942733786323,1.9761606714968344e-06,0.0001331392168175794,0.0,0.05039626779354967,0.0
74.774,-0.7812088002739397,0.01418899178833365,1.9927830969048776e-06,0.00013426614769682509,0.0,0.05039818138951503,0.0
74.775,-0.7811756173328827,0.014222171729972137,2.0094750811443765e-06,0.00013539782168692495,0.0,0.05040009748063513,0.0
74.776,-0.7811423034926646,0.014255482558701784,2.026236624215331e-06,0.000136534238787879,0.0,0.050402016066909965,0.0
74.777,-0.7811088587532854,0.01428892427452259,2.0430677261177414e-06,0.0001376753989996872,0.0,0.05040393714833954,0.0
74.778,-0.7810752831147452,0.014322496877434556,2.0599683868516074e-06,0.0001388213023223496,0.0,0.050405860724923854,0.0
74.779,-0.7810415765770438,0.014356200367437682,2.0769386064169287e-06,0.00013997194875586618,0.0,0.050407786796662905,0.0
74.78,-0.7810077391401813,0.014390034744531969,2.0939783848137057e-06,0.00014112733830023695,0.0,0.0504097153635567,0.0
74.781,-0.7809737708041578,0.014424000008717415,2.1110877220419384e-06,0.00014228747095546189,0.0,0.05041164642560523,0.0
74.782,-0.780939671568973,0.01445809615999402,2.128266618101627e-06,0.000143452346721541,0.0,0.050413579982808494,0.0
74.783,-0.7809054414346273,0.014492323198361785,2.145515072992771e-06,0.0001446219655984743,0.0,0.0504155160351665,0.0
74.784,-0.7808710804011204,0.01452668112382071,2.162833086715371e-06,0.00014579632758626179,0.0,0.050417454582679246,0.0
74.785,-0.7808365884684524,0.014561169936370796,2.1802206592694263e-06,0.00014697543268490343,0.0,0.05041939562534673,0.0
74.786,-0.7808019656366233,0.014595789636012041,2.1976777906549376e-06,0.00014815928089439927,0.0,0.05042133916316895,0.0
74.787,-0.7807672119056331,0.014630540222744445,2.215204480871904e-06,0.00014934787221474927,0.0,0.05042328519614591,0.0
74.788,-0.7807323272754818,0.01466542169656801,2.2328007299203263e-06,0.00015054120664595346,0.0,0.05042523372427761,0.0
74.789,-0.7806973117461694,0.014700434057482734,2.2504665378002042e-06,0.00015173928418801182,0.0,0.050427184747564045,0.0
74.79,-0.7806621653176959,0.014735577305488618,2.268201904511538e-06,0.00015294210484092437,0.0,0.05042913826600522,0.0
74.791,-0.7806268879900614,0.014770851440585663,2.2860068300543272e-06,0.00015414966860469108,0.0,0.05043109427960114,0.0
74.792,-0.7805914797632657,0.014806256462773866,2.3038813144285723e-06,0.00015536197547931198,0.0,0.050433052788351786,0.0
74.793,-0.7805559406373089,0.01484179237205323,2.321825357634273e-06,0.00015657902546478708,0.0,0.05043501379225718,0.0
74.794,-0.7805202706121911,0.014877459168423753,2.3398389596714295e-06,0.00015780081856111634,0.0,0.050436977291317305,0.0
74.795,-0.7804844696879121,0.014913256851885437,2.357922120540041e-06,0.0001590273547682998,0.0,0.050438943285532174,0.0
74.796,-0.780448537864472,0.01494918542243828,2.3760748402401086e-06,0.0001602586340863374,0.0,0.05044091177490178,0.0
74.797,-0.7804124751418708,0.014985244880082283,2.394297118771632e-06,0.0001614946565152292,0.0,0.05044288275942612,0.0
74.798,-0.7803762815201085,0.015021435224817446,2.4125889561346106e-06,0.00016273542205497518,0.0,0.050444856239105204,0.0
74.799,-0.7803399569991851,0.015057756456643768,2.430950352329045e-06,0.00016398093070557534,0.0,0.05044683221393902,0.0
74.8,-0.7803035015791007,0.015094208575561251,2.4493813073549355e-06,0.00016523118246702966,0.0,0.050448810683927585,0.0
74.801,-0.780266915259855,0.015130791581569892,2.4678818212122814e-06,0.00016648617733933818,0.0,0.05045079164907088,0.0
74.802,-0.7802301980414483,0.015167505474669694,2.486451893901083e-06,0.00016774591532250086,0.0,0.050452775109368915,0.0
74.803,-0.7801933499238806,0.015204350254860655,2.50509152542134e-06,0.00016901039641651773,0.0,0.05045476106482169,0.0
74.804,-0.7801563709071517,0.015241325922142777,2.5238007157730527e-06,0.00017027962062138877,0.0,0.0504567495154292,0.0
74.805,-0.7801192609912617,0.015278432476516059,2.542579464956221e-06,0.000171553587937114,0.0,0.050458740461191455,0.0
74.806,-0.7800820201762106,0.0153156699179805,2.561427772970845e-06,0.00017283229836369339,0.0,0.050460733902108444,0.0
74.807,-0.7800446484619985,0.0153530382465361,2.580345639816925e-06,0.00017411575190112697,0.0,0.05046272983818017,0.0
74.808,-0.7800071458486252,0.01539053746218286,2.5993330654944604e-06,0.00017540394854941474,0.0,0.050464728269406636,0.0
74.809,-0.7799695123360908,0.015428167564920782,2.6183900500034516e-06,0.00017669688830855668,0.0,0.05046672919578784,0.0
74.81,-0.7799317479243953,0.015465928554749863,2.637516593343898e-06,0.0001779945711785528,0.0,0.050468732617323785,0.0
74.811,-0.7798938526135387,0.015503820431670102,2.6567126955158e-06,0.0001792969971594031,0.0,0.050470738534014466,0.0
74.812,-0.779855826403521,0.015541843195681502,2.675978356519158e-06,0.0001806041662511076,0.0,0.05047274694585989,0.0
74.813,-0.7798176692943423,0.015579996846784062,2.6953135763539716e-06,0.00018191607845366624,0.0,0.05047475785286005,0.0
74.81400000000001,-0.7797793812860023,0.015618281384977782,2.714718355020241e-06,0.00018323273376707908,0.0,0.05047677125501494,0.0
74.815,-0.7797409623785013,0.01565669681026266,2.734192692517966e-06,0.00018455413219134608,0.0,0.05047878715232458,0.0
74.816,-0.7797024125718393,0.0156952431226387,2.7537365888471466e-06,0.00018588027372646728,0.0,0.050480805544788954,0.0
74.81700000000001,-0.779663731866016,0.0157339203221059,2.773350044007783e-06,0.00018721115837244264,0.0,0.05048282643240807,0.0
74.818,-0.7796249202610317,0.01577272840866426,2.7930330579998747e-06,0.0001885467861292722,0.0,0.05048484981518192,0.0
74.819,-0.7795859777568863,0.015811667382313776,2.812785630823422e-06,0.0001898871569969559,0.0,0.05048687569311051,0.0
74.82000000000001,-0.7795469043535799,0.015850737243054455,2.832607762478425e-06,0.0001912322709754938,0.0,0.050488904066193836,0.0
74.821,-0.7795077000511123,0.015889937990886293,2.852499452964884e-06,0.0001925821280648859,0.0,0.0504909349344319,0.0
74.822,-0.7794683648494836,0.015929269625809293,2.8724607022827985e-06,0.00019393672826513217,0.0,0.05049296829782471,0.0
74.82300000000001,-0.7794288987486938,0.01596873214782345,2.8924915104321687e-06,0.00019529607157623262,0.0,0.05049500415637225,0.0
74.824,-0.7793893017487429,0.016008325556928767,2.9125918774129946e-06,0.00019666015799818724,0.0,0.05049704251007453,0.0
74.825,-0.7793495738496309,0.016048049853125246,2.932761803225276e-06,0.00019802898753099605,0.0,0.05049908335893155,0.0
74.82600000000001,-0.7793097150513578,0.016087905036412883,2.953001287869013e-06,0.00019940256017465902,0.0,0.05050112670294331,0.0
74.827,-0.7792697253539236,0.01612789110679168,2.9733103313442057e-06,0.00020078087592917618,0.0,0.05050317254210981,0.0
74.828,-0.7792296047573283,0.01616800806426164,2.993688933650854e-06,0.0002021639347945475,0.0,0.05050522087643104,0.0
74.82900000000001,-0.7791893532615719,0.016208255908822754,3.014137094788958e-06,0.00020355173677077303,0.0,0.05050727170590701,0.0
74.83,-0.7791489708666544,0.016248634640475032,3.0346548147585177e-06,0.0002049442818578527,0.0,0.050509325030537726,0.0
74.831,-0.7791084575725757,0.016289144259218468,3.055242093559533e-06,0.0002063415700557866,0.0,0.050511380850323175,0.0
74.83200000000001,-0.7790678133793361,0.016329784765053066,3.0758989311920043e-06,0.00020774360136457463,0.0,0.050513439165263366,0.0
74.833,-0.7790270382869353,0.016370556157978822,3.096625327655931e-06,0.00020915037578421686,0.0,0.05051549997535829,0.0
74.834,-0.7789861322953734,0.016411458437995737,3.117421282951313e-06,0.00021056189331471325,0.0,0.050517563280607955,0.0
74.83500000000001,-0.7789450954046504,0.016452491605103814,3.138286797078151e-06,0.00021197815395606384,0.0,0.05051962908101236,0.0
74.836,-0.7789039276147663,0.01649365565930305,3.1592218700364445e-06,0.0002133991577082686,0.0,0.0505216973765715,0.0
74.837,-0.7788626289257211,0.016534950600593446,3.1802265018261938e-06,0.00021482490457132755,0.0,0.050523768167285384,0.0
74.83800000000001,-0.7788211993375148,0.016576376428975,3.2013006924473987e-06,0.00021625539454524068,0.0,0.050525841453154,0.0
74.839,-0.7787796388501474,0.016617933144447716,3.2224444419000593e-06,0.00021769062763000798,0.0,0.050527917234177364,0.0
74.84,-0.7787379474636189,0.01665962074701159,3.2436577501841757e-06,0.00021913060382562947,0.0,0.05052999551035546,0.0
74.84100000000001,-0.7786961251779293,0.016701439236666626,3.2649406172997477e-06,0.00022057532313210512,0.0,0.05053207628168829,0.0
74.842,-0.7786541719930786,0.016743388613412822,3.286293043246775e-06,0.00022202478554943496,0.0,0.05053415954817587,0.0
74.843,-0.7786120879090668,0.016785468877250177,3.307715028025258e-06,0.00022347899107761897,0.0,0.05053624530981818,0.0
74.844,-0.7785698729258939,0.01682768002817869,3.329206571635197e-06,0.00022493793971665717,0.0,0.05053833356661523,0.0
74.845,-0.7785275270435599,0.016870022066198365,3.3507676740765913e-06,0.00022640163146654953,0.0,0.05054042431856702,0.0
74.846,-0.7784850502620648,0.016912494991309198,3.3723983353494414e-06,0.00022787006632729608,0.0,0.050542517565673545,0.0
74.847,-0.7784424425814086,0.016955098803511193,3.3940985554537473e-06,0.0002293432442988968,0.0,0.05054461330793481,0.0
74.848,-0.7783997040015913,0.016997833502804347,3.415868334389509e-06,0.0002308211653813517,0.0,0.050546711545350814,0.0
74.849,-0.778356834522613,0.01704069908918866,3.4377076721567257e-06,0.0002323038295746608,0.0,0.05054881227792156,0.0
74.85,-0.7783138341444734,0.017083695562664133,3.4596165687553982e-06,0.00023379123687882408,0.0,0.05055091550564704,0.0
74.851,-0.7782707028671728,0.017126822923230766,3.4815950241855265e-06,0.00023528338729384153,0.0,0.050553021228527256,0.0
74.852,-0.7782274406907111,0.01717008117088856,3.5036430384471104e-06,0.00023678028081971315,0.0,0.050555129446562215,0.0
74.853,-0.7781840476150883,0.017213470305637513,3.52576061154015e-06,0.00023828191745643896,0.0,0.05055724015975191,0.0
74.854,-0.7781405236403044,0.017256990327477625,3.5479477434646455e-06,0.00023978829720401894,0.0,0.050559353368096346,0.0
74.855,-0.7780968687663594,0.017300641236408898,3.5702044342205965e-06,0.0002412994200624531,0.0,0.05056146907159552,0.0
74.856,-0.7780530829932533,0.01734442303243133,3.5925306838080033e-06,0.00024281528603174144,0.0,0.05056358727024943,0.0
74.857,-0.778009166320986,0.017388335715544923,3.6149264922268654e-06,0.00024433589511188396,0.0,0.05056570796405808,0.0
74.858,-0.7779651187495578,0.017432379285749675,3.637391859477183e-06,0.00024586124730288064,0.0,0.050567831153021464,0.0
74.859,-0.7779209402789683,0.017476553743045586,3.6599267855589566e-06,0.0002473913426047315,0.0,0.05056995683713959,0.0
74.86,-0.7778766309092178,0.017520859087432658,3.6825312704721858e-06,0.00024892618101743656,0.0,0.05057208501641246,0.0
74.861,-0.7778321906403062,0.01756529531891089,3.7052053142168706e-06,0.0002504657625409958,0.0,0.05057421569084006,0.0
74.862,-0.7777876194722335,0.01760986243748028,3.727948916793011e-06,0.0002520100871754092,0.0,0.0505763488604224,0.0
74.863,-0.7777429174049997,0.017654560443140833,3.7507620782006075e-06,0.0002535591549206768,0.0,0.05057848452515948,0.0
74.864,-0.7776980844386048,0.017699389335892542,3.7736447984396595e-06,0.0002551129657767986,0.0,0.0505806226850513,0.0
74.865,-0.7776531205730488,0.017744349115735414,3.7965970775101668e-06,0.00025667151974377453,0.0,0.050582763340097855,0.0
74.866,-0.7776080258083317,0.017789439782669444,3.819618915412131e-06,0.00025823481682160464,0.0,0.05058490649029915,0.0
74.867,-0.7775628001444534,0.017834661336694636,3.84271031214555e-06,0.00025980285701028896,0.0,0.05058705213565518,0.0
74.868,-0.7775174435814142,0.017880013777810986,3.865871267710425e-06,0.00026137564030982746,0.0,0.05058920027616595,0.0
74.869,-0.7774719561192137,0.017925497106018495,3.8891017821067554e-06,0.0002629531667202201,0.0,0.050591350911831465,0.0
74.87,-0.7774263377578522,0.017971111321317165,3.912401855334541e-06,0.00026453543624146693,0.0,0.05059350404265171,0.0
74.871,-0.7773805884973296,0.018016856423706994,3.935771487393783e-06,0.00026612244887356797,0.0,0.050595659668626704,0.0
74.872,-0.7773347083376458,0.018062732413187985,3.95921067828448e-06,0.00026771420461652317,0.0,0.05059781778975643,0.0
74.873,-0.777288697278801,0.018108739289760135,3.982719428006634e-06,0.00026931070347033253,0.0,0.05059997840604089,0.0
74.874,-0.7772425553207951,0.018154877053423443,4.006297736560242e-06,0.00027091194543499606,0.0,0.0506021415174801,0.0
74.875,-0.7771962824636282,0.018201145704177912,4.029945603945307e-06,0.0002725179305105138,0.0,0.05060430712407404,0.0
74.876,-0.7771498787073,0.01824754524202354,4.053663030161827e-06,0.0002741286586968857,0.0,0.05060647522582272,0.0
74.877,-0.7771033440518108,0.018294075666960327,4.077450015209802e-06,0.0002757441299941118,0.0,0.05060864582272614,0.0
74.878,-0.7770566784971605,0.018340736978988276,4.101306559089234e-06,0.0002773643444021921,0.0,0.05061081891478429,0.0
74.879,-0.7770098820433491,0.018387529178107383,4.1252326618001206e-06,0.00027898930192112655,0.0,0.05061299450199719,0.0
74.88,-0.7769629546903766,0.01843445226431765,4.149228323342463e-06,0.00028061900255091517,0.0,0.05061517258436482,0.0
74.881,-0.776915896438243,0.01848150623761908,4.1732935437162615e-06,0.00028225344629155796,0.0,0.050617353161887195,0.0
74.882,-0.7768687072869482,0.018528691098011665,4.197428322921516e-06,0.00028389263314305496,0.0,0.050619536234564305,0.0
74.883,-0.7768213872364924,0.018576006845495412,4.221632660958225e-06,0.00028553656310540613,0.0,0.05062172180239615,0.0
74.884,-0.7767739362868755,0.01862345348007032,4.245906557826391e-06,0.00028718523617861147,0.0,0.05062390986538274,0.0
74.885,-0.7767263544380975,0.018671031001736386,4.270250013526012e-06,0.00028883865236267096,0.0,0.05062610042352406,0.0
74.886,-0.7766786416901583,0.018718739410493613,4.294663028057088e-06,0.0002904968116575847,0.0,0.05062829347682013,0.0
74.887,-0.7766307980430581,0.018766578706341998,4.3191456014196205e-06,0.00029215971406335256,0.0,0.05063048902527093,0.0
74.888,-0.7765828234967967,0.018814548889281545,4.343697733613608e-06,0.0002938273595799746,0.0,0.05063268706887647,0.0
74.889,-0.7765347180513743,0.01886264995931225,4.368319424639052e-06,0.0002954997482074508,0.0,0.05063488760763675,0.0
74.89,-0.7764864817067908,0.018910881916434117,4.393010674495951e-06,0.00029717687994578124,0.0,0.050637090641551766,0.0
74.891,-0.7764381144630462,0.018959244760647143,4.417771483184306e-06,0.00029885875479496583,0.0,0.050639296170621524,0.0
74.892,-0.7763896163201405,0.019007738491951327,4.442601850704117e-06,0.0003005453727550046,0.0,0.05064150419484602,0.0
74.893,-0.7763409872780737,0.019056363110346673,4.467501777055382e-06,0.00030223673382589756,0.0,0.05064371471422525,0.0
74.894,-0.7762922273368458,0.019105118615833177,4.492471262238104e-06,0.0003039328380076447,0.0,0.05064592772875922,0.0
74.895,-0.7762433364964567,0.019154005008410843,4.517510306252281e-06,0.000305633685300246,0.0,0.05064814323844793,0.0
74.896,-0.7761943147569066,0.019203022288079668,4.542618909097915e-06,0.00030733927570370147,0.0,0.05065036124329138,0.0
74.897,-0.7761451621181954,0.01925217045483965,4.567797070775003e-06,0.00030904960921801115,0.0,0.050652581743289564,0.0
74.898,-0.776095878580323,0.019301449508690796,4.593044791283548e-06,0.000310764685843175,0.0,0.050654804738442485,0.0
74.899,-0.7760464641432896,0.0193508594496331,4.618362070623548e-06,0.000312484505579193,0.0,0.05065703022875015,0.0
74.9,-0.7759969188070951,0.019400400277666565,4.643748908795003e-06,0.0003142090684260652,0.0,0.05065925821421255,0.0
74.901,-0.7759472425717394,0.01945007199279119,4.6692053057979146e-06,0.0003159383743837916,0.0,0.05066148869482969,0.0
74.902,-0.7758974354372227,0.01949987459500697,4.694731261632281e-06,0.00031767242345237214,0.0,0.05066372167060157,0.0
74.903,-0.7758474974035449,0.019549808084313915,4.720326776298104e-06,0.00031941121563180687,0.0,0.05066595714152819,0.0
74.904,-0.775797428470706,0.019599872460712018,4.745991849795382e-06,0.0003211547509220958,0.0,0.050668195107609545,0.0
74.905,-0.7757472286387059,0.019650067724201283,4.771726482124116e-06,0.0003229030293232389,0.0,0.05067043556884564,0.0
74.906,-0.7756968979075448,0.019700393874781705,4.797530673284306e-06,0.0003246560508352362,0.0,0.05067267852523647,0.0
74.907,-0.7756464362772226,0.019750850912453287,4.823404423275951e-06,0.0003264138154580876,0.0,0.05067492397678204,0.0
74.908,-0.7755958437477393,0.01980143883721603,4.849347732099052e-06,0.00032817632319179327,0.0,0.05067717192348235,0.0
74.909,-0.7755451203190948,0.019852157649069932,4.8753605997536084e-06,0.0003299435740363531,0.0,0.0506794223653374,0.0
74.91,-0.7754942659912893,0.019903007348014996,4.901443026239621e-06,0.00033171556799176707,0.0,0.050681675302347184,0.0
74.911,-0.7754432807643227,0.019953987934051218,4.927595011557088e-06,0.0003334923050580352,0.0,0.05068393073451171,0.0
74.912,-0.7753921646381949,0.0200050994071786,4.953816555706012e-06,0.0003352737852351576,0.0,0.05068618866183097,0.0
74.913,-0.7753409176129061,0.02005634176739714,4.980107658686391e-06,0.0003370600085231341,0.0,0.050688449084304976,0.0
74.914,-0.7752895396884562,0.02010771501470684,5.006468320498226e-06,0.0003388509749219648,0.0,0.050690712001933716,0.0
74.915,-0.7752380308648451,0.020159219149107704,5.0328985411415166e-06,0.00034064668443164965,0.0,0.05069297741471719,0.0
74.916,-0.775186391142073,0.020210854170599726,5.059398320616262e-06,0.0003424471370521887,0.0,0.05069524532265541,0.0
74.917,-0.7751346205201398,0.020262620079182905,5.085967658922464e-06,0.00034425233278358196,0.0,0.05069751572574836,0.0
74.918,-0.7750827189990455,0.020314516874857247,5.112606556060121e-06,0.00034606227162582937,0.0,0.05069978862399606,0.0
74.919,-0.77503068657879,0.020366544557622747,5.139315012029234e-06,0.000347876953578931,0.0,0.05070206401739849,0.0
74.92,-0.7749785232593736,0.02041870312747941,5.166093026829803e-06,0.0003496963786428868,0.0,0.05070434190595566,0.0
74.921,-0.7749262290407959,0.02047099258442723,5.1929406004618275e-06,0.0003515205468176967,0.0,0.05070662228966757,0.0
74.922,-0.7748738039230572,0.020523412928466208,5.2198577329253074e-06,0.00035334945810336084,0.0,0.05070890516853421,0.0
74.923,-0.7748212479061574,0.02057596415959635,5.2468444242202435e-06,0.00035518311249987917,0.0,0.0507111905425556,0.0
74.924,-0.7747685609900964,0.020628646277817648,5.273900674346635e-06,0.00035702151000725166,0.0,0.050713478411731724,0.0
74.925,-0.7747157431748743,0.02068145928313011,5.3010264833044814e-06,0.0003588646506254783,0.0,0.050715768776062584,0.0
74.926,-0.7746627944604912,0.02073440317553373,5.328221851093784e-06,0.00036071253435455915,0.0,0.050718061635548185,0.0
74.927,-0.774609714846947,0.020787477955028506,5.355486777714542e-06,0.0003625651611944942,0.0,0.05072035699018852,0.0
74.928,-0.7745565043342416,0.020840683621614446,5.382821263166756e-06,0.0003644225311452834,0.0,0.0507226548399836,0.0
74.929,-0.7745031629223752,0.020894020175291544,5.410225307450426e-06,0.00036628464420692677,0.0,0.05072495518493342,0.0
74.93,-0.7744496906113476,0.020947487616059805,5.437698910565551e-06,0.0003681515003794243,0.0,0.050727258025037976,0.0
74.931,-0.774396087401159,0.021001085943919223,5.465242072512132e-06,0.00037002309966277606,0.0,0.05072956336029727,0.0
74.932,-0.7743423532918092,0.0210548151588698,5.492854793290168e-06,0.000371899442056982,0.0,0.0507318711907113,0.0
74.933,-0.7742884882832984,0.02110867526091154,5.5205370728996605e-06,0.00037378052756204206,0.0,0.05073418151628007,0.0
74.934,-0.7742344923756265,0.021162666250044437,5.548288911340608e-06,0.00037566635617795636,0.0,0.05073649433700358,0.0
74.935,-0.7741803655687934,0.021216788126268496,5.576110308613012e-06,0.0003775569279047248,0.0,0.05073880965288183,0.0
74.936,-0.7741261078627993,0.021271040889583714,5.604001264716871e-06,0.00037945224274234745,0.0,0.05074112746391481,0.0
74.937,-0.7740717192576441,0.02132542453999009,5.631961779652186e-06,0.00038135230069082424,0.0,0.050743447770102534,0.0
74.938,-0.7740171997533277,0.021379939077487628,5.659991853418956e-06,0.00038325710175015525,0.0,0.050745770571445,0.0
74.93900000000001,-0.7739625493498503,0.021434584502076325,5.688091486017182e-06,0.0003851666459203404,0.0,0.0507480958679422,0.0
74.94,-0.7739077680472117,0.021489360813756183,5.7162606774468634e-06,0.00038708093320137977,0.0,0.05075042365959414,0.0
74.941,-0.7738528558454121,0.0215442680125272,5.7444994277080005e-06,0.00038899996359327327,0.0,0.050752753946400816,0.0
74.94200000000001,-0.7737978127444514,0.021599306098389375,5.772807736800594e-06,0.000390923737096021,0.0,0.05075508672836223,0.0
74.943,-0.7737426387443295,0.021654475071342712,5.801185604724642e-06,0.0003928522537096229,0.0,0.050757422005478385,0.0
74.944,-0.7736873338450465,0.021709774931387208,5.829633031480147e-06,0.0003947855134340789,0.0,0.050759759777749276,0.0
74.94500000000001,-0.7736318980466025,0.021765205678522866,5.8581500170671065e-06,0.00039672351626938914,0.0,0.05076210004517491,0.0
74.946,-0.7735763313489974,0.02182076731274968,5.8867365614855225e-06,0.00039866626221555357,0.0,0.05076444280775528,0.0
74.947,-0.7735206337522311,0.021876459834067656,5.915392664735394e-06,0.00040061375127257217,0.0,0.050766788065490384,0.0
74.94800000000001,-0.7734648052563038,0.021932283242476792,5.94411832681672e-06,0.00040256598344044493,0.0,0.05076913581838023,0.0
74.949,-0.7734088458612154,0.021988237537977087,5.972913547729503e-06,0.0004045229587191719,0.0,0.050771486066424815,0.0
74.95,-0.7733527555669658,0.022044322720568544,6.001778327473741e-06,0.00040648467710875305,0.0,0.05077383880962414,0.0
74.95100000000001,-0.7732965343735552,0.02210053879025116,6.030712666049435e-06,0.00040845113860918836,0.0,0.0507761940479782,0.0
74.952,-0.7732401822809835,0.022156885747024933,6.0597165634565845e-06,0.00041042234322047783,0.0,0.050778551781487,0.0
74.953,-0.7731836992892506,0.022213363590889868,6.08879001969519e-06,0.0004123982909426215,0.0,0.05078091201015054,0.0
74.95400000000001,-0.7731270853983566,0.022269972321845962,6.117933034765251e-06,0.0004143789817756194,0.0,0.05078327473396881,0.0
74.955,-0.7730703406083016,0.022326711939893218,6.147145608666767e-06,0.0004163644157194714,0.0,0.05078563995294183,0.0
74.956,-0.7730134649190854,0.022383582445031632,6.176427741399739e-06,0.0004183545927741776,0.0,0.05078800766706958,0.0
74.95700000000001,-0.7729564583307081,0.022440583837261205,6.2057794329641665e-06,0.000420349512939738,0.0,0.05079037787635207,0.0
74.958,-0.7728993208431698,0.02249771611658194,6.23520068336005e-06,0.00042234917621615254,0.0,0.0507927505807893,0.0
74.959,-0.7728420524564704,0.022554979282993833,6.264691492587389e-06,0.00042435358260342127,0.0,0.05079512578038127,0.0
74.96000000000001,-0.7727846531706098,0.022612373336496887,6.294251860646184e-06,0.00042636273210154416,0.0,0.05079750347512798,0.0
74.961,-0.7727271229855882,0.0226698982770911,6.323881787536434e-06,0.0004283766247105213,0.0,0.050799883665029424,0.0
74.962,-0.7726694619014055,0.022727554104776473,6.353581273258141e-06,0.00043039526043035255,0.0,0.05080226635008561,0.0
74.96300000000001,-0.7726116699180616,0.022785340819553006,6.383350317811302e-06,0.000432418639261038,0.0,0.050804651530296535,0.0
74.964,-0.7725537470355567,0.0228432584214207,6.413188921195919e-06,0.00043444676120257765,0.0,0.050807039205662194,0.0
74.965,-0.7724956932538907,0.022901306910379553,6.4430970834119925e-06,0.00043647962625497147,0.0,0.050809429376182595,0.0
74.96600000000001,-0.7724375085730635,0.022959486286429565,6.473074804459521e-06,0.00043851723441821946,0.0,0.05081182204185773,0.0
74.967,-0.7723791929930752,0.023017796549570736,6.503122084338505e-06,0.0004405595856923216,0.0,0.05081421720268761,0.0
74.968,-0.7723207465139259,0.02307623769980307,6.533238923048945e-06,0.000442606680077278,0.0,0.05081661485867223,0.0
74.969,-0.7722621691356154,0.02313480973712656,6.563425320590841e-06,0.0004446585175730885,0.0,0.05081901500981158,0.0
74.97,-0.7722034608581438,0.023193512661541214,6.593681276964192e-06,0.0004467150981797532,0.0,0.05082141765610567,0.0
74.971,-0.7721446216815112,0.023252346473047025,6.624006792168999e-06,0.00044877642189727207,0.0,0.0508238227975545,0.0
74.972,-0.7720856516057174,0.023311311171643995,6.6544018662052615e-06,0.00045084248872564515,0.0,0.05082623043415807,0.0
74.973,-0.7720265506307625,0.023370406757332127,6.684866499072979e-06,0.0004529132986648724,0.0,0.05082864056591638,0.0
74.974,-0.7719673187566466,0.023429633230111418,6.715400690772153e-06,0.0004549888517149538,0.0,0.05083105319282942,0.0
74.975,-0.7719079559833696,0.023488990589981867,6.746004441302783e-06,0.0004570691478758894,0.0,0.050833468314897205,0.0
74.976,-0.7718484623109314,0.023548478836943477,6.776677750664868e-06,0.00045915418714767916,0.0,0.050835885932119726,0.0
74.977,-0.7717888377393322,0.023608097970996247,6.807420618858409e-06,0.0004612439695303231,0.0,0.05083830604449699,0.0
74.978,-0.7717290822685718,0.023667847992140178,6.838233045883406e-06,0.00046333849502382124,0.0,0.05084072865202899,0.0
74.979,-0.7716691958986504,0.023727728900375267,6.869115031739858e-06,0.0004654377636281735,0.0,0.05084315375471572,0.0
74.98,-0.7716091786295678,0.023787740695701515,6.900066576427765e-06,0.00046754177534338,0.0,0.0508455813525572,0.0
74.981,-0.7715490304613242,0.023847883378118925,6.931087679947129e-06,0.0004696505301694407,0.0,0.05084801144555341,0.0
74.982,-0.7714887513939194,0.023908156947627494,6.962178342297948e-06,0.0004717640281063555,0.0,0.05085044403370437,0.0
74.983,-0.7714283414273535,0.023968561404227224,6.993338563480223e-06,0.00047388226915412457,0.0,0.05085287911701006,0.0
74.984,-0.7713678005616266,0.024029096747918113,7.024568343493953e-06,0.0004760052533127478,0.0,0.050855316695470484,0.0
74.985,-0.7713071287967385,0.02408976297870016,7.055867682339139e-06,0.00047813298058222516,0.0,0.05085775676908565,0.0
74.986,-0.7712463261326893,0.02415056009657337,7.087236580015781e-06,0.0004802654509625567,0.0,0.05086019933785556,0.0
74.987,-0.771185392569479,0.024211488101537736,7.118675036523878e-06,0.00048240266445374245,0.0,0.050862644401780205,0.0
74.988,-0.7711243281071077,0.024272546993593266,7.150183051863431e-06,0.0004845446210557824,0.0,0.05086509196085959,0.0
74.989,-0.7710631327455753,0.024333736772739954,7.181760626034439e-06,0.00048669132076867647,0.0,0.050867542015093706,0.0
74.99,-0.7710018064848817,0.0243950574389778,7.213407759036904e-06,0.0004888427635924247,0.0,0.05086999456448257,0.0
74.991,-0.7709403493250271,0.024456508992306808,7.245124450870823e-06,0.0004909989495270272,0.0,0.05087244960902616,0.0
74.992,-0.7708787612660113,0.024518091432726975,7.276910701536199e-06,0.0004931598785724838,0.0,0.0508749071487245,0.0
74.993,-0.7708170423078344,0.024579804760238303,7.3087665110330304e-06,0.0004953255507287946,0.0,0.050877367183577576,0.0
74.994,-0.7707551924504965,0.02464164897484079,7.340691879361318e-06,0.0004974959659959596,0.0,0.050879829713585394,0.0
74.995,-0.7706932116939974,0.024703624076534435,7.37268680652106e-06,0.0004996711243739787,0.0,0.050882294738747946,0.0
74.996,-0.7706311000383372,0.024765730065319243,7.404751292512258e-06,0.000501851025862852,0.0,0.050884762259065235,0.0
74.997,-0.770568857483516,0.02482796694119521,7.436885337334912e-06,0.0005040356704625796,0.0,0.050887232274537265,0.0
74.998,-0.7705064840295336,0.024890334704162336,7.469088940989021e-06,0.0005062250581731613,0.0,0.05088970478516403,0.0
74.999,-0.7704439796763901,0.024952833354220622,7.501362103474587e-06,0.0005084191889945972,0.0,0.05089217979094554,0.0
75.0,-0.7703813444240856,0.025015462891370067,7.5337048247916075e-06,0.0005106180629268872,0.0,0.050894657291881785,0.0
75.001,-0.77031857827262,0.025078223315610673,7.566117104940084e-06,0.0005128216799700315,0.0,0.050897137287972766,0.0
75.002,-0.7702556812219932,0.025141114626942438,7.598598943920016e-06,0.0005150300401240298,0.0,0.05089961977921849,0.0
75.003,-0.7701926532722053,0.025204136825365365,7.631150341731405e-06,0.0005172431433888824,0.0,0.05090210476561895,0.0
75.004,-0.7701294944232564,0.02526728991087945,7.663771298374247e-06,0.0005194609897645892,0.0,0.05090459224717415,0.0
75.005,-0.7700662046751463,0.025330573883484694,7.696461813848546e-06,0.0005216835792511502,0.0,0.050907082223884084,0.0
75.006,-0.7700027840278751,0.0253939887431811,7.729221888154301e-06,0.0005239109118485653,0.0,0.050909574695748756,0.0
75.007,-0.7699392324814429,0.025457534489968663,7.762051521291512e-06,0.0005261429875568347,0.0,0.05091206966276817,0.0
75.008,-0.7698755500358495,0.02552121112384739,7.794950713260177e-06,0.0005283798063759581,0.0,0.05091456712494232,0.0
75.009,-0.769811736691095,0.025585018644817274,7.827919464060299e-06,0.0005306213683059358,0.0,0.050917067082271214,0.0
75.01,-0.7697477924471795,0.025648957052878316,7.860957773691877e-06,0.0005328676733467676,0.0,0.05091956953475484,0.0
75.011,-0.7696837173041028,0.02571302634803052,7.89406564215491e-06,0.0005351187214984535,0.0,0.050922074482393206,0.0
75.012,-0.769619511261865,0.025777226530273884,7.927243069449399e-06,0.0005373745127609938,0.0,0.05092458192518631,0.0
75.013,-0.7695551743204662,0.02584155759960841,7.960490055575343e-06,0.0005396350471343882,0.0,0.050927091863134155,0.0
75.014,-0.7694907064799061,0.025906019556034093,7.993806600532744e-06,0.0005419003246186368,0.0,0.05092960429623674,0.0
75.015,-0.769426107740185,0.025970612399550935,8.027192704321599e-06,0.0005441703452137395,0.0,0.05093211922449406,0.0
75.016,-0.7693613781013029,0.02603533613015894,8.06064836694191e-06,0.0005464451089196964,0.0,0.050934636647906116,0.0
75.017,-0.7692965175632597,0.0261001907478581,8.094173588393677e-06,0.0005487246157365075,0.0,0.050937156566472915,0.0
75.018,-0.7692315261260553,0.026165176252648425,8.1277683686769e-06,0.0005510088656641727,0.0,0.05093967898019445,0.0
75.019,-0.7691664037896898,0.026230292644529907,8.161432707791578e-06,0.0005532978587026922,0.0,0.050942203889070725,0.0
75.02,-0.7691011505541633,0.02629553992350255,8.195166605737712e-06,0.0005555915948520659,0.0,0.05094473129310174,0.0
75.021,-0.7690357664194756,0.02636091808956635,8.228970062515302e-06,0.0005578900741122937,0.0,0.05094726119228749,0.0
75.022,-0.7689702513856268,0.026426427142721313,8.262843078124347e-06,0.0005601932964833757,0.0,0.05094979358662798,0.0
75.023,-0.768904605452617,0.026492067082967436,8.296785652564847e-06,0.0005625012619653118,0.0,0.05095232847612321,0.0
75.024,-0.768838828620446,0.026557837910304718,8.330797785836804e-06,0.0005648139705581021,0.0,0.05095486586077318,0.0
75.025,-0.7687729208891139,0.026623739624733158,8.364879477940217e-06,0.0005671314222617466,0.0,0.05095740574057788,0.0
75.026,-0.7687068822586207,0.02668977222625276,8.399030728875084e-06,0.0005694536170762453,0.0,0.05095994811553733,0.0
75.027,-0.7686407127289664,0.02675593571486352,8.433251538641408e-06,0.0005717805550015982,0.0,0.05096249298565151,0.0
75.028,-0.768574412300151,0.026822230090565443,8.467541907239187e-06,0.0005741122360378053,0.0,0.05096504035092043,0.0
75.029,-0.7685079809721745,0.026888655353358524,8.501901834668421e-06,0.0005764486601848665,0.0,0.05096759021134409,0.0
75.03,-0.768441418745037,0.026955211503242763,8.536331320929111e-06,0.000578789827442782,0.0,0.050970142566922484,0.0
75.04100000000001,-0.768441418745037,0.026955211503242763,8.536331320929111e-06,0.000578789827442782,0.0,0.050970142566922484,0.0
75.042,-0.7683747791318778,0.02702176766859441,8.570454182521646e-06,0.0005811315689775963,0.0,0.050972630921879446,0.0
75.043,-0.7683081156458365,0.02708819297778971,8.603894235946412e-06,0.0005834697159553544,0.0,0.05097498878043879,0.0
75.04400000000001,-0.768241428286913,0.02715448743082866,8.636651481203413e-06,0.0005858042683760564,0.0,0.05097721614260052,0.0
75.045,-0.7681747170551074,0.02722065102771126,8.668725918292647e-06,0.0005881352262397021,0.0,0.050979313008364634,0.0
75.046,-0.7681079819504197,0.02728668376843751,8.700117547214114e-06,0.0005904625895462917,0.0,0.050981279377731135,0.0
75.04700000000001,-0.7680412229728499,0.02735258565300741,8.730826367967815e-06,0.0005927863582958251,0.0,0.05098311525070002,0.0
75.048,-0.767974440122398,0.027418356681420963,8.760852380553748e-06,0.0005951065324883022,0.0,0.05098482062727129,0.0
75.049,-0.7679076333990639,0.027483996853678166,8.790195584971915e-06,0.0005974231121237232,0.0,0.05098639550744495,0.0
75.05000000000001,-0.7678408028028476,0.027549506169779022,8.818855981222314e-06,0.000599736097202088,0.0,0.05098783989122099,0.0
75.051,-0.7677739483337492,0.027614884629723526,8.846833569304947e-06,0.0006020454877233964,0.0,0.05098915377859942,0.0
75.052,-0.7677070699917687,0.027680132233511682,8.874128349219814e-06,0.0006043512836876487,0.0,0.050990337169580235,0.0
75.05300000000001,-0.7676401677769061,0.02774524898114349,8.900740320966913e-06,0.0006066534850948448,0.0,0.050991390064163436,0.0
75.054,-0.7675732416891614,0.027810234872618946,8.926669484546247e-06,0.0006089520919449847,0.0,0.05099231246234902,0.0
75.055,-0.7675062917285346,0.027875089907938053,8.951915839957812e-06,0.0006112471042380684,0.0,0.05099310436413699,0.0
75.05600000000001,-0.7674393178950256,0.027939814087100813,8.976479387201612e-06,0.0006135385219740958,0.0,0.05099376576952735,0.0
75.057,-0.7673723201886345,0.02800440741010722,9.000360126277644e-06,0.0006158263451530671,0.0,0.05099429667852009,0.0
75.058,-0.7673052986093613,0.02806886987695728,9.02355805718591e-06,0.0006181105737749822,0.0,0.05099469709111522,0.0
75.05900000000001,-0.7672382531572058,0.028133201487650993,9.046073179926409e-06,0.0006203912078398411,0.0,0.05099496700731273,0.0
75.06,-0.7671711838321683,0.028197402242188356,9.067905494499141e-06,0.0006226682473476438,0.0,0.05099510642711263,0.0
75.061,-0.7671040906342487,0.028261472140569368,9.089055000904107e-06,0.0006249416922983903,0.0,0.05099511535051491,0.0
75.06200000000001,-0.7670369735634469,0.02832541118279403,9.109521699141305e-06,0.0006272115426920806,0.0,0.05099499377751958,0.0
75.063,-0.766969832619763,0.028389219368862347,9.129305589210737e-06,0.0006294777985287148,0.0,0.05099474170812663,0.0
75.06400000000001,-0.766902667803197,0.02845289669877431,9.148406671112402e-06,0.0006317404598082927,0.0,0.05099435914233607,0.0
75.06500000000001,-0.7668354791137489,0.028516443172529927,9.1668249448463e-06,0.0006339995265308144,0.0,0.0509938460801479,0.0
75.066,-0.7667682665514187,0.028579858790129194,9.18456041041243e-06,0.0006362549986962798,0.0,0.05099320252156211,0.0
75.06700000000001,-0.7667010301162063,0.028643143551572114,9.201613067810795e-06,0.000638506876304689,0.0,0.050992428466578706,0.0
75.06800000000001,-0.7666337698081117,0.02870629745685868,9.217982917041394e-06,0.000640755159356042,0.0,0.050991523915197685,0.0
75.069,-0.766566485627135,0.0287693205059889,9.233669958104225e-06,0.0006429998478503389,0.0,0.050990488867419054,0.0
75.07000000000001,-0.7664991775732762,0.028832212698962773,9.24867419099929e-06,0.0006452409417875795,0.0,0.050989323323242804,0.0
75.07100000000001,-0.7664318456465353,0.028894974035780292,9.262995615726587e-06,0.0006474784411677639,0.0,0.05098802728266894,0.0
75.072,-0.7663644898469123,0.028957604516441464,9.276634232286117e-06,0.0006497123459908922,0.0,0.05098660074569747,0.0
75.07300000000001,-0.7662971101744072,0.029020104140946287,9.28959004067788e-06,0.0006519426562569642,0.0,0.05098504371232838,0.0
75.07400000000001,-0.7662297066290199,0.029082472909294763,9.301863040901878e-06,0.0006541693719659801,0.0,0.050983356182561675,0.0
75.075,-0.7661622792107505,0.029144710821486886,9.313453232958109e-06,0.0006563924931179397,0.0,0.05098153815639735,0.0
75.07600000000001,-0.7660948279195989,0.02920681787752266,9.324360616846572e-06,0.0006586120197128432,0.0,0.05097958963383542,0.0
75.07700000000001,-0.7660273527555652,0.02926879407740209,9.33458519256727e-06,0.0006608279517506904,0.0,0.05097751061487587,0.0
75.078,-0.7659598537186494,0.029330639421125165,9.3441269601202e-06,0.0006630402892314815,0.0,0.050975301099518706,0.0
75.07900000000001,-0.7658923308088514,0.029392353908691892,9.352985919505363e-06,0.0006652490321552163,0.0,0.05097296108776393,0.0
75.08000000000001,-0.7658247840261714,0.02945393754010227,9.361162070722759e-06,0.000667454180521895,0.0,0.05097049057961154,0.0
75.081,-0.7657572133706092,0.0295153903153563,9.368655413772389e-06,0.0006696557343315174,0.0,0.050967889575061535,0.0
75.08200000000001,-0.7656896188421649,0.02957671223445398,9.375465948654252e-06,0.0006718536935840835,0.0,0.05096515807411391,0.0
75.08300000000001,-0.7656220004408385,0.02963790329739531,9.381593675368349e-06,0.0006740480582795935,0.0,0.05096229607676868,0.0
75.084,-0.76555435816663,0.029698963504180293,9.387038593914678e-06,0.0006762388284180473,0.0,0.050959303583025826,0.0
75.08500000000001,-0.7654866920195393,0.029759892854808925,9.39180070429324e-06,0.0006784260039994449,0.0,0.05095618059288536,0.0
75.08600000000001,-0.7654190019995665,0.029820691349281208,9.395880006504037e-06,0.0006806095850237862,0.0,0.05095292710634729,0.0
75.087,-0.7653512881067115,0.029881358987597143,9.399276500547065e-06,0.0006827895714910714,0.0,0.05094954312341159,0.0
75.08800000000001,-0.7652835503409744,0.029941895769756727,9.401990186422328e-06,0.0006849659634013004,0.0,0.05094602864407829,0.0
75.08900000000001,-0.7652157887023552,0.030002301695759962,9.404021064129824e-06,0.0006871387607544732,0.0,0.050942383668347364,0.0
75.09,-0.7651480031908539,0.03006257676560685,9.405369133669553e-06,0.0006893079635505898,0.0,0.05093860819621883,0.0
75.09100000000001,-0.7650801938064704,0.03012272097929739,9.406034395041515e-06,0.0006914735717896502,0.0,0.050934702227692676,0.0
75.09200000000001,-0.7650123605492049,0.030182734336831576,9.40601684824571e-06,0.0006936355854716544,0.0,0.05093066576276891,0.0
75.093,-0.7649445034190572,0.030242616838209415,9.405316493282139e-06,0.0006957940045966024,0.0,0.050926498801447534,0.0
75.09400000000001,-0.7648766224160274,0.030302368483430906,9.4039333301508e-06,0.0006979488291644942,0.0,0.05092220134372854,0.0
75.09500000000001,-0.7648087175401154,0.030361989272496046,9.401867358851695e-06,0.0007001000591753298,0.0,0.05091777338961193,0.0
75.096,-0.7647407887913212,0.030421479205404837,9.399118579384822e-06,0.0007022476946291091,0.0,0.05091321493909771,0.0
75.09700000000001,-0.764672836169645,0.03048083828215728,9.395686991750184e-06,0.0007043917355258323,0.0,0.05090852599218587,0.0
75.09800000000001,-0.7646048596750866,0.03054006650275337,9.391572595947779e-06,0.0007065321818654992,0.0,0.050903706548876416,0.0
75.099,-0.7645368593076461,0.030599163867193115,9.386775391977606e-06,0.0007086690336481099,0.0,0.05089875660916935,0.0
75.10000000000001,-0.7644688350673235,0.03065813037547651,9.381295379839668e-06,0.0007108022908736644,0.0,0.05089367617306467,0.0
75.10100000000001,-0.7644007869541188,0.030716966027603557,9.375132559533961e-06,0.0007129319535421627,0.0,0.050888465240562376,0.0
75.102,-0.764332714968032,0.030775670823574252,9.368286931060489e-06,0.0007150580216536049,0.0,0.05088312381166247,0.0
75.10300000000001,-0.7642646191090631,0.0308342447633886,9.360758494419249e-06,0.0007171804952079908,0.0,0.05087765188636494,0.0
75.104,-0.7641964993772119,0.030892687847046598,9.352547249610243e-06,0.0007192993742053206,0.0,0.050872049464669805,0.0
75.105,-0.7641283557724786,0.030951000074548245,9.34365319663347e-06,0.0007214146586455941,0.0,0.05086631654657705,0.0
75.10600000000001,-0.7640601882948632,0.031009181445893545,9.33407633548893e-06,0.0007235263485288114,0.0,0.05086045313208668,0.0
75.107,-0.7639919969443657,0.031067231961082496,9.323816666176625e-06,0.0007256344438549726,0.0,0.050854459221198696,0.0
75.108,-0.7639237817209861,0.0311251516201151,9.312874188696551e-06,0.0007277389446240775,0.0,0.0508483348139131,0.0
75.10900000000001,-0.7638555426247243,0.03118294042299135,9.301248903048711e-06,0.0007298398508361263,0.0,0.05084207991022989,0.0
75.11,-0.7637872796555805,0.031240598369711253,9.288940809233104e-06,0.0007319371624911188,0.0,0.05083569451014906,0.0
75.111,-0.7637189928135545,0.0312981254602748,9.27594990724973e-06,0.000734030879589055,0.0,0.050829178613670624,0.0
75.11200000000001,-0.7636506820986464,0.031355521694682004,9.26227619709859e-06,0.0007361210021299351,0.0,0.05082253222079457,0.0
75.113,-0.7635823475108561,0.03141278707293286,9.247919678779683e-06,0.0007382075301137589,0.0,0.0508157553315209,0.0
75.114,-0.7635139890501836,0.03146992159502736,9.23288035229301e-06,0.0007402904635405266,0.0,0.05080884794584961,0.0
75.11500000000001,-0.7634456067166291,0.03152692526096551,9.217158217638569e-06,0.0007423698024102381,0.0,0.05080181006378071,0.0
75.116,-0.7633772005101924,0.031583798070747314,9.200753274816362e-06,0.0007444455467228933,0.0,0.0507946416853142,0.0
75.117,-0.7633087704308736,0.03164054002437277,9.183665523826387e-06,0.0007465176964784924,0.0,0.050787342810450074,0.0
75.11800000000001,-0.7632403164786727,0.03169715112184188,9.165894964668646e-06,0.0007485862516770353,0.0,0.050779913439188334,0.0
75.119,-0.7631718386535897,0.031753631363154636,9.147441597343137e-06,0.000750651212318522,0.0,0.050772353571528976,0.0
75.12,-0.7631033369556246,0.03180998074831105,9.128305421849862e-06,0.0007527125784029525,0.0,0.050764663207472006,0.0
75.12100000000001,-0.7630348113847774,0.0318661992773111,9.108486438188822e-06,0.0007547703499303268,0.0,0.05075684234701742,0.0
75.122,-0.7629662619410479,0.03192228695015481,9.087984646360013e-06,0.0007568245269006449,0.0,0.05074889099016522,0.0
75.123,-0.7628976886244363,0.03197824376684217,9.066800046363439e-06,0.0007588751093139068,0.0,0.05074080913691541,0.0
75.12400000000001,-0.7628290914349426,0.03203406972737318,9.044932638199096e-06,0.0007609220971701125,0.0,0.05073259678726798,0.0
75.125,-0.7627604703725668,0.032089764831747844,9.022382421866988e-06,0.0007629654904692619,0.0,0.05072425394122294,0.0
75.126,-0.7626918254373088,0.03214532907996616,8.999149397367112e-06,0.0007650052892113551,0.0,0.05071578059878028,0.0
75.12700000000001,-0.7626231566291688,0.032200762472028126,8.97523356469947e-06,0.0007670414933963921,0.0,0.050707176759940006,0.0
75.128,-0.7625544639481466,0.03225606500793374,8.950634923864062e-06,0.0007690741030243729,0.0,0.05069844242470212,0.0
75.129,-0.7624857473942424,0.032311236687683,8.925353474860886e-06,0.0007711031180952975,0.0,0.050689577593066616,0.0
75.13000000000001,-0.762417006967456,0.032366277511275916,8.899389217689944e-06,0.0007731285386091659,0.0,0.050680582265033504,0.0
75.131,-0.7623482426677873,0.03242118747871248,8.872742152351234e-06,0.0007751503645659782,0.0,0.05067145644060277,0.0
75.132,-0.7622794544952366,0.0324759665899927,8.845412278844759e-06,0.0007771685959657342,0.0,0.05066220011977443,0.0
75.13300000000001,-0.7622106424498037,0.03253061484511657,8.817399597170515e-06,0.000779183232808434,0.0,0.05065281330254847,0.0
75.134,-0.7621418065314888,0.03258513224408409,8.788704107328506e-06,0.0007811942750940776,0.0,0.0506432959889249,0.0
75.135,-0.7620729467402917,0.03263951878689526,8.75932580931873e-06,0.0007832017228226651,0.0,0.05063364817890371,0.0
75.13600000000001,-0.7620040630762125,0.032693774473550076,8.729264703141187e-06,0.0007852055759941963,0.0,0.050623869872484906,0.0
75.137,-0.7619351555392512,0.03274789930404855,8.698520788795877e-06,0.0007872058346086714,0.0,0.05061396106966849,0.0
75.138,-0.7618662241294077,0.03280189327839067,8.6670940662828e-06,0.0007892024986660902,0.0,0.05060392177045446,0.0
75.13900000000001,-0.7617972688466822,0.032855756396576445,8.634984535601957e-06,0.0007911955681664529,0.0,0.05059375197484282,0.0
75.14,-0.7617282896910744,0.03290948865860587,8.602192196753346e-06,0.0007931850431097592,0.0,0.050583451682833555,0.0
75.141,-0.7616592866625845,0.03296309006447894,8.56871704973697e-06,0.0007951709234960094,0.0,0.05057302089442668,0.0
75.14200000000001,-0.7615902597612125,0.03301656061419567,8.534559094552825e-06,0.0007971532093252033,0.0,0.05056245960962219,0.0
75.143,-0.7615212089869584,0.03306990030775604,8.499718331200914e-06,0.0007991319005973411,0.0,0.05055176782842009,0.0
75.144,-0.7614521343398222,0.03312310914516007,8.464194759681238e-06,0.0008011069973124226,0.0,0.050540945550820365,0.0
75.14500000000001,-0.7613830358198038,0.03317618712640775,8.427988379993793e-06,0.000803078499470448,0.0,0.05052999277682303,0.0
75.146,-0.7613139134269034,0.03322913425149908,8.391099192138583e-06,0.0008050464070714172,0.0,0.05051890950642809,0.0
75.147,-0.7612447671611208,0.03328195052043406,8.353527196115604e-06,0.0008070107201153301,0.0,0.050507695739635525,0.0
75.14800000000001,-0.7611755970224561,0.03333463593321269,8.31527239192486e-06,0.0008089714386021869,0.0,0.05049635147644535,0.0
75.149,-0.7611064030109091,0.03338719048983497,8.276334779566348e-06,0.0008109285625319875,0.0,0.05048487671685756,0.0
75.15,-0.7610371851264801,0.0334396141903009,8.23671435904007e-06,0.0008128820919047319,0.0,0.05047327146087215,0.0
75.15100000000001,-0.760967943369169,0.03349190703461048,8.196411130346026e-06,0.0008148320267204201,0.0,0.05046153570848913,0.0
75.152,-0.7608986777389757,0.03354406902276372,8.155425093484214e-06,0.0008167783669790521,0.0,0.050449669459708496,0.0
75.153,-0.7608293882359003,0.033596100154760604,8.113756248454636e-06,0.0008187211126806279,0.0,0.05043767271453025,0.0
75.15400000000001,-0.7607600748599428,0.03364800043060114,8.07140459525729e-06,0.0008206602638251473,0.0,0.050425545472954386,0.0
75.155,-0.7606907376111032,0.033699769850285326,8.028370133892179e-06,0.0008225958204126106,0.0,0.05041328773498091,0.0
75.156,-0.7606213764893814,0.03375140841381316,7.9846528643593e-06,0.0008245277824430177,0.0,0.050400899500609816,0.0
75.15700000000001,-0.7605519914947776,0.03380291612118465,7.940252786658654e-06,0.0008264561499163686,0.0,0.05038838076984111,0.0
75.158,-0.7604825826272915,0.03385429297239979,7.895169900790243e-06,0.0008283809228326633,0.0,0.05037573154267479,0.0
75.159,-0.7604131498869233,0.03390553896745858,7.849404206754063e-06,0.0008303021011919019,0.0,0.05036295181911085,0.0
75.16000000000001,-0.760343693273673,0.03395665410636102,7.802955704550118e-06,0.0008322196849940842,0.0,0.050350041599149305,0.0
75.161,-0.7602742127875406,0.034007638389107114,7.755824394178405e-06,0.0008341336742392103,0.0,0.05033700088279014,0.0
75.162,-0.760204708428526,0.034058491815696854,7.708010275638926e-06,0.0008360440689272802,0.0,0.05032382967003336,0.0
75.16300000000001,-0.7601351801966294,0.034109214386130245,7.65951334893168e-06,0.0008379508690582939,0.0,0.05031052796087897,0.0
75.164,-0.7600656280918506,0.03415980610040729,7.610333614056667e-06,0.0008398540746322515,0.0,0.05029709575532696,0.0
75.165,-0.7599960521141897,0.03421026695852798,7.5604710710138884e-06,0.0008417536856491528,0.0,0.050283533053377336,0.0
75.16600000000001,-0.7599264522636467,0.03426059696049233,7.509925719803343e-06,0.0008436497021089979,0.0,0.0502698398550301,0.0
75.167,-0.7598568285402216,0.03431079610630033,7.45869756042503e-06,0.0008455421240117869,0.0,0.05025601616028525,0.0
75.168,-0.7597871809439143,0.03436086439595198,7.4067865928789505e-06,0.0008474309513575196,0.0,0.050242061969142784,0.0
75.16900000000001,-0.7597175094747248,0.03441080182944727,7.354192817165104e-06,0.0008493161841461961,0.0,0.050227977281602706,0.0
75.17,-0.7596478141326533,0.03446060840678622,7.3009162332834915e-06,0.0008511978223778164,0.0,0.05021376209766501,0.0
75.171,-0.7595780949176996,0.03451028412796882,7.246956841234112e-06,0.0008530758660523804,0.0,0.0501994164173297,0.0
75.17200000000001,-0.7595083518298638,0.03455982899299507,7.192314641016966e-06,0.0008549503151698883,0.0,0.050184940240596776,0.0
75.173,-0.7594385848691458,0.03460924300186497,7.136989632632053e-06,0.0008568211697303399,0.0,0.05017033356746624,0.0
75.174,-0.7593687940355458,0.034658526154578526,7.080981816079373e-06,0.0008586884297337354,0.0,0.05015559639793809,0.0
75.17500000000001,-0.7592989793290637,0.03470767845113573,7.024291191358926e-06,0.0008605520951800746,0.0,0.05014072873201232,0.0
75.176,-0.7592291407496994,0.03475669989153658,6.966917758470712e-06,0.0008624121660693577,0.0,0.05012573056968894,0.0
75.177,-0.7591592782974529,0.034805590475781086,6.908861517414731e-06,0.0008642686424015846,0.0,0.050110601910967945,0.0
75.17800000000001,-0.7590893919723243,0.03485435020386924,6.850122468190984e-06,0.0008661215241767552,0.0,0.050095342755849336,0.0
75.179,-0.7590194817743136,0.03490297907580105,6.790700610799471e-06,0.0008679708113948697,0.0,0.05007995310433311,0.0
75.18,-0.7589495477034207,0.034951477091576505,6.73059594524019e-06,0.000869816504055928,0.0,0.05006443295641927,0.0
75.18100000000001,-0.7588795897596458,0.034999844251195615,6.669808471513143e-06,0.0008716586021599301,0.0,0.05004878231210781,0.0
75.182,-0.7588096079429887,0.03504808055465837,6.608338189618328e-06,0.000873497105706876,0.0,0.05003300117139874,0.0
75.183,-0.7587396022534495,0.03509618600196478,6.546185099555747e-06,0.0008753320146967657,0.0,0.05001708953429206,0.0
75.18400000000001,-0.7586695726910282,0.035144160593114836,6.483349201325399e-06,0.0008771633291295991,0.0,0.050001047400787764,0.0
75.185,-0.7585995192557248,0.035192004328108546,6.419830494927284e-06,0.0008789910490053763,0.0,0.049984874770885854,0.0
75.186,-0.7585294419475391,0.03523971720694591,6.355628980361403e-06,0.0008808151743240973,0.0,0.049968571644586325,0.0
75.18700000000001,-0.7584593407664714,0.03528729922962692,6.290744657627755e-06,0.0008826357050857621,0.0,0.049952138021889185,0.0
75.188,-0.7583892157125215,0.03533475039615159,6.22517752672634e-06,0.0008844526412903707,0.0,0.049935573902794426,0.0
75.18900000000001,-0.7583190667856895,0.0353820707065199,6.1589275876571585e-06,0.0008862659829379231,0.0,0.049918879287302056,0.0
75.19000000000001,-0.7582488939859754,0.03542926016073186,6.09199484042021e-06,0.0008880757300284193,0.0,0.049902054175412075,0.0
75.191,-0.7581786973133792,0.03547631875878748,6.024379285015494e-06,0.0008898818825618593,0.0,0.049885098567124475,0.0
75.19200000000001,-0.7581084767679008,0.03552324650068674,5.956080921443012e-06,0.0008916844405382432,0.0,0.049868012462439264,0.0
75.19300000000001,-0.7580382323495404,0.03557004338642966,5.8870997497027635e-06,0.0008934834039575708,0.0,0.049850795861356434,0.0
75.194,-0.7579679640582978,0.03561670941601623,5.817435769794748e-06,0.0008952787728198422,0.0,0.04983344876387599,0.0
75.19500000000001,-0.757897671894173,0.035663244589446454,5.747088981718966e-06,0.0008970705471250574,0.0,0.04981597116999793,0.0
75.19600000000001,-0.7578273558571661,0.03570964890672032,5.676059385475417e-06,0.0008988587268732164,0.0,0.04979836307972226,0.0
75.197,-0.7577570159472771,0.03575592236783784,5.604346981064101e-06,0.0009006433120643193,0.0,0.04978062449304898,0.0
75.19800000000001,-0.7576866521645059,0.03580206497279901,5.531951768485018e-06,0.0009024243026983659,0.0,0.04976275540997808,0.0
75.19900000000001,-0.7576162645088527,0.03584807672160383,5.458873747738168e-06,0.0009042016987753564,0.0,0.049744755830509566,0.0
75.2,-0.7575458529803173,0.035893957614252306,5.385112918823552e-06,0.0009059755002952905,0.0,0.049726625754643435,0.0
75.20100000000001,-0.7574754175788998,0.03593970765074443,5.31066928174117e-06,0.0009077457072581684,0.0,0.04970836518237969,0.0
75.20200000000001,-0.7574049583046002,0.03598532683108021,5.23554283649102e-06,0.0009095123196639902,0.0,0.04968997411371833,0.0
75.203,-0.7573344751574185,0.03603081515525963,5.1597335830731035e-06,0.0009112753375127557,0.0,0.04967145254865936,0.0
75.20400000000001,-0.7572639681373545,0.03607617262328271,5.08324152148742e-06,0.0009130347608044651,0.0,0.049652800487202775,0.0
75.20500000000001,-0.7571934372444085,0.03612139923514943,5.00606665173397e-06,0.0009147905895391182,0.0,0.04963401792934857,0.0
75.206,-0.7571228824785803,0.03616649499085981,4.928208973812753e-06,0.0009165428237167152,0.0,0.04961510487509676,0.0
75.20700000000001,-0.75705230383987,0.03621145989041384,4.8496684877237685e-06,0.0009182914633372559,0.0,0.04959606132444733,0.0
75.20800000000001,-0.7569817013282776,0.03625629393381152,4.770445193467018e-06,0.0009200365084007405,0.0,0.04957688727740028,0.0
75.209,-0.756911074943803,0.03630099712105286,4.690539091042501e-06,0.0009217779589071689,0.0,0.04955758273395562,0.0
75.21000000000001,-0.7568404246864464,0.036345569452137835,4.6099501804502175e-06,0.000923515814856541,0.0,0.04953814769411335,0.0
75.21100000000001,-0.7567697505562077,0.036390010927066466,4.528678461690167e-06,0.000925250076248857,0.0,0.04951858215787346,0.0
75.212,-0.7566990525530868,0.03643432154583875,4.446723934762349e-06,0.0009269807430841168,0.0,0.04949888612523596,0.0
75.21300000000001,-0.7566283306770837,0.03647850130845468,4.3640865996667645e-06,0.0009287078153623204,0.0,0.049479059596200844,0.0
75.21400000000001,-0.7565575849281985,0.03652255021491427,4.280766456403413e-06,0.0009304312930834678,0.0,0.04945910257076811,0.0
75.215,-0.7564868153064311,0.036566468265217505,4.1967635049722955e-06,0.0009321511762475589,0.0,0.049439015048937766,0.0
75.21600000000001,-0.7564160218117817,0.036610255459364395,4.112077745373411e-06,0.0009338674648545937,0.0,0.0494187970307098,0.0
75.21700000000001,-0.7563452044442501,0.03665391179735493,4.02670917760676e-06,0.0009355801589045724,0.0,0.04939844851608423,0.0
75.218,-0.7562743632038365,0.036697437279189116,3.940657801672342e-06,0.0009372892583974949,0.0,0.049377969505061035,0.0
75.21900000000001,-0.7562034980905407,0.036740831904866954,3.853923617570157e-06,0.0009389947633333612,0.0,0.04935735999764023,0.0
75.22000000000001,-0.7561326091043628,0.036784095674388444,3.7665066253002046e-06,0.0009406966737121713,0.0,0.049336619993821815,0.0
75.221,-0.7560616962453027,0.036827228587753585,3.6784068248624858e-06,0.0009423949895339252,0.0,0.04931574949360578,0.0
75.22200000000001,-0.7559907595133605,0.03687023064496238,3.589624216257e-06,0.0009440897107986229,0.0,0.049294748496992134,0.0
75.22300000000001,-0.7559197989085361,0.03691310184601482,3.5001587994837474e-06,0.0009457808375062644,0.0,0.04927361700398087,0.0
75.224,-0.7558488144308296,0.03695584219091091,3.4100105745427283e-06,0.0009474683696568498,0.0,0.049252355014571994,0.0
75.22500000000001,-0.755777806080241,0.03699845167965065,3.3191795414339423e-06,0.0009491523072503789,0.0,0.0492309625287655,0.0
75.22600000000001,-0.7557067738567703,0.037040930312234044,3.2276657001573894e-06,0.0009508326502868518,0.0,0.049209439546561394,0.0
75.227,-0.7556357177604175,0.03708327808866109,3.1354690507130697e-06,0.0009525093987662685,0.0,0.04918778606795968,0.0
75.22800000000001,-0.7555646377911825,0.03712549500893179,3.0425895931009834e-06,0.0009541825526886291,0.0,0.04916600209296034,0.0
75.229,-0.7554935339490655,0.03716758107304614,2.9490273273211303e-06,0.0009558521120539334,0.0,0.049144087621563394,0.0
75.23,-0.7554224062340663,0.03720953628100413,2.8547822533735103e-06,0.0009575180768621814,0.0,0.04912204265376883,0.0
75.23100000000001,-0.7553512546461849,0.03725136063280578,2.7598543712581238e-06,0.0009591804471133733,0.0,0.04909986718957665,0.0
75.232,-0.7552800791854214,0.037293054128451075,2.6642436809749704e-06,0.0009608392228075089,0.0,0.049077561228986856,0.0
75.233,-0.7552088798517758,0.037334616767940025,2.56795018252405e-06,0.0009624944039445883,0.0,0.04905512477199945,0.0
75.23400000000001,-0.755137656645248,0.03737604855127263,2.470973875905363e-06,0.0009641459905246116,0.0,0.04903255781861443,0.0
75.235,-0.7550664095658381,0.03741734947844888,2.3733147611189093e-06,0.0009657939825475786,0.0,0.049009860368831794,0.0
75.236,-0.7549951386135462,0.037458519549468786,2.274972838164689e-06,0.0009674383800134895,0.0,0.048987032422651546,0.0
75.23700000000001,-0.7549238437883721,0.037499558764332336,2.1759481070427014e-06,0.0009690791829223441,0.0,0.04896407398007368,0.0
75.238,-0.7548525250903159,0.03754046712303954,2.076240567752947e-06,0.0009707163912741426,0.0,0.0489409850410982,0.0
75.239,-0.7547811825193775,0.03758124462559039,1.9758502202954263e-06,0.0009723500050688848,0.0,0.048917765605725104,0.0
75.24000000000001,-0.754709816075557,0.0376218912719849,1.8747770646701386e-06,0.0009739800243065709,0.0,0.048894415673954396,0.0
75.241,-0.7546384257588543,0.037662407062223055,1.773021100877084e-06,0.0009756064489872008,0.0,0.048870935245786076,0.0
75.242,-0.7545670115692695,0.037702791996304864,1.6705823289162629e-06,0.0009772292791107745,0.0,0.04884732432122014,0.0
75.24300000000001,-0.7544955735068026,0.037743046074230326,1.567460748787675e-06,0.000978848514677292,0.0,0.04882358290025659,0.0
75.244,-0.7544241115714536,0.03778316929599943,1.4636563604913201e-06,0.0009804641556867533,0.0,0.04879971098289542,0.0
75.245,-0.7543526257632225,0.03782316166161219,1.3591691640271987e-06,0.0009820762021391584,0.0,0.04877570856913664,0.0
75.24600000000001,-0.7542811160821092,0.0378630231710686,1.2539991593953103e-06,0.0009836846540345074,0.0,0.048751575658980244,0.0
75.247,-0.7542095825281139,0.03790275382436866,1.1481463465956552e-06,0.0009852895113728,0.0,0.048727312252426234,0.0
75.248,-0.7541380251012364,0.037942353621512374,1.0416107256282333e-06,0.0009868907741540367,0.0,0.048702918349474614,0.0
75.24900000000001,-0.7540664438014768,0.03798182256249974,9.343922964930448e-07,0.000988488442378217,0.0,0.048678393950125375,0.0
75.25,-0.753994838628835,0.03802116064733076,8.264910591900895e-07,0.0009900825160453412,0.0,0.048653739054378524,0.0
75.251,-0.753923209583311,0.03806036787600542,7.179070137193674e-07,0.0009916729951554091,0.0,0.048628953662234055,0.0
75.25200000000001,-0.753851556664905,0.03809944424852373,6.086401600808785e-07,0.000993259879708421,0.0,0.048604037773691974,0.0
75.253,-0.7537798798736168,0.0381383897648857,4.986904982746228e-07,0.0009948431697043764,0.0,0.048578991388752275,0.0
75.254,-0.7537081792094465,0.038177204425091316,3.8805802830060034e-07,0.0009964228651432757,0.0,0.048553814507414965,0.0
75.25500000000001,-0.7536364546723942,0.038215888229140585,2.7674275015881105e-07,0.0009979989660251188,0.0,0.048528507129680036,0.0
75.256,-0.7535647062624596,0.038254441177033506,1.64744663849255e-07,0.0009995714723499056,0.0,0.048503069255547496,0.0
75.257,-0.753492933979643,0.03829286326877008,5.20637693719322e-08,0.0010011403841176363,0.0,0.048477500885017344,0.0
75.25800000000001,-0.7534211378239443,0.0383311545043503,-6.12999332731574e-08,0.0010027057013283107,0.0,0.048451802018089574,0.0
75.259,-0.7533493177953633,0.03836931488377417,-1.7534644408601377e-07,0.001004267423981929,0.0,0.04842597265476419,0.0
75.26,-0.7532774738939002,0.03840734440704169,-2.900757630666369e-07,0.0010058255520784911,0.0,0.04840001279504119,0.0
75.26100000000001,-0.753205606119555,0.03844524307415286,-4.0548789021502687e-07,0.001007380085617997,0.0,0.04837392243892058,0.0
75.262,-0.7531337144723277,0.03848301088510769,-5.215828255311835e-07,0.0010089310246004467,0.0,0.04834770158640235,0.0
75.263,-0.7530617989522183,0.038520647839906164,-6.383605690151069e-07,0.0010104783690258403,0.0,0.04832135023748651,0.0
75.26400000000001,-0.7529898595592267,0.03855815393854829,-7.558211206667971e-07,0.0010120221188941775,0.0,0.048294868392173056,0.0
75.265,-0.752917896293353,0.038595529181034066,-8.739644804862541e-07,0.0010135622742054587,0.0,0.048268256050461984,0.0
75.266,-0.7528459091545973,0.03863277356736349,-9.927906484734779e-07,0.0010150988349596835,0.0,0.0482415132123533,0.0
75.26700000000001,-0.7527738981429594,0.03866988709753657,-1.1122996246284684e-06,0.0010166318011568523,0.0,0.048214639877847,0.0
75.268,-0.7527018632584392,0.0387068697715533,-1.2324914089512259e-06,0.0010181611727969647,0.0,0.04818763604694309,0.0
75.269,-0.752629804501037,0.03874372158941368,-1.35336600144175e-06,0.001019686949880021,0.0,0.048160501719641556,0.0
75.27000000000001,-0.7525577218707526,0.03878044255111771,-1.474923402100041e-06,0.001021209132406021,0.0,0.04813323689594241,0.0
75.271,-0.7524856153675862,0.03881703265666539,-1.5971636109260987e-06,0.0010227277203749647,0.0,0.04810584157584566,0.0
75.272,-0.7524134849915376,0.03885349190605672,-1.7200866279199232e-06,0.0010242427137868524,0.0,0.04807831575935129,0.0
75.27300000000001,-0.7523413307426069,0.0388898202992917,-1.8436924530815145e-06,0.0010257541126416838,0.0,0.0480506594464593,0.0
75.274,-0.7522691526207941,0.038926017836370334,-1.9679810864108726e-06,0.001027261916939459,0.0,0.0480228726371697,0.0
75.275,-0.7521969506260991,0.03896208451729262,-2.0929525279079977e-06,0.001028766126680178,0.0,0.047994955331482486,0.0
75.27600000000001,-0.7521247247585221,0.038998020342058556,-2.218606777572889e-06,0.001030266741863841,0.0,0.047966907529397654,0.0
75.277,-0.7520524750180628,0.039033825310668145,-2.3449438354055476e-06,0.0010317637624904475,0.0,0.04793872923091521,0.0
75.278,-0.7519802014047214,0.03906949942312138,-2.471963701405973e-06,0.001033257188559998,0.0,0.047910420436035155,0.0
75.27900000000001,-0.7519079039184979,0.039105042679418264,-2.599666375574165e-06,0.0010347470200724922,0.0,0.04788198114475748,0.0
75.28,-0.7518355825593923,0.0391404550795588,-2.7280518579101237e-06,0.0010362332570279303,0.0,0.047853411357082196,0.0
75.281,-0.7517632373274046,0.03917573662354299,-2.8571201484138492e-06,0.0010377158994263121,0.0,0.04782471107300929,0.0
75.28200000000001,-0.7516908682225347,0.03921088731137083,-2.9868712470853417e-06,0.0010391949472676378,0.0,0.04779588029253878,0.0
75.283,-0.7516184752447828,0.039245907143042325,-3.117305153924601e-06,0.0010406704005519072,0.0,0.04776691901567064,0.0
75.284,-0.7515460583941487,0.03928079611855747,-3.2484218689316268e-06,0.0010421422592791203,0.0,0.0477378272424049,0.0
75.28500000000001,-0.7514736176706325,0.03931555423791626,-3.3802213921064195e-06,0.0010436105234492773,0.0,0.04770860497274154,0.0
75.286,-0.751401153074234,0.0393501815011187,-3.512703723448979e-06,0.001045075193062378,0.0,0.04767925220668057,0.0
75.287,-0.7513286646049535,0.03938467790816479,-3.6458688629593055e-06,0.0010465362681184227,0.0,0.04764976894422198,0.0
75.28800000000001,-0.7512561522627909,0.03941904345905454,-3.779716810637399e-06,0.001047993748617411,0.0,0.047620155185365776,0.0
75.289,-0.7511836160477461,0.039453278153787935,-3.914247566483258e-06,0.0010494476345593432,0.0,0.04759041093011196,0.0
75.29,-0.7511110559598192,0.039487381992364984,-4.049461130496884e-06,0.0010508979259442192,0.0,0.047560536178460525,0.0
75.29100000000001,-0.7510384719990102,0.039521354974785684,-4.185357502678277e-06,0.001052344622772039,0.0,0.04753053093041148,0.0
75.292,-0.7509658641653191,0.03955519710105003,-4.3219366830274365e-06,0.0010537877250428025,0.0,0.047500395185964814,0.0
75.293,-0.7508932324587458,0.03958890837115803,-4.459198671544363e-06,0.00105522723275651,0.0,0.04747012894512054,0.0
75.29400000000001,-0.7508205768792905,0.039622488785109676,-4.5971434682290565e-06,0.0010566631459131611,0.0,0.04743973220787865,0.0
75.295,-0.7507478974269529,0.03965593834290498,-4.735771073081517e-06,0.0010580954645127562,0.0,0.047409204974239144,0.0
75.296,-0.7506751941017332,0.03968925704454393,-4.875081486101744e-06,0.001059524188555295,0.0,0.04737854724420203,0.0
75.29700000000001,-0.7506024669036314,0.039722444890026534,-5.015074707289738e-06,0.0010609493180407776,0.0,0.04734775901776729,0.0
75.298,-0.7505297158326475,0.03975550187935279,-5.155750736645499e-06,0.001062370852969204,0.0,0.04731684029493494,0.0
75.299,-0.7504569408887815,0.03978842801252269,-5.297109574169026e-06,0.001063788793340574,0.0,0.04728579107570498,0.0
75.30000000000001,-0.7503841420720333,0.039821223289536245,-5.43915121986032e-06,0.001065203139154888,0.0,0.0472546113600774,0.0
75.301,-0.750311319382403,0.03985388771039345,-5.581875673719381e-06,0.0010666138904121456,0.0,0.04722330114805221,0.0
75.302,-0.7502384728198906,0.03988642127509431,-5.725282935746209e-06,0.0010680210471123472,0.0,0.047191860439629404,0.0
75.30300000000001,-0.7501656023844961,0.039918823983638815,-5.869373005940803e-06,0.0010694246092554924,0.0,0.047160289234808986,0.0
75.304,-0.7500927080762194,0.039951095836026976,-6.014145884303165e-06,0.0010708245768415816,0.0,0.04712858753359095,0.0
75.305,-0.7500197898950606,0.03998323683225879,-6.159601570833293e-06,0.0010722209498706145,0.0,0.0470967553359753,0.0
75.30600000000001,-0.7499468478410196,0.040015246972334245,-6.305740065531188e-06,0.0010736137283425913,0.0,0.04706479264196203,0.0
75.307,-0.7498738819140965,0.040047126256253354,-6.45256136839685e-06,0.0010750029122575118,0.0,0.047032699451551155,0.0
75.308,-0.7498008921142914,0.040078874684016115,-6.600065479430278e-06,0.0010763885016153761,0.0,0.047000475764742665,0.0
75.30900000000001,-0.749727878441604,0.04011049225562253,-6.748252398631473e-06,0.0010777704964161842,0.0,0.04696812158153656,0.0
75.31,-0.7496548408960346,0.04014197897107259,-6.897122126000435e-06,0.0010791488966599362,0.0,0.04693563690193284,0.0
75.311,-0.7495817794775831,0.04017333483036631,-7.046674661537164e-06,0.001080523702346632,0.0,0.0469030217259315,0.0
75.31200000000001,-0.7495086941862494,0.04020455983350368,-7.19691000524166e-06,0.0010818949134762715,0.0,0.04687027605353255,0.0
75.313,-0.7494355850220336,0.04023565398048469,-7.347828157113922e-06,0.0010832625300488548,0.0,0.04683739988473598,0.0
75.31400000000001,-0.7493624519849356,0.040266617271309355,-7.499429117153952e-06,0.0010846265520643818,0.0,0.0468043932195418,0.0
75.31500000000001,-0.7492892950749555,0.04029744970597767,-7.651712885361748e-06,0.0010859869795228527,0.0,0.04677125605795001,0.0
75.316,-0.7492161142920932,0.04032815128448964,-7.804679461737312e-06,0.0010873438124242673,0.0,0.0467379883999606,0.0
75.31700000000001,-0.7491429096363489,0.04035872200684526,-7.958328846280643e-06,0.0010886970507686259,0.0,0.04670459024557358,0.0
75.31800000000001,-0.7490696811077224,0.04038916187304453,-8.11266103899174e-06,0.001090046694555928,0.0,0.04667106159478894,0.0
75.319,-0.7489964287062139,0.04041947088308745,-8.267676039870605e-06,0.0010913927437861742,0.0,0.04663740244760669,0.0
75.32000000000001,-0.7489231524318232,0.04044964903697402,-8.423373848917236e-06,0.001092735198459364,0.0,0.04660361280402682,0.0
75.32100000000001,-0.7488498522845504,0.04047969633470424,-8.579754466131633e-06,0.0010940740585754978,0.0,0.04656969266404934,0.0
75.322,-0.7487765282643953,0.04050961277627811,-8.736817891513797e-06,0.0010954093241345752,0.0,0.04653564202767425,0.0
75.32300000000001,-0.7487031803713582,0.040539398361695636,-8.894564125063728e-06,0.0010967409951365965,0.0,0.046501460894901536,0.0
75.32400000000001,-0.7486298086054389,0.04056905309095681,-9.052993166781426e-06,0.0010980690715815616,0.0,0.046467149265731214,0.0
75.325,-0.7485564129666376,0.04059857696406164,-9.212105016666891e-06,0.0010993935534694705,0.0,0.046432707140163273,0.0
75.32600000000001,-0.7484829934549541,0.04062796998101011,-9.371899674720123e-06,0.0011007144408003231,0.0,0.04639813451819772,0.0
75.32700000000001,-0.7484095500703885,0.04065723214180224,-9.532377140941121e-06,0.0011020317335741197,0.0,0.04636343139983455,0.0
75.328,-0.7483360828129407,0.040686363446438015,-9.693537415329886e-06,0.00110334543179086,0.0,0.04632859778507377,0.0
75.32900000000001,-0.7482625916826109,0.04071536389491744,-9.855380497886418e-06,0.0011046555354505439,0.0,0.04629363367391537,0.0
75.33000000000001,-0.7481890766793989,0.04074423348724052,-1.0017906388610716e-05,0.0011059620445531717,0.0,0.04625853906635936,0.0
75.331,-0.7481155378033049,0.040772972223407256,-1.0181115087502782e-05,0.0011072649590987433,0.0,0.046223313962405733,0.0
75.33200000000001,-0.7480419750543286,0.04080158010341764,-1.0345006594562614e-05,0.0011085642790872588,0.0,0.04618795836205449,0.0
75.33300000000001,-0.7479683884324702,0.04083005712727167,-1.0509580909790213e-05,0.001109860004518718,0.0,0.04615247226530564,0.0
75.334,-0.7478947779377296,0.04085840329496935,-1.0674838033185579e-05,0.001111152135393121,0.0,0.04611685567215917,0.0
75.33500000000001,-0.747821143570107,0.04088661860651068,-1.0840777964748712e-05,0.0011124406717104678,0.0,0.046081108582615084,0.0
75.33600000000001,-0.7477474853296022,0.040914703061895666,-1.1007400704479612e-05,0.0011137256134707584,0.0,0.04604523099667338,0.0
75.337,-0.7476738032162153,0.0409426566611243,-1.1174706252378277e-05,0.0011150069606739928,0.0,0.04600922291433407,0.0
75.33800000000001,-0.7476000972299464,0.04097047940419659,-1.134269460844471e-05,0.001116284713320171,0.0,0.045973084335597145,0.0
75.33900000000001,-0.7475263673707953,0.04099817129111253,-1.151136577267891e-05,0.001117558871409293,0.0,0.0459368152604626,0.0
75.34,-0.747452613638762,0.041025732321872115,-1.1680719745080877e-05,0.001118829434941359,0.0,0.04590041568893045,0.0
75.34100000000001,-0.7473788360338466,0.04105316249647535,-1.185075652565061e-05,0.0011200964039163686,0.0,0.045863885621000675,0.0
75.34200000000001,-0.747305034556049,0.04108046181492224,-1.2021476114388111e-05,0.001121359778334322,0.0,0.04582722505667329,0.0
75.343,-0.7472312092053693,0.04110763027721278,-1.2192878511293378e-05,0.0011226195581952193,0.0,0.04579043399594829,0.0
75.34400000000001,-0.7471573599818075,0.04113466788334697,-1.2364963716366412e-05,0.0011238757434990602,0.0,0.04575351243882567,0.0
75.34500000000001,-0.7470834868853636,0.041161574633324816,-1.2537731729607213e-05,0.001125128334245845,0.0,0.04571646038530545,0.0
75.346,-0.7470095899160376,0.04118835052714631,-1.271118255101578e-05,0.0011263773304355735,0.0,0.045679277835387604,0.0
75.34700000000001,-0.7469356690738295,0.04121499556481145,-1.2885316180592114e-05,0.0011276227320682459,0.0,0.04564196478907215,0.0
75.34800000000001,-0.7468617243587392,0.041241509746320244,-1.3060132618336215e-05,0.001128864539143862,0.0,0.045604521246359074,0.0
