marzuk-umich/fetch_joint_controls/test/commanded_all_joints.csv
Time,Joint_0,Joint_1,Joint_2,Joint_3,Joint_4,Joint_5,Joint_6
26.804000000000002,-0.7853719834592567,0.010026178765229399,4.4350265682169265e-09,-1.473978219826332e-08,0.0,0.050020008625326295,0.0
26.805,-0.7853717216598617,0.010026440552882368,4.4793768331601315e-09,-1.4887180017354885e-08,0.0,0.050020208711577197,0.0
26.806,-0.7853709362616764,0.010027225915841275,4.612427627989746e-09,-1.5329373474629583e-08,0.0,0.0500208089703299,0.0
26.807000000000002,-0.785369627264701,0.010028534854106121,4.83417895270577e-09,-1.606636257008741e-08,0.0,0.050021809401584405,0.0
26.808,-0.7853677946689355,0.010030367367676906,5.144630807308204e-09,-1.7098147303728372e-08,0.0,0.05002321000534071,0.0
26.809,-0.7853654384743798,0.01003272345655363,5.543783191797048e-09,-1.8424727675552464e-08,0.0,0.05002501078159882,0.0
26.810000000000002,-0.7853625586810339,0.010035603120736293,6.031636106172301e-09,-2.0046103685559688e-08,0.0,0.050027211730358734,0.0
26.811,-0.7853591552888978,0.010039006360224895,6.608189550433963e-09,-2.1962275333750046e-08,0.0,0.05002981285162045,0.0
26.812,-0.7853552282979716,0.010042933175019435,7.273443524582036e-09,-2.4173242620123536e-08,0.0,0.050032814145383964,0.0
26.813000000000002,-0.7853507777082551,0.010047383565119913,8.027398028616518e-09,-2.6679005544680158e-08,0.0,0.05003621561164928,0.0
26.814,-0.7853458035197486,0.010052357530526329,8.87005306253741e-09,-2.947956410741991e-08,0.0,0.0500400172504164,0.0
26.815,-0.7853403057324518,0.010057855071238684,9.80140862634471e-09,-3.2574918308342796e-08,0.0,0.050044219061685324,0.0
26.816000000000003,-0.7853342843463649,0.010063876187256978,1.0821464720038421e-08,-3.596506814744881e-08,0.0,0.05004882104545605,0.0
26.817,-0.7853277393614878,0.010070420878581211,1.1930221343618542e-08,-3.965001362473795e-08,0.0,0.05005382320172858,0.0
26.818,-0.7853206707778205,0.010077489145211383,1.3127678497085072e-08,-4.3629754740210236e-08,0.0,0.05005922553050292,0.0
26.819,-0.7853130785953631,0.010085080987147494,1.4413836180438012e-08,-4.790429149386565e-08,0.0,0.050065028031779056,0.0
26.82,-0.7853049628141155,0.010093196404389543,1.578869439367736e-08,-5.2473623885704196e-08,0.0,0.050071230705556996,0.0
26.821,-0.7852963234340778,0.010101835396937531,1.725225313680312e-08,-5.7337751915725874e-08,0.0,0.05007783355183674,0.0
26.822,-0.7852871604552499,0.010110997964791459,1.8804512409815287e-08,-6.249667558393069e-08,0.0,0.05008483657061828,0.0
26.823,-0.7852774738776318,0.010120684107951325,2.0445472212713866e-08,-6.795039489031863e-08,0.0,0.05009223976190163,0.0
26.824,-0.7852672637012236,0.01013089382641713,2.217513254549885e-08,-7.36989098348897e-08,0.0,0.05010004312568678,0.0
26.825,-0.7852565299260251,0.010141627120188873,2.3993493408170245e-08,-7.97422204176439e-08,0.0,0.05010824666197373,0.0
26.826,-0.7852452725520366,0.010152883989266556,2.590055480072805e-08,-8.608032663858124e-08,0.0,0.05011685037076248,0.0
26.827,-0.7852334915792578,0.010164664433650175,2.7896316723172264e-08,-9.271322849770171e-08,0.0,0.050125854252053036,0.0
26.828,-0.7852211870076888,0.010176968453339734,2.998077917550289e-08,-9.96409259950053e-08,0.0,0.05013525830584539,0.0
26.829,-0.7852083588373298,0.010189796048335231,3.215394215771993e-08,-1.0686341913049204e-07,0.0,0.05014506253213955,0.0
26.830000000000002,-0.7851950070681805,0.010203147218636667,3.4415805669823374e-08,-1.143807079041619e-07,0.0,0.05015526693093551,0.0
26.831,-0.7851811317002411,0.010217021964244042,3.676636971181323e-08,-1.221927923160149e-07,0.0,0.05016587150223328,0.0
26.832,-0.7851667327335115,0.010231420285157356,3.9205634283689495e-08,-1.3029967236605103e-07,0.0,0.05017687624603284,0.0
26.833000000000002,-0.7851518101679916,0.010246342181376608,4.173359938545217e-08,-1.3870134805427029e-07,0.0,0.05018828116233421,0.0
26.834,-0.7851363640036817,0.0102617876529018,4.4350265017101256e-08,-1.4739781938067269e-07,0.0,0.05020008625113738,0.0
26.835,-0.7851203942405816,0.01027775669973293,4.705563117863675e-08,-1.563890863452582e-07,0.0,0.05021229151244235,0.0
26.836000000000002,-0.7851039008786913,0.01029424932187,4.984969787005866e-08,-1.6567514894802687e-07,0.0,0.050224896946249126,0.0
26.837,-0.7850868839180108,0.010311265519313008,5.2732465091366974e-08,-1.7525600718897865e-07,0.0,0.0502379025525577,0.0
26.838,-0.7850693433585402,0.010328805292061954,5.57039328425617e-08,-1.8513166106811358e-07,0.0,0.05025130833136808,0.0
26.839000000000002,-0.7850512792002794,0.01034686864011684,5.8764101123642834e-08,-1.9530211058543163e-07,0.0,0.05026511428268027,0.0
26.84,-0.7850326914432284,0.010365455563477665,6.191296993461038e-08,-2.0576735574093282e-07,0.0,0.05027932040649426,0.0
26.841,-0.7850135800873873,0.010384566062144426,6.515053927546433e-08,-2.1652739653461715e-07,0.0,0.05029392670281005,0.0
26.842000000000002,-0.784993945132756,0.010404200136117127,6.84768091462047e-08,-2.275822329664846e-07,0.0,0.05030893317162764,0.0
26.843,-0.7849737865793346,0.010424357785395766,7.189177954683147e-08,-2.3893186503653515e-07,0.0,0.05032433981294704,0.0
26.844,-0.784953104427123,0.010445039009980344,7.539545047734465e-08,-2.5057629274476887e-07,0.0,0.05034014662676824,0.0
26.845000000000002,-0.7849318986761211,0.010466243809870861,7.898782193774424e-08,-2.625155160911857e-07,0.0,0.05035635361309124,0.0
26.846,-0.7849101693263292,0.010487972185067317,8.266889392803024e-08,-2.7474953507578563e-07,0.0,0.05037296077191604,0.0
26.847,-0.784887916377747,0.010510224135569712,8.643866644820266e-08,-2.8727834969856873e-07,0.0,0.050389968103242644,0.0
26.848000000000003,-0.7848651398303748,0.010532999661378046,9.029713949826147e-08,-3.0010195995953497e-07,0.0,0.05040737560707105,0.0
26.849,-0.7848418396842123,0.010556298762492318,9.42443130782067e-08,-3.132203658586843e-07,0.0,0.05042518328340126,0.0
26.85,-0.7848180159392596,0.01058012143891253,9.828018718803834e-08,-3.266335673960168e-07,0.0,0.05044339113223327,0.0
26.851,-0.7847936685955168,0.01060446769063868,1.024047618277564e-07,-3.403415645715324e-07,0.0,0.05046199915356708,0.0
26.852,-0.7847687976529838,0.010629337517670768,1.0661803699736085e-07,-3.543443573852312e-07,0.0,0.0504810073474027,0.0
26.853,-0.7847434031116607,0.010654730920008796,1.1092001269685172e-07,-3.686419458371131e-07,0.0,0.050500415713740116,0.0
26.854,-0.7847174849715474,0.010680647897652763,1.15310688926229e-07,-3.832343299271781e-07,0.0,0.050520224252579335,0.0
26.855,-0.7846910432326438,0.010707088450602668,1.197900656854927e-07,-3.9812150965542625e-07,0.0,0.050540432963920356,0.0
26.856,-0.7846640778949502,0.01073405257885851,1.2435814297464277e-07,-4.1330348502185754e-07,0.0,0.05056104184776318,0.0
26.857,-0.7846365889584663,0.010761540282420292,1.2901492079367926e-07,-4.28780256026472e-07,0.0,0.050582050904107806,0.0
26.858,-0.7846085764231924,0.010789551561288012,1.3376039914260217e-07,-4.445518226692695e-07,0.0,0.050603460132954234,0.0
26.859,-0.7845800402891282,0.010818086415461671,1.385945780214115e-07,-4.606181849502502e-07,0.0,0.050625269534302464,0.0
26.86,-0.7845509805562738,0.01084714484494127,1.4351745743010723e-07,-4.769793428694141e-07,0.0,0.050647479108152496,0.0
26.861,-0.7845213972246293,0.010876726849726806,1.4852903736868938e-07,-4.93635296426761e-07,0.0,0.05067008885450434,0.0
26.862000000000002,-0.7844912902941946,0.010906832429818282,1.5362931783715794e-07,-5.105860456222911e-07,0.0,0.05069309877335798,0.0
26.863,-0.7844606597649698,0.010937461585215696,1.5881829883551288e-07,-5.278315904560043e-07,0.0,0.050716508864713426,0.0
26.864,-0.7844295056369548,0.01096861431591905,1.6409598036375425e-07,-5.453719309279006e-07,0.0,0.050740319128570674,0.0
26.865000000000002,-0.7843978279101497,0.011000290621928342,1.6946236242188202e-07,-5.632070670379801e-07,0.0,0.050764529564929724,0.0
26.866,-0.7843656265845543,0.011032490503243573,1.749174450098962e-07,-5.813369987862427e-07,0.0,0.050789140173790576,0.0
26.867,-0.7843329016601688,0.011065213959864742,1.804612281277968e-07,-5.997617261726885e-07,0.0,0.05081415095515323,0.0
26.868000000000002,-0.7842996531369931,0.011098460991791851,1.8609371177558382e-07,-6.184812491973173e-07,0.0,0.050839561909017686,0.0
26.869,-0.7842658810150273,0.011132231599024899,1.9181489595325725e-07,-6.374955678601293e-07,0.0,0.050865373035383944,0.0
26.87,-0.7842315852942713,0.011166525781563883,1.976247806608171e-07,-6.568046821611245e-07,0.0,0.050891584334252005,0.0
26.871000000000002,-0.7841967659747251,0.011201343539408807,2.0352336589826332e-07,-6.764085921003027e-07,0.0,0.05091819580562187,0.0
26.872,-0.7841614230563887,0.011236684872559669,2.0951065166559596e-07,-6.963072976776642e-07,0.0,0.05094520744949353,0.0
26.873,-0.7841255565392622,0.01127254978101647,2.15586637962815e-07,-7.165007988932087e-07,0.0,0.050972619265867,0.0
26.874000000000002,-0.7840891664233455,0.01130893826477921,2.2175132478992048e-07,-7.369890957469363e-07,0.0,0.05100043125474227,0.0
26.875,-0.7840522527086387,0.011345850323847889,2.2800471214691236e-07,-7.577721882388472e-07,0.0,0.05102864341611934,0.0
26.876,-0.7840148153951416,0.011383285958222506,2.3434680003379065e-07,-7.788500763689411e-07,0.0,0.05105725574999821,0.0
26.877000000000002,-0.7839768544828544,0.011421245167903063,2.4077758845055535e-07,-8.002227601372181e-07,0.0,0.05108626825637889,0.0
26.878,-0.783938369971777,0.011459727952889558,2.472970773972065e-07,-8.218902395436783e-07,0.0,0.051115680935261365,0.0
26.879,-0.7838993618619094,0.011498734313181993,2.5390526687374403e-07,-8.438525145883217e-07,0.0,0.051145493786645645,0.0
26.880000000000003,-0.7838598301532518,0.011538264248780366,2.60602156880168e-07,-8.661095852711482e-07,0.0,0.051175706810531726,0.0
26.881,-0.7838197748458039,0.011578317759684677,2.6738774741647836e-07,-8.886614515921578e-07,0.0,0.05120632000691961,0.0
26.882,-0.7837791959395658,0.011618894845894928,2.7426203848267516e-07,-9.115081135513504e-07,0.0,0.051237333375809296,0.0
26.883,-0.7837380934345376,0.011659995507411118,2.8122503007875835e-07,-9.346495711487263e-07,0.0,0.05126874691720079,0.0
26.884,-0.7836964673307192,0.011701619744233246,2.882767222047279e-07,-9.580858243842853e-07,0.0,0.05130056063109409,0.0
26.885,-0.7836543176281107,0.011743767556361312,2.9541711486058393e-07,-9.818168732580274e-07,0.0,0.05133277451748919,0.0
26.886,-0.7836116443267119,0.011786438943795316,3.0264620804632633e-07,-1.0058427177699525e-06,0.0,0.05136538857638609,0.0
26.887,-0.7835684474265231,0.01182963390653526,3.0996400176195517e-07,-1.030163357920061e-06,0.0,0.05139840280778479,0.0
26.888,-0.783524726927544,0.011873352444581141,3.173704960074704e-07,-1.0547787937083526e-06,0.0,0.0514318172116853,0.0
26.889,-0.7834804828297748,0.011917594557932962,3.2486569078287206e-07,-1.0796890251348272e-06,0.0,0.05146563178808761,0.0
26.89,-0.7834357151332154,0.011962360246590722,3.324495860881601e-07,-1.104894052199485e-06,0.0,0.05149984653699172,0.0
26.891000000000002,-0.7833904238378658,0.01200764951055442,3.401221819233346e-07,-1.1303938749023258e-06,0.0,0.05153446145839763,0.0
26.892,-0.7833446089437262,0.012053462349824058,3.478834782883955e-07,-1.15618849324335e-06,0.0,0.05156947655230534,0.0
26.893,-0.7832982704507963,0.012099798764399634,3.5573347518334275e-07,-1.1822779072225572e-06,0.0,0.05160489181871486,0.0
26.894000000000002,-0.7832514083590761,0.012146658754281149,3.6367217260817645e-07,-1.2086621168399475e-06,0.0,0.05164070725762618,0.0
26.895,-0.7832040226685659,0.012194042319468603,3.7169957056289654e-07,-1.235341122095521e-06,0.0,0.0516769228690393,0.0
26.896,-0.7831561133792655,0.012241949459961996,3.7981566904750307e-07,-1.2623149229892774e-06,0.0,0.05171353865295422,0.0
26.897000000000002,-0.783107680491175,0.012290380175761327,3.88020468061996e-07,-1.2895835195212172e-06,0.0,0.05175055460937095,0.0
26.898,-0.7830587240042942,0.012339334466866598,3.9631396760637535e-07,-1.3171469116913401e-06,0.0,0.051787970738289474,0.0
26.899,-0.7830092439186233,0.012388812333277805,4.046961676806411e-07,-1.3450050994996461e-06,0.0,0.0518257870397098,0.0
26.900000000000002,-0.7829592402341622,0.012438813774994952,4.131670682847932e-07,-1.3731580829461352e-06,0.0,0.051864003513631934,0.0
26.901,-0.7829087129509109,0.012489338792018037,4.217266694188318e-07,-1.4016058620308074e-06,0.0,0.05190262016005587,0.0
26.902,-0.7828576620688695,0.012540387384347061,4.3037497108275675e-07,-1.4303484367536628e-06,0.0,0.051941636978981603,0.0
26.903000000000002,-0.7828060875880379,0.012591959551982024,4.3911197327656815e-07,-1.4593858071147014e-06,0.0,0.05198105397040914,0.0
26.904,-0.7827539895084161,0.012644055294922926,4.4793767600026593e-07,-1.488717973113923e-06,0.0,0.05202087113433848,0.0
26.905,-0.7827013678300042,0.012696674613169767,4.5685207925385015e-07,-1.5183449347513278e-06,0.0,0.05206108847076963,0.0
26.906000000000002,-0.7826482225528021,0.012749817506722546,4.6585518303732076e-07,-1.5482666920269157e-06,0.0,0.05210170597970258,0.0
26.907,-0.7825945536768099,0.012803483975581264,4.749469873506778e-07,-1.5784832449406868e-06,0.0,0.052142723661137334,0.0
26.908,-0.7825403612020274,0.012857674019745921,4.841274921939211e-07,-1.608994593492641e-06,0.0,0.05218414151507389,0.0
26.909000000000002,-0.7824856451284548,0.012912387639216517,4.93396697567051e-07,-1.6398007376827784e-06,0.0,0.05222595954151225,0.0
26.91,-0.782430405456092,0.012967624833993052,5.027546034700671e-07,-1.6709016775110988e-06,0.0,0.05226817774045241,0.0
26.911,-0.782374642184939,0.013023385604075526,5.122012099029697e-07,-1.7022974129776024e-06,0.0,0.05231079611189437,0.0
26.912000000000003,-0.7823183553149959,0.013079669949463938,5.217365168657588e-07,-1.733987944082289e-06,0.0,0.05235381465583813,0.0
26.913,-0.7822615448462626,0.01313647787015829,5.313605243584342e-07,-1.7659732708251589e-06,0.0,0.0523972333722837,0.0
26.914,-0.7822042107787393,0.013193809366158578,5.41073232380996e-07,-1.7982533932062119e-06,0.0,0.052441052261231066,0.0
26.915,-0.7821463531124256,0.013251664437464806,5.508746409334443e-07,-1.830828311225448e-06,0.0,0.05248527132268024,0.0
26.916,-0.7820879718473218,0.013310043084076972,5.60764750015779e-07,-1.8636980248828672e-06,0.0,0.05252989055663121,0.0
26.917,-0.7820290669834279,0.013368945305995077,5.70743559628e-07,-1.8968625341784695e-06,0.0,0.052574909963083984,0.0
26.918,-0.7819696385207437,0.01342837110321912,5.808110697701075e-07,-1.930321839112255e-06,0.0,0.05262032954203856,0.0
26.919,-0.7819096864592695,0.013488320475749103,5.909672804421014e-07,-1.9640759396842235e-06,0.0,0.05266614929349494,0.0
26.92,-0.781849210799005,0.013548793423585025,6.012121916439817e-07,-1.9981248358943753e-06,0.0,0.05271236921745312,0.0
26.921,-0.7817882115399504,0.013609789946726885,6.115458033757484e-07,-2.03246852774271e-06,0.0,0.0527589893139131,0.0
26.922,-0.7817266886821056,0.013671310045174684,6.219681156374015e-07,-2.067107015229228e-06,0.0,0.05280600958287489,0.0
26.923000000000002,-0.7816646422254706,0.013733353718928422,6.324791284289411e-07,-2.102040298353929e-06,0.0,0.052853430024338476,0.0
26.924,-0.7816020721700455,0.013795920967988099,6.43078841750367e-07,-2.1372683771168133e-06,0.0,0.052901250638303865,0.0
26.925,-0.7815389785158302,0.013859011792353715,6.537672556016794e-07,-2.1727912515178805e-06,0.0,0.05294947142477106,0.0
26.926000000000002,-0.7814753612628247,0.01392262619202527,6.645443699828781e-07,-2.2086089215571312e-06,0.0,0.05299809238374005,0.0
26.927,-0.7814112204110291,0.013986764167002763,6.754101848939634e-07,-2.244721387234565e-06,0.0,0.053047113515210846,0.0
26.928,-0.7813465559604432,0.014051425717286195,6.863647003349349e-07,-2.281128648550182e-06,0.0,0.05309653481918345,0.0
26.929000000000002,-0.7812813679110673,0.014116610842875564,6.974079163057929e-07,-2.317830705503982e-06,0.0,0.05314635629565786,0.0
26.93,-0.7812156562629011,0.014182319543770873,7.085398328065373e-07,-2.354827558095965e-06,0.0,0.05319657794463407,0.0
26.931,-0.7811494210159448,0.01424855181997212,7.197604498371682e-07,-2.3921192063261313e-06,0.0,0.05324719976611208,0.0
26.932000000000002,-0.7810826621701983,0.014315307671479306,7.310697673976854e-07,-2.4297056501944806e-06,0.0,0.05329822176009189,0.0
26.933,-0.7810153797256616,0.01438258709829243,7.42467785488089e-07,-2.467586889701013e-06,0.0,0.05334964392657351,0.0
26.934,-0.7809475736823348,0.014450390100411494,7.539545041083791e-07,-2.5057629248457285e-06,0.0,0.053401466265556925,0.0
26.935000000000002,-0.7808792440402178,0.014518716677836496,7.655299232585555e-07,-2.544233755628627e-06,0.0,0.053453688777042145,0.0
26.936,-0.7808103907993107,0.014587566830567437,7.771940429386183e-07,-2.582999382049709e-06,0.0,0.05350631146102917,0.0
26.937,-0.7807410139596134,0.014656940558604318,7.889468631485676e-07,-2.6220598041089743e-06,0.0,0.05355933431751799,0.0
26.938000000000002,-0.7806711135211258,0.014726837861947136,8.007883838884033e-07,-2.6614150218064226e-06,0.0,0.05361275734650862,0.0
26.939,-0.7806006894838482,0.014797258740595894,8.127186051581254e-07,-2.701065035142054e-06,0.0,0.053666580548001046,0.0
26.94,-0.7805297418477803,0.014868203194550591,8.247375269577339e-07,-2.7410098441158684e-06,0.0,0.053720803921995276,0.0
26.941000000000003,-0.7804582706129224,0.014939671223811226,8.368451492872288e-07,-2.781249448727866e-06,0.0,0.05377542746849131,0.0
26.942,-0.7803862757792742,0.015011662828377799,8.490414721466101e-07,-2.8217838489780466e-06,0.0,0.053830451187489144,0.0
26.943,-0.7803137573468358,0.01508417800825031,8.613264955358778e-07,-2.8626130448664103e-06,0.0,0.05388587507898878,0.0
26.944000000000003,-0.7802407153156073,0.01515721676342876,8.73700219455032e-07,-2.903737036392957e-06,0.0,0.05394169914299022,0.0
26.945,-0.7801671496855886,0.01523077909391315,8.861626439040726e-07,-2.945155823557687e-06,0.0,0.05399792337949346,0.0
26.946,-0.7800930604567798,0.015304864999703478,8.987137688829995e-07,-2.9868694063606e-06,0.0,0.054054547788498504,0.0
26.947,-0.7800184476291808,0.015379474480799744,9.113535943918129e-07,-3.0288777848016966e-06,0.0,0.05411157237000535,0.0
26.948,-0.7799433112027916,0.01545460753720195,9.240821204305127e-07,-3.071180958880976e-06,0.0,0.054168997124014,0.0
26.949,-0.7798676511776123,0.015530264168910094,9.368993469990989e-07,-3.113778928598439e-06,0.0,0.05422682205052445,0.0
26.95,-0.7797914675536427,0.015606444375924178,9.498052740975715e-07,-3.1566716939540847e-06,0.0,0.054285047149536705,0.0
26.951,-0.779714760330883,0.0156831481582442,9.627999017259304e-07,-3.1998592549479136e-06,0.0,0.054343672421050766,0.0
26.952,-0.7796375295093332,0.01576037551587016,9.758832298841759e-07,-3.2433416115799256e-06,0.0,0.05440269786506663,0.0
26.953,-0.7795597750889931,0.01583812644880206,9.890552585723077e-07,-3.2871187638501206e-06,0.0,0.054462123481584294,0.0
26.954,-0.7794814970698629,0.015916400957039896,1.002315987790326e-06,-3.3311907117584988e-06,0.0,0.05452194927060376,0.0
26.955000000000002,-0.7794026954519425,0.015995199040583673,1.0156654175382307e-06,-3.37555745530506e-06,0.0,0.05458217523212503,0.0
26.956,-0.779323370235232,0.016074520699433388,1.0291035478160217e-06,-3.4202189944898044e-06,0.0,0.0546428013661481,0.0
26.957,-0.7792435214197313,0.016154365933589043,1.0426303786236992e-06,-3.4651753293127322e-06,0.0,0.054703827672672976,0.0
26.958000000000002,-0.7791631490054405,0.016234734743050636,1.056245909961263e-06,-3.510426459773843e-06,0.0,0.05476525415169965,0.0
26.959,-0.7790822529923594,0.01631562712781817,1.0699501418287133e-06,-3.5559723858731372e-06,0.0,0.05482708080322813,0.0
26.96,-0.7790008333804882,0.01639704308789164,1.08374307422605e-06,-3.6018131076106144e-06,0.0,0.05488930762725841,0.0
26.961000000000002,-0.7789188901698268,0.01647898262327105,1.0976247071532732e-06,-3.6479486249862746e-06,0.0,0.05495193462379049,0.0
26.962,-0.7788364233603753,0.016561445733956397,1.1115950406103826e-06,-3.694378938000118e-06,0.0,0.05501496179282438,0.0
26.963,-0.7787534329521336,0.01664443241994768,1.1256540745973786e-06,-3.7411040466521443e-06,0.0,0.05507838913436006,0.0
26.964000000000002,-0.7786699189451017,0.016727942681244907,1.139801809114261e-06,-3.788123950942354e-06,0.0,0.05514221664839755,0.0
26.965,-0.7785858813392796,0.01681197651784807,1.1540382441610298e-06,-3.835438650870747e-06,0.0,0.05520644433493684,0.0
26.966,-0.7785013201346674,0.016896533929757172,1.168363379737685e-06,-3.883048146437324e-06,0.0,0.055271072193977935,0.0
26.967000000000002,-0.778416235331265,0.016981614916972212,1.1827772158442265e-06,-3.9309524376420835e-06,0.0,0.05533610022552083,0.0
26.968,-0.7783306269290725,0.017067219479493193,1.1972797524806545e-06,-3.979151524485026e-06,0.0,0.05540152842956553,0.0
26.969,-0.7782444949280898,0.01715334761732011,1.211870989646969e-06,-4.027645406966152e-06,0.0,0.05546735680611203,0.0
26.970000000000002,-0.7781578393283168,0.01723999933045297,1.2265509273431697e-06,-4.076434085085461e-06,0.0,0.05553358535516033,0.0
26.971,-0.7780706601297538,0.017327174618891765,1.241319565569257e-06,-4.125517558842953e-06,0.0,0.05560021407671043,0.0
26.972,-0.7779829573324005,0.0174148734826365,1.2561769043252306e-06,-4.174895828238628e-06,0.0,0.055667242970762344,0.0
26.973000000000003,-0.7778947309362572,0.017503095921687174,1.2711229436110905e-06,-4.224568893272486e-06,0.0,0.05573467203731606,0.0
26.974,-0.7778059809413236,0.017591841936043788,1.286157683426837e-06,-4.274536753944527e-06,0.0,0.055802501276371576,0.0
26.975,-0.7777167073475998,0.01768111152570634,1.3012811237724699e-06,-4.324799410254752e-06,0.0,0.055870730687928895,0.0
26.976,-0.7776269101550859,0.01777090469067483,1.316493264647989e-06,-4.375356862203159e-06,0.0,0.055939360271988016,0.0
26.977,-0.7775365893637818,0.01786122143094926,1.3317941060533947e-06,-4.42620910978975e-06,0.0,0.05600839002854894,0.0
26.978,-0.7774457449736876,0.017952061746529625,1.3471836479886868e-06,-4.477356153014523e-06,0.0,0.056077819957611665,0.0
26.979,-0.7773543769848031,0.01804342563741593,1.3626618904538654e-06,-4.52879799187748e-06,0.0,0.05614765005917619,0.0
26.98,-0.7772624853971286,0.018135313103608174,1.3782288334489303e-06,-4.58053462637862e-06,0.0,0.05621788033324252,0.0
26.981,-0.7771700702106639,0.018227724145106358,1.3938844769738816e-06,-4.632566056517943e-06,0.0,0.056288510779810653,0.0
26.982,-0.7770771314254089,0.01832065876191048,1.4096288210287194e-06,-4.684892282295449e-06,0.0,0.05635954139888059,0.0
26.983,-0.7769836690413638,0.01841411695402054,1.4254618656134435e-06,-4.737513303711139e-06,0.0,0.05643097219045232,0.0
26.984,-0.7768896830585286,0.01850809872143654,1.441383610728054e-06,-4.790429120765012e-06,0.0,0.05650280315452586,0.0
26.985,-0.7767951734769032,0.01860260406415848,1.457394056372551e-06,-4.843639733457068e-06,0.0,0.0565750342911012,0.0
26.986,-0.7767001402964876,0.018697632982186355,1.4734932025469343e-06,-4.897145141787307e-06,0.0,0.056647665600178344,0.0
26.987000000000002,-0.7766045835172818,0.018793185475520172,1.489681049251204e-06,-4.9509453457557295e-06,0.0,0.05672069708175729,0.0
26.988,-0.7765085031392859,0.018889261544159926,1.5059575964853602e-06,-5.005040345362335e-06,0.0,0.056794128735838036,0.0
26.989,-0.7764118991624998,0.01898586118810562,1.5223228442494028e-06,-5.0594301406071234e-06,0.0,0.056867960562420584,0.0
26.990000000000002,-0.7763147715869235,0.019082984407357253,1.5387767925433317e-06,-5.114114731490095e-06,0.0,0.056942192561504935,0.0
26.991,-0.7762171204125571,0.019180631201914822,1.5553194413671471e-06,-5.16909411801125e-06,0.0,0.05701682473309109,0.0
26.992,-0.7761189456394004,0.01927880157177833,1.571950790720849e-06,-5.2243683001705875e-06,0.0,0.057091857077179044,0.0
26.993000000000002,-0.7760202472674537,0.019377495516947778,1.588670840604437e-06,-5.279937277968108e-06,0.0,0.0571672895937688,0.0
26.994,-0.7759210252967167,0.019476713037423165,1.6054795910179117e-06,-5.335801051403812e-06,0.0,0.05724312228286037,0.0
26.995,-0.7758212797271896,0.01957645413320449,1.6223770419612727e-06,-5.391959620477699e-06,0.0,0.057319355144453736,0.0
26.996000000000002,-0.7757210105588723,0.019676718804291754,1.6393631934345202e-06,-5.4484129851897695e-06,0.0,0.05739598817854891,0.0
26.997,-0.7756202177917648,0.019777507050684956,1.656438045437654e-06,-5.505161145540023e-06,0.0,0.05747302138514588,0.0
26.998,-0.7755189014258672,0.0198788188723841,1.6736015979706743e-06,-5.562204101528459e-06,0.0,0.057550454764244655,0.0
26.999000000000002,-0.7754170614611794,0.019980654269389178,1.690853851033581e-06,-5.6195418531550784e-06,0.0,0.05762828831584523,0.0
27.0,-0.7753146978977015,0.0200830132417002,1.708194804626374e-06,-5.677174400419881e-06,0.0,0.05770652203994761,0.0
27.001,-0.7752118107354333,0.020185895789317156,1.7256244587490535e-06,-5.7351017433228665e-06,0.0,0.05778515593655179,0.0
27.002000000000002,-0.775108399974375,0.020289301912240053,1.7431428134016195e-06,-5.793323881864035e-06,0.0,0.057864190005657776,0.0
27.003,-0.7750044656145265,0.02039323161046889,1.7607498685840718e-06,-5.851840816043387e-06,0.0,0.05794362424726556,0.0
27.004,-0.7749000076558878,0.020497684884003664,1.7784456242964104e-06,-5.910652545860923e-06,0.0,0.05802345866137515,0.0
27.005000000000003,-0.7747950260984591,0.020602661732844377,1.7962300805386356e-06,-5.9697590713166415e-06,0.0,0.05810369324798654,0.0
27.006,-0.7746895209422401,0.020708162156991027,1.814103237310747e-06,-6.0291603924105434e-06,0.0,0.05818432800709973,0.0
27.007,-0.774583492187231,0.020814186156443617,1.832065094612745e-06,-6.0888565091426284e-06,0.0,0.058265362938714725,0.0
27.008,-0.7744769398334317,0.020920733731202144,1.8501156524446293e-06,-6.1488474215128965e-06,0.0,0.05834679804283152,0.0
27.009,-0.7743698638808422,0.021027804881266612,1.8682549108064e-06,-6.209133129521348e-06,0.0,0.05842863331945012,0.0
27.01,-0.7742622643294625,0.021135399606637018,1.886482869698057e-06,-6.269713633167982e-06,0.0,0.05851086876857052,0.0
27.011,-0.7741541411792927,0.021243517907313363,1.9047995291196007e-06,-6.330588932452799e-06,0.0,0.05859350439019272,0.0
27.012,-0.7740454944303328,0.021352159783295646,1.923204889071031e-06,-6.3917590273758e-06,0.0,0.05867654018431673,0.0
27.013,-0.7739363240825826,0.02146132523458387,1.941698949552347e-06,-6.453223917936983e-06,0.0,0.058759976150942535,0.0
27.014,-0.7738266301360422,0.02157101426117803,1.9602817105635497e-06,-6.51498360413635e-06,0.0,0.058843812290070144,0.0
27.015,-0.7737164125907118,0.02168122686307813,1.978953172104639e-06,-6.5770380859739e-06,0.0,0.05892804860169956,0.0
27.016000000000002,-0.7736056714465911,0.02179196304028417,1.9977133341756147e-06,-6.6393873634496325e-06,0.0,0.05901268508583078,0.0
27.017,-0.7734944067036803,0.021903222792796148,2.0165621967764768e-06,-6.7020314365635484e-06,0.0,0.059097721742463805,0.0
27.018,-0.7733826183619793,0.022015006120614064,2.035499759907225e-06,-6.7649703053156475e-06,0.0,0.05918315857159863,0.0
27.019000000000002,-0.7732703064214881,0.022127313023737917,2.05452602356786e-06,-6.8282039697059295e-06,0.0,0.059268995573235256,0.0
27.02,-0.7731574708822068,0.02224014350216771,2.073640987758381e-06,-6.891732429734395e-06,0.0,0.059355232747373685,0.0
27.021,-0.7730441117441352,0.02235349755590344,2.0928446524787886e-06,-6.955555685401043e-06,0.0,0.059441870094013916,0.0
27.022000000000002,-0.7729302290072736,0.022467375184945113,2.1121370177290828e-06,-7.019673736705874e-06,0.0,0.05952890761315595,0.0
27.023,-0.7728158226716217,0.02258177638929272,2.131518083509263e-06,-7.084086583648889e-06,0.0,0.059616345304799784,0.0
27.024,-0.7727008927371797,0.02269670116894627,2.15098784981933e-06,-7.148794226230086e-06,0.0,0.05970418316894542,0.0
27.025000000000002,-0.7725854392039475,0.022812149523905756,2.170546316659283e-06,-7.213796664449467e-06,0.0,0.05979242120559286,0.0
27.026,-0.7724694620719251,0.022928121454171183,2.190193484029123e-06,-7.279093898307031e-06,0.0,0.0598810594147421,0.0
27.027,-0.7723529613411126,0.023044616959742546,2.209929351928849e-06,-7.3446859278027785e-06,0.0,0.059970097796393146,0.0
27.028000000000002,-0.7722359370115099,0.02316163604061985,2.2297539203584617e-06,-7.410572752936709e-06,0.0,0.06005953635054599,0.0
27.029,-0.7721183890831171,0.023279178696803092,2.2496671893179606e-06,-7.476754373708823e-06,0.0,0.06014937507720064,0.0
27.03,-0.7720003175559341,0.023397244928292274,2.269669158807346e-06,-7.54323079011912e-06,0.0,0.06023961397635709,0.0
27.031000000000002,-0.7718817224299609,0.023515834735087393,2.2897598288266174e-06,-7.6100020021676e-06,0.0,0.06033025304801534,0.0
27.032,-0.7717626037051976,0.023634948117188453,2.3099391993757757e-06,-7.677068009854263e-06,0.0,0.060421292292175396,0.0
27.033,-0.771642961381644,0.02375458507459545,2.3302072704548203e-06,-7.744428813179109e-06,0.0,0.06051273170883725,0.0
27.034000000000002,-0.7715227954593004,0.023874745607308383,2.3505640420637513e-06,-7.812084412142138e-06,0.0,0.06060457129800091,0.0
27.035,-0.7714021059381665,0.023995429715327258,2.3710095142025686e-06,-7.88003480674335e-06,0.0,0.06069681105966637,0.0
27.036,-0.7712808928182424,0.02411663739865207,2.3915436868712722e-06,-7.948279996982745e-06,0.0,0.060789450993833635,0.0
27.037000000000003,-0.7711591560995282,0.02423836865728282,2.4121665600698622e-06,-8.016819982860323e-06,0.0,0.06088249110050271,0.0
27.038,-0.7710368957820238,0.02436062349121951,2.432878133798339e-06,-8.085654764376084e-06,0.0,0.06097593137967358,0.0
27.039,-0.7709141118657293,0.02448340190046214,2.453678408056702e-06,-8.154784341530028e-06,0.0,0.06106977183134626,0.0
27.04,-0.7707908043506446,0.024606703885010708,2.4745673828449514e-06,-8.224208714322156e-06,0.0,0.061164012455520736,0.0
27.041,-0.7706669732367697,0.024730529444865215,2.495545058163087e-06,-8.293927882752468e-06,0.0,0.061258653252197016,0.0
27.042,-0.7705426185241047,0.02485487858002566,2.516611434011109e-06,-8.363941846820962e-06,0.0,0.0613536942213751,0.0
27.043,-0.7704177402126494,0.024979751290492045,2.537766510389018e-06,-8.43425060652764e-06,0.0,0.061449135363054984,0.0
27.044,-0.7702923383024041,0.025105147576264367,2.559010287296813e-06,-8.5048541618725e-06,0.0,0.06154497667723667,0.0
27.045,-0.7701664127933685,0.02523106743734263,2.5803427647344947e-06,-8.575752512855545e-06,0.0,0.06164121816392016,0.0
27.046,-0.7700399636855427,0.02535751087372683,2.6017639427020625e-06,-8.646945659476771e-06,0.0,0.06173785982310545,0.0
27.047,-0.7699129909789268,0.025484477885416967,2.6232738211995167e-06,-8.718433601736181e-06,0.0,0.061834901654792544,0.0
27.048000000000002,-0.7697854946735208,0.025611968472413045,2.644872400226857e-06,-8.790216339633774e-06,0.0,0.06193234365898144,0.0
27.049,-0.7696574747693246,0.02573998263471506,2.6665596797840844e-06,-8.86229387316955e-06,0.0,0.06203018583567214,0.0
27.05,-0.7695289312663381,0.025868520372323015,2.688335659871198e-06,-8.93466620234351e-06,0.0,0.06212842818486464,0.0
27.051000000000002,-0.7693998641645616,0.025997581685236908,2.710200340488198e-06,-9.007333327155652e-06,0.0,0.06222707070655894,0.0
27.052,-0.7692702734639949,0.02612716657345674,2.732153721635084e-06,-9.080295247605977e-06,0.0,0.06232611340075504,0.0
27.053,-0.769140159164638,0.02625727503698251,2.7541958033118567e-06,-9.153551963694486e-06,0.0,0.06242555626745295,0.0
27.054000000000002,-0.7690095212664909,0.02638790707581422,2.7763265855185156e-06,-9.227103475421177e-06,0.0,0.06252539930665266,0.0
27.055,-0.7688783597695537,0.02651906268995187,2.7985460682550613e-06,-9.300949782786052e-06,0.0,0.06262564251835417,0.0
27.056,-0.7687466746738263,0.026650741879395458,2.8208542515214933e-06,-9.37509088578911e-06,0.0,0.0627262859025575,0.0
27.057000000000002,-0.7686144659793087,0.026782944644144983,2.8432511353178117e-06,-9.44952678443035e-06,0.0,0.06282732945926262,0.0
27.058,-0.7684817336860009,0.02691567098420045,2.8657367196440163e-06,-9.524257478709774e-06,0.0,0.06292877318846954,0.0
27.059,-0.768348477793903,0.027048920899561853,2.8883110045001074e-06,-9.599282968627382e-06,0.0,0.06303061709017826,0.0
27.060000000000002,-0.7682146983030149,0.027182694390229196,2.910973989886085e-06,-9.674603254183172e-06,0.0,0.06313286116438879,0.0
27.061,-0.7680803952133367,0.027316991456202477,2.9337256758019492e-06,-9.750218335377145e-06,0.0,0.06323550541110112,0.0
27.062,-0.7679455685248683,0.027451812097481695,2.9565660622476997e-06,-9.826128212209301e-06,0.0,0.06333854983031525,0.0
27.063000000000002,-0.7678102182376096,0.027587156314066854,2.9794951492233364e-06,-9.902332884679641e-06,0.0,0.06344199442203119,0.0
27.064,-0.7676743443515609,0.02772302410595795,3.0025129367288595e-06,-9.978832352788163e-06,0.0,0.06354583918624893,0.0
27.065,-0.7675379468667219,0.027859415473154986,3.025619424764269e-06,-1.0055626616534869e-05,0.0,0.06365008412296846,0.0
27.066000000000003,-0.7674010257830929,0.02799633041565796,3.048814613329565e-06,-1.0132715675919759e-05,0.0,0.0637547292321898,0.0
27.067,-0.7672635811006736,0.028133768933466873,3.0720985024247477e-06,-1.0210099530942831e-05,0.0,0.06385977451391295,0.0
27.068,-0.7671256128194641,0.028271731026581724,3.0954710920498166e-06,-1.0287778181604087e-05,0.0,0.06396521996813789,0.0
27.069000000000003,-0.7669871209394645,0.028410216695002516,3.1189323822047718e-06,-1.0365751627903526e-05,0.0,0.06407106559486464,0.0
27.07,-0.7668481054606747,0.028549225938729245,3.1424823728896133e-06,-1.0444019869841148e-05,0.0,0.06417731139409319,0.0
27.071,-0.7667085663830948,0.028688758757761914,3.166121064104341e-06,-1.0522582907416953e-05,0.0,0.06428395736582354,0.0
27.072,-0.7665685037067247,0.02882881515210052,3.1898484558489558e-06,-1.0601440740630941e-05,0.0,0.0643910035100557,0.0
27.073,-0.7664279174315645,0.028969395121745067,3.2136645481234567e-06,-1.0680593369483112e-05,0.0,0.06449844982678965,0.0
27.074,-0.766286807557614,0.02911049866669555,3.237569340927844e-06,-1.0760040793973467e-05,0.0,0.06460629631602541,0.0
27.075,-0.7661451740848734,0.029252125786951973,3.2615628342621176e-06,-1.0839783014102003e-05,0.0,0.06471454297776297,0.0
27.076,-0.7660030170133426,0.029394276482514334,3.2856450281262776e-06,-1.0919820029868724e-05,0.0,0.06482318981200233,0.0
27.077,-0.7658603363430216,0.029536950753382633,3.3098159225203243e-06,-1.1000151841273627e-05,0.0,0.0649322368187435,0.0
27.078,-0.7657171320739106,0.029680148599556873,3.3340755174442573e-06,-1.1080778448316715e-05,0.0,0.06504168399798646,0.0
27.079,-0.7655734042060093,0.02982387002103705,3.3584238128980767e-06,-1.1161699850997984e-05,0.0,0.06515153134973123,0.0
27.080000000000002,-0.7654291527393178,0.029968115017823167,3.3828608088817824e-06,-1.1242916049317437e-05,0.0,0.0652617788739778,0.0
27.081,-0.7652843776738362,0.03011288358991522,3.4073865053953745e-06,-1.1324427043275073e-05,0.0,0.06537242657072617,0.0
27.082,-0.7651390790095643,0.030258175737313216,3.432000902438853e-06,-1.1406232832870892e-05,0.0,0.06548347443997635,0.0
27.083000000000002,-0.7649932567465024,0.030403991460017148,3.456704000012218e-06,-1.1488333418104894e-05,0.0,0.06559492248172832,0.0
27.084,-0.7648469108846503,0.03055033075802702,3.4814957981154695e-06,-1.157072879897708e-05,0.0,0.0657067706959821,0.0
27.085,-0.7647000414240079,0.03069719363134283,3.5063762967486073e-06,-1.1653418975487447e-05,0.0,0.06581901908273768,0.0
27.086000000000002,-0.7645526483645755,0.03084458007996458,3.5313454959116314e-06,-1.1736403947635999e-05,0.0,0.06593166764199507,0.0
27.087,-0.7644047317063528,0.030992490103892267,3.556403395604542e-06,-1.1819683715422733e-05,0.0,0.06604471637375425,0.0
27.088,-0.76425629144934,0.031140923703125895,3.5815499958273387e-06,-1.1903258278847651e-05,0.0,0.06615816527801524,0.0
27.089000000000002,-0.7641073275935371,0.03128988087766546,3.6067852965800223e-06,-1.1987127637910751e-05,0.0,0.06627201435477803,0.0
27.09,-0.7639578401389439,0.031439361627510966,3.632109297862592e-06,-1.2071291792612035e-05,0.0,0.06638626360404262,0.0
27.091,-0.7638078290855606,0.03158936595266241,3.6575219996750484e-06,-1.2155750742951503e-05,0.0,0.06650091302580902,0.0
27.092000000000002,-0.763657294433387,0.031739893853119795,3.683023402017391e-06,-1.2240504488929154e-05,0.0,0.06661596262007723,0.0
27.093,-0.7635062361824234,0.03189094532888312,3.70861350488962e-06,-1.2325553030544988e-05,0.0,0.06673141238684724,0.0
27.094,-0.7633546543326696,0.03204252037995238,3.7342923082917355e-06,-1.2410896367799005e-05,0.0,0.06684726232611905,0.0
27.095000000000002,-0.7632025488841256,0.03219461900632758,3.7600598122237375e-06,-1.2496534500691205e-05,0.0,0.06696351243789267,0.0
27.096,-0.7630499198367915,0.03234724120800872,3.785916016685626e-06,-1.2582467429221588e-05,0.0,0.06708016272216809,0.0
27.097,-0.7628967671906671,0.0325003869849958,3.8118609216774005e-06,-1.2668695153390154e-05,0.0,0.06719721317894531,0.0
27.098000000000003,-0.7627430909457527,0.032654056337288816,3.837894527199062e-06,-1.2755217673196903e-05,0.0,0.06731466380822433,0.0
27.099,-0.762588891102048,0.03280824926488777,3.86401683325061e-06,-1.2842034988641836e-05,0.0,0.06743251461000516,0.0
27.1,-0.7624341676595532,0.03296296576779267,3.890227839832044e-06,-1.2929147099724951e-05,0.0,0.06755076558428778,0.0
27.101,-0.7622789206182682,0.0331182058460035,3.916527546943365e-06,-1.301655400644625e-05,0.0,0.06766941673107221,0.0
27.102,-0.762123149978193,0.03327396949952027,3.942915954584571e-06,-1.3104255708805732e-05,0.0,0.06778846805035844,0.0
27.103,-0.7619668557393277,0.03343025672834298,3.969393062755665e-06,-1.3192252206803397e-05,0.0,0.06790791954214648,0.0
27.104,-0.7618100379016721,0.03358706753247163,3.9959588714566456e-06,-1.3280543500439244e-05,0.0,0.06802777120643631,0.0
27.105,-0.7616526964652265,0.03374440191190622,4.022613380687512e-06,-1.3369129589713276e-05,0.0,0.06814802304322795,0.0
27.106,-0.7614948314299906,0.033902259866646745,4.049356590448265e-06,-1.345801047462549e-05,0.0,0.06826867505252139,0.0
27.107,-0.7613364427959646,0.03406064139669321,4.076188500738904e-06,-1.3547186155175887e-05,0.0,0.06838972723431663,0.0
27.108,-0.7611775305631484,0.03421954650204561,4.10310911155943e-06,-1.3636656631364467e-05,0.0,0.06851117958861368,0.0
27.109,-0.761018094731542,0.034378975182703955,4.130118422909842e-06,-1.372642190319123e-05,0.0,0.06863303211541252,0.0
27.11,-0.7608581353011455,0.03453892743866824,4.15721643479014e-06,-1.3816481970656176e-05,0.0,0.06875528481471317,0.0
27.111,-0.7606976522719588,0.03469940326993846,4.184403147200325e-06,-1.3906836833759306e-05,0.0,0.06887793768651562,0.0
27.112000000000002,-0.7605366456439819,0.034860402676514614,4.211678560140396e-06,-1.3997486492500618e-05,0.0,0.06900099073081987,0.0
27.113,-0.7603751154172149,0.035021925658396715,4.239042673610353e-06,-1.4088430946880115e-05,0.0,0.06912444394762593,0.0
27.114,-0.7602130615916577,0.03518397221558475,4.2664954876101974e-06,-1.4179670196897793e-05,0.0,0.06924829733693379,0.0
27.115000000000002,-0.7600504841673104,0.03534654234807873,4.294037002139928e-06,-1.4271204242553655e-05,0.0,0.06937255089874345,0.0
27.116,-0.7598873831441728,0.03550963605587864,4.321667217199545e-06,-1.4363033083847701e-05,0.0,0.06949720463305491,0.0
27.117,-0.7597237585222452,0.03567325333898449,4.349386132789049e-06,-1.445515672077993e-05,0.0,0.06962225853986817,0.0
27.118000000000002,-0.7595596103015273,0.03583739419739628,4.3771937489084386e-06,-1.4547575153350342e-05,0.0,0.06974771261918324,0.0
27.119,-0.7593949384820192,0.03600205863111401,4.405090065557715e-06,-1.4640288381558937e-05,0.0,0.0698735668710001,0.0
27.12,-0.759229743063721,0.03616724664013768,4.433075082736877e-06,-1.4733296405405716e-05,0.0,0.06999982129531877,0.0
27.121000000000002,-0.7590640240466326,0.036332958224467284,4.461148800445926e-06,-1.4826599224890677e-05,0.0,0.07012647589213925,0.0
27.122,-0.7588977814307541,0.03649919338410283,4.489311218684861e-06,-1.4920196840013821e-05,0.0,0.07025353066146152,0.0
27.123,-0.7587310152160854,0.03666595211904432,4.5175623374536825e-06,-1.5014089250775148e-05,0.0,0.0703809856032856,0.0
27.124000000000002,-0.7585637254026265,0.03683323442929174,4.54590215675239e-06,-1.510827645717466e-05,0.0,0.07050884071761147,0.0
27.125,-0.7583959119903775,0.0370010403148451,4.5743306765809844e-06,-1.5202758459212353e-05,0.0,0.07063709600443915,0.0
27.126,-0.7582275749793382,0.037169369775704404,4.602847896939466e-06,-1.529753525688823e-05,0.0,0.07076575146376864,0.0
27.127000000000002,-0.7580587143695089,0.037338222811869645,4.631453817827833e-06,-1.539260685020229e-05,0.0,0.07089480709559992,0.0
27.128,-0.7578893301608893,0.03750759942334082,4.660148439246087e-06,-1.5487973239154532e-05,0.0,0.07102426289993301,0.0
27.129,-0.7577194223534796,0.03767749961011794,4.688931761194228e-06,-1.558363442374496e-05,0.0,0.0711541188767679,0.0
27.130000000000003,-0.7575489909472797,0.03784792337220099,4.717803783672254e-06,-1.5679590403973568e-05,0.0,0.07128437502610459,0.0
27.131,-0.7573780359422896,0.03801887070958999,4.746764506680167e-06,-1.577584117984036e-05,0.0,0.07141503134794308,0.0
27.132,-0.7572065573385094,0.03819034162228492,4.7758139302179666e-06,-1.5872386751345335e-05,0.0,0.07154608784228338,0.0
27.133,-0.757034555135939,0.03836233611028579,4.804952054285652e-06,-1.5969227118488495e-05,0.0,0.07167754450912547,0.0
27.134,-0.7568620293345784,0.0385348541735926,4.834178878883224e-06,-1.6066362281269835e-05,0.0,0.07180940134846937,0.0
27.135,-0.7566889799344276,0.03870789581220535,4.8634944040106825e-06,-1.616379223968936e-05,0.0,0.07194165836031507,0.0
27.136,-0.7565154069354867,0.03888146102612404,4.892898629668027e-06,-1.6261516993747067e-05,0.0,0.07207431554466259,0.0
27.137,-0.7563413103377556,0.039055549815348665,4.922391555855259e-06,-1.635953654344296e-05,0.0,0.07220737290151191,0.0
27.138,-0.7561666901412344,0.03923016217987923,4.951973182572377e-06,-1.6457850888777032e-05,0.0,0.07234083043086303,0.0
27.139,-0.7559915463459229,0.039405298119715736,4.981643509819382e-06,-1.6556460029749288e-05,0.0,0.07247468813271596,0.0
27.14,-0.7558158789518213,0.03958095763485818,5.0114025375962724e-06,-1.665536396635973e-05,0.0,0.07260894600707068,0.0
27.141000000000002,-0.7556396879589296,0.03975714072530656,5.04125026590305e-06,-1.6754562698608353e-05,0.0,0.07274360405392721,0.0
27.142,-0.7554629733672477,0.03993384739106088,5.071186694739713e-06,-1.685405622649516e-05,0.0,0.07287866227328554,0.0
27.143,-0.7552857351767756,0.04011107763212114,5.101211824106263e-06,-1.695384455002015e-05,0.0,0.07301412066514568,0.0
27.144000000000002,-0.7551079733875133,0.04028883144848734,5.131325654002699e-06,-1.7053927669183323e-05,0.0,0.07314997922950761,0.0
27.145,-0.7549296879994609,0.04046710884015948,5.1615281844290216e-06,-1.715430558398468e-05,0.0,0.07328623796637135,0.0
27.146,-0.7547508790126183,0.04064590980713755,5.19181941538523e-06,-1.725497829442422e-05,0.0,0.07342289687573689,0.0
27.147000000000002,-0.7545715464269855,0.04082523434942156,5.2221993468713255e-06,-1.7355945800501942e-05,0.0,0.07355995595760423,0.0
27.148,-0.7543916902425626,0.04100508246701152,5.252667978887308e-06,-1.7457208102217847e-05,0.0,0.07369741521197337,0.0
27.149,-0.7542113104593495,0.04118545415990741,5.2832253114331766e-06,-1.7558765199571936e-05,0.0,0.07383527463884432,0.0
27.150000000000002,-0.7540304070773463,0.04136634942810924,5.3138713445089316e-06,-1.766061709256421e-05,0.0,0.07397353423821706,0.0
27.151,-0.7538489800965528,0.041547768271617005,5.344606078114573e-06,-1.7762763781194663e-05,0.0,0.07411219401009161,0.0
27.152,-0.7536670295169692,0.041729710690430716,5.375429512250101e-06,-1.78652052654633e-05,0.0,0.07425125395446797,0.0
27.153000000000002,-0.7534845553385954,0.04191217668455036,5.406341646915515e-06,-1.7967941545370122e-05,0.0,0.07439071407134612,0.0
27.154,-0.7533015575614315,0.04209516625397595,5.437342482110815e-06,-1.8070972620915127e-05,0.0,0.07453057436072608,0.0
27.155,-0.7531180361854773,0.04227867939870747,5.468432017836002e-06,-1.8174298492098313e-05,0.0,0.07467083482260783,0.0
27.156000000000002,-0.752933991210733,0.042462716118744935,5.499610254091075e-06,-1.8277919158919683e-05,0.0,0.0748114954569914,0.0
27.157,-0.7527494226371986,0.04264727641408834,5.530877190876034e-06,-1.8381834621379237e-05,0.0,0.07495255626387676,0.0
27.158,-0.7525643304648739,0.04283236028473768,5.56223282819088e-06,-1.8486044879476975e-05,0.0,0.07509401724326392,0.0
27.159000000000002,-0.7523787146937592,0.043017967730692955,5.593677166035612e-06,-1.8590549933212893e-05,0.0,0.07523587839515289,0.0
27.16,-0.7521925753238542,0.04320409875195417,5.625210204410231e-06,-1.8695349782586995e-05,0.0,0.07537813971954366,0.0
27.161,-0.752005912355159,0.04339075334852133,5.656831943314736e-06,-1.880044442759928e-05,0.0,0.07552080121643623,0.0
27.162,-0.7518187257876737,0.04357793152039442,5.688542382749128e-06,-1.8905833868249752e-05,0.0,0.0756638628858306,0.0
27.163,-0.7516310156213982,0.043765633267573455,5.7203415227134065e-06,-1.9011518104538403e-05,0.0,0.07580732472772678,0.0
27.164,-0.7514427818563326,0.043953858590058424,5.752229363207571e-06,-1.9117497136465237e-05,0.0,0.07595118674212475,0.0
27.165,-0.7512540244924768,0.04414260748784934,5.784205904231622e-06,-1.9223770964030256e-05,0.0,0.07609544892902453,0.0
27.166,-0.7510647435298309,0.04433187996094619,5.816271145785559e-06,-1.933033958723346e-05,0.0,0.07624011128842612,0.0
27.167,-0.7508749389683947,0.044521676009348976,5.848425087869383e-06,-1.9437203006074845e-05,0.0,0.0763851738203295,0.0
27.168,-0.7506846108081684,0.0447119956330577,5.8806677304830925e-06,-1.9544361220554412e-05,0.0,0.07653063652473469,0.0
27.169,-0.7504937590491519,0.04490283883207237,5.912999073626689e-06,-1.9651814230672163e-05,0.0,0.07667649940164167,0.0
27.17,-0.7503023836913453,0.045094205606392976,5.945419117300171e-06,-1.9759562036428098e-05,0.0,0.07682276245105046,0.0
27.171,-0.7501104847347485,0.04528609595601952,5.977927861503541e-06,-1.9867604637822217e-05,0.0,0.07696942567296106,0.0
27.172,-0.7499180621793615,0.045478509880952,6.010525306236797e-06,-1.9975942034854516e-05,0.0,0.07711648906737345,0.0
27.173000000000002,-0.7497251160251843,0.045671447381190416,6.043211451499939e-06,-2.0084574227525e-05,0.0,0.07726395263428765,0.0
27.174,-0.749531646272217,0.04586490845673478,6.075986297292968e-06,-2.0193501215833666e-05,0.0,0.07741181637370365,0.0
27.175,-0.7493376529204595,0.046058893107585076,6.108849843615883e-06,-2.0302722999780518e-05,0.0,0.07756008028562145,0.0
27.176000000000002,-0.7491431359699119,0.04625340133374131,6.1418020904686845e-06,-2.041223957936555e-05,0.0,0.07770874437004105,0.0
27.177,-0.7489480954205741,0.046448433135203485,6.174843037851372e-06,-2.0522050954588765e-05,0.0,0.07785780862696245,0.0
27.178,-0.748752531272446,0.0466439885119716,6.207972685763946e-06,-2.0632157125450165e-05,0.0,0.07800727305638566,0.0
27.179000000000002,-0.7485564435255279,0.046840067464045655,6.241191034206407e-06,-2.074255809194975e-05,0.0,0.07815713765831067,0.0
27.18,-0.7483598321798195,0.047036669991425646,6.274498083178753e-06,-2.0853253854087512e-05,0.0,0.07830740243273748,0.0
27.181,-0.748162697235321,0.047233796094111574,6.307893832680986e-06,-2.096424441186346e-05,0.0,0.07845806737966611,0.0
27.182000000000002,-0.7479650386920323,0.047431445772103446,6.341378282713107e-06,-2.1075529765277593e-05,0.0,0.07860913249909654,0.0
27.183,-0.7477668565499535,0.047629619025401256,6.374951433275113e-06,-2.118710991432991e-05,0.0,0.07876059779102877,0.0
27.184,-0.7475681508090845,0.047828315854005,6.408613284367006e-06,-2.1298984859020405e-05,0.0,0.0789124632554628,0.0
27.185000000000002,-0.7473689214694252,0.048027536257914685,6.442363835988785e-06,-2.1411154599349085e-05,0.0,0.07906472889239864,0.0
27.186,-0.7471691685309759,0.048227280237130306,6.476203088140451e-06,-2.152361913531595e-05,0.0,0.07921739470183628,0.0
27.187,-0.7469688919937364,0.04842754779165187,6.510131040822003e-06,-2.1636378466920998e-05,0.0,0.07937046068377572,0.0
27.188000000000002,-0.7467680918577068,0.04862833892147937,6.544147694033441e-06,-2.1749432594164227e-05,0.0,0.07952392683821696,0.0
27.189,-0.7465667681228869,0.04882965362661281,6.578253047774766e-06,-2.186278151704564e-05,0.0,0.07967779316516001,0.0
27.19,-0.7463649207892769,0.04903149190705219,6.6124471020459765e-06,-2.1976425235565236e-05,0.0,0.07983205966460485,0.0
27.191000000000003,-0.7461625498568767,0.04923385376279751,6.646729856847074e-06,-2.2090363749723017e-05,0.0,0.0799867263365515,0.0
27.192,-0.7459596553256863,0.049436739193848764,6.681101312178057e-06,-2.2204597059518982e-05,0.0,0.08014179318099995,0.0
27.193,-0.7457562371957058,0.04964014820020596,6.715561468038927e-06,-2.2319125164953127e-05,0.0,0.08029726019795021,0.0
27.194000000000003,-0.7455522954669351,0.04984408078186909,6.750110324429684e-06,-2.2433948066025456e-05,0.0,0.08045312738740226,0.0
27.195,-0.7453478301393742,0.050048536938838165,6.784747881350328e-06,-2.254906576273597e-05,0.0,0.08060939474935612,0.0
27.196,-0.7451428412130232,0.05025351667111318,6.8194741388008575e-06,-2.2664478255084666e-05,0.0,0.08076606228381178,0.0
27.197,-0.744937328687882,0.050459019978694127,6.8542890967812735e-06,-2.2780185543071544e-05,0.0,0.08092312999076924,0.0
27.198,-0.7447312925639507,0.05066504686158101,6.889192755291576e-06,-2.2896187626696605e-05,0.0,0.0810805978702285,0.0
27.199,-0.7445247328412291,0.05087159731977384,6.924185114331765e-06,-2.301248450595985e-05,0.0,0.08123846592218957,0.0
27.2,-0.7443176495197174,0.051078671353272605,6.95926617390184e-06,-2.312907618086128e-05,0.0,0.08139673414665244,0.0
27.201,-0.7441100425994155,0.05128626896207731,6.994435934001801e-06,-2.324596265140089e-05,0.0,0.08155540254361711,0.0
27.202,-0.7439019120803234,0.05149439014618795,7.029694394631649e-06,-2.3363143917578684e-05,0.0,0.08171447111308358,0.0
27.203,-0.7436932579624412,0.05170303490560453,7.065041555791383e-06,-2.348061997939466e-05,0.0,0.08187393985505186,0.0
27.204,-0.7434840802457688,0.051912203240327054,7.1004774174810035e-06,-2.3598390836848823e-05,0.0,0.08203380876952193,0.0
27.205000000000002,-0.7432743789303062,0.052121895150355514,7.136001979700511e-06,-2.3716456489941165e-05,0.0,0.08219407785649381,0.0
27.206,-0.7430641540160535,0.05233211063568991,7.171615242449905e-06,-2.383481693867169e-05,0.0,0.08235474711596749,0.0
27.207,-0.7428534055030106,0.052542849696330246,7.207317205729185e-06,-2.39534721830404e-05,0.0,0.08251581654794297,0.0
27.208000000000002,-0.7426421333911776,0.052754112332276525,7.243107869538352e-06,-2.4072422223047296e-05,0.0,0.08267728615242026,0.0
27.209,-0.7424303376805543,0.05296589854352874,7.278987233877405e-06,-2.419166705869237e-05,0.0,0.08283915592939935,0.0
27.21,-0.742218018371141,0.05317820833008689,7.314955298746344e-06,-2.431120668997563e-05,0.0,0.08300142587888024,0.0
27.211000000000002,-0.7420051754629374,0.05339104169195098,7.35101206414517e-06,-2.443104111689707e-05,0.0,0.08316409600086293,0.0
27.212,-0.7417918089559437,0.05360439862912102,7.387157530073882e-06,-2.4551170339456698e-05,0.0,0.08332716629534742,0.0
27.213,-0.7415779188501598,0.05381827914159699,7.42339169653248e-06,-2.4671594357654505e-05,0.0,0.08349063676233372,0.0
27.214000000000002,-0.7413635051455857,0.054032683229378896,7.4597145635209646e-06,-2.4792313171490496e-05,0.0,0.08365450740182181,0.0
27.215,-0.7411485678422215,0.05424761089246674,7.4961261310393355e-06,-2.491332678096467e-05,0.0,0.08381877821381171,0.0
27.216,-0.7409331069400671,0.05446306213086052,7.532626399087593e-06,-2.503463518607703e-05,0.0,0.08398344919830342,0.0
27.217000000000002,-0.7407171224391225,0.05467903694456025,7.569215367665737e-06,-2.5156238386827572e-05,0.0,0.08414852035529692,0.0
27.218,-0.7405006143393877,0.05489553533356591,7.605893036773768e-06,-2.5278136383216296e-05,0.0,0.08431399168479223,0.0
27.219,-0.7402835826408628,0.055112557297877514,7.642659406411683e-06,-2.5400329175243203e-05,0.0,0.08447986318678934,0.0
27.220000000000002,-0.7400660273435478,0.05533010283749505,7.679514476579486e-06,-2.5522816762908294e-05,0.0,0.08464613486128825,0.0
27.221,-0.7398479484474425,0.05554817195241853,7.716458247277174e-06,-2.564559914621157e-05,0.0,0.08481280670828896,0.0
27.222,-0.739629345952547,0.05576676464264795,7.75349071850475e-06,-2.5768676325153025e-05,0.0,0.08497987872779147,0.0
27.223000000000003,-0.7394102198588615,0.05598588090818331,7.790611890262212e-06,-2.5892048299732664e-05,0.0,0.08514735091979579,0.0
27.224,-0.7391905701663857,0.0562055207490246,7.82782176254956e-06,-2.6015715069950488e-05,0.0,0.08531522328430191,0.0
27.225,-0.7389703968751198,0.05642568416517184,7.865120335366795e-06,-2.6139676635806495e-05,0.0,0.08548349582130983,0.0
27.226,-0.7387496999850637,0.05664637115662501,7.902507608713916e-06,-2.6263932997300684e-05,0.0,0.08565216853081956,0.0
27.227,-0.7385284794962174,0.056867581723384124,7.939983582590923e-06,-2.6388484154433056e-05,0.0,0.0858212414128311,0.0
27.228,-0.7383067354085809,0.05708931586544917,7.977548256997817e-06,-2.651333010720361e-05,0.0,0.08599071446734444,0.0
27.229,-0.7380844677221543,0.05731157358282016,8.015201631934597e-06,-2.663847085561235e-05,0.0,0.08616058769435958,0.0
27.23,-0.7378616764369376,0.05753435487549709,8.052943707401263e-06,-2.6763906399659272e-05,0.0,0.08633086109387653,0.0
27.231,-0.7376383615529306,0.057757659743479954,8.090774483397816e-06,-2.6889636739344376e-05,0.0,0.08650153466589527,0.0
27.232,-0.7374145230701336,0.05798148818676876,8.128693959924255e-06,-2.7015661874667664e-05,0.0,0.08667260841041582,0.0
27.233,-0.7371901609885463,0.0582058402053635,8.16670213698058e-06,-2.7141981805629137e-05,0.0,0.08684408232743818,0.0
27.234,-0.7369652753081688,0.058430715799264184,8.204799014566794e-06,-2.726859653222879e-05,0.0,0.08701595641696233,0.0
27.235,-0.7367398660290012,0.058656114968470806,8.242984592682892e-06,-2.7395506054466626e-05,0.0,0.08718823067898829,0.0
27.236,-0.7365139331510434,0.058882037712983365,8.281258871328878e-06,-2.7522710372342647e-05,0.0,0.08736090511351605,0.0
27.237000000000002,-0.7362874766742955,0.05910848403280186,8.319621850504749e-06,-2.765020948585685e-05,0.0,0.08753397972054561,0.0
27.238,-0.7360604965987574,0.0593354539279263,8.358073530210507e-06,-2.7778003395009236e-05,0.0,0.08770745450007697,0.0
27.239,-0.735832992924429,0.05956294739835668,8.396613910446151e-06,-2.7906092099799806e-05,0.0,0.08788132945211014,0.0
27.240000000000002,-0.7356049656513106,0.059790964444092994,8.435242991211682e-06,-2.803447560022856e-05,0.0,0.0880556045766451,0.0
27.241,-0.735376414779402,0.060019505065135245,8.473960772507098e-06,-2.8163153896295496e-05,0.0,0.08823027987368187,0.0
27.242,-0.7351473403087032,0.060248569261483434,8.512767254332402e-06,-2.8292126988000616e-05,0.0,0.08840535534322044,0.0
27.243000000000002,-0.7349177422392142,0.06047815703313757,8.551662436687591e-06,-2.8421394875343918e-05,0.0,0.08858083098526082,0.0
27.244,-0.7346876205709351,0.06070826838009764,8.590646319572667e-06,-2.8550957558325403e-05,0.0,0.08875670679980299,0.0
27.245,-0.7344569753038658,0.060938903302363644,8.629718902987631e-06,-2.8680815036945073e-05,0.0,0.08893298278684697,0.0
27.246000000000002,-0.7342258064380063,0.06117006179993559,8.66888018693248e-06,-2.8810967311202926e-05,0.0,0.08910965894639275,0.0
27.247,-0.7339941139733567,0.061401743872813476,8.708130171407216e-06,-2.894141438109896e-05,0.0,0.08928673527844033,0.0
27.248,-0.7337618979099169,0.0616339495209973,8.747468856411838e-06,-2.9072156246633177e-05,0.0,0.08946421178298972,0.0
27.249000000000002,-0.7335291582476868,0.061866678744487064,8.786896241946347e-06,-2.920319290780558e-05,0.0,0.0896420884600409,0.0
27.25,-0.7332958949866667,0.06209993154328276,8.826412328010741e-06,-2.9334524364616165e-05,0.0,0.08982036530959389,0.0
27.251,-0.7330621081268563,0.06233370791738441,8.866017114605022e-06,-2.946615061706493e-05,0.0,0.08999904233164868,0.0
27.252000000000002,-0.7328277976682559,0.06256800786679198,8.90571060172919e-06,-2.959807166515188e-05,0.0,0.09017811952620527,0.0
27.253,-0.7325929636108652,0.0628028313915055,8.945492789383244e-06,-2.9730287508877015e-05,0.0,0.09035759689326367,0.0
27.254,-0.7323576059546844,0.06303817849152496,8.985363677567183e-06,-2.9862798148240333e-05,0.0,0.09053747443282387,0.0
27.255000000000003,-0.7321217246997134,0.06327404916685035,9.02532326628101e-06,-2.9995603583241832e-05,0.0,0.09071775214488587,0.0
27.256,-0.7318853198459522,0.06351044341748169,9.065371555524724e-06,-3.0128703813881514e-05,0.0,0.09089843002944967,0.0
27.257,-0.7316483913934009,0.06374736124341895,9.105508545298324e-06,-3.026209884015938e-05,0.0,0.09107950808651527,0.0
27.258,-0.7314109393420594,0.06398480264466216,9.14573423560181e-06,-3.039578866207543e-05,0.0,0.09126098631608268,0.0
27.259,-0.7311729636919277,0.06422276762121132,9.186048626435182e-06,-3.052977327962966e-05,0.0,0.09144286471815188,0.0
27.26,-0.7309344644430059,0.0644612561730664,9.226451717798442e-06,-3.066405269282207e-05,0.0,0.0916251432927229,0.0
27.261,-0.7306954415952939,0.06470026830022743,9.266943509691587e-06,-3.0798626901652665e-05,0.0,0.0918078220397957,0.0
27.262,-0.7304558951487917,0.0649398040026944,9.307524002114619e-06,-3.093349590612144e-05,0.0,0.09199090095937032,0.0
27.263,-0.7302158251034994,0.0651798632804673,9.348193195067536e-06,-3.10686597062284e-05,0.0,0.09217438005144674,0.0
27.264,-0.7299752314594169,0.06542044613354615,9.388951088550341e-06,-3.1204118301973545e-05,0.0,0.09235825931602495,0.0
27.265,-0.7297341142165442,0.06566155256193093,9.429797682563031e-06,-3.133987169335687e-05,0.0,0.09254253875310497,0.0
27.266000000000002,-0.7294924733748813,0.06590318256562165,9.470732977105608e-06,-3.1475919880378385e-05,0.0,0.0927272183626868,0.0
27.267,-0.7292503089344283,0.06614533614461832,9.511756972178071e-06,-3.161226286303808e-05,0.0,0.09291229814477042,0.0
27.268,-0.7290076208951851,0.06638801329892091,9.552869667780421e-06,-3.174890064133596e-05,0.0,0.09309777809935585,0.0
27.269000000000002,-0.7287644092571518,0.06663121402852945,9.594071063912658e-06,-3.188583321527202e-05,0.0,0.09328365822644308,0.0
27.27,-0.7285206740203283,0.06687493833344392,9.635361160574781e-06,-3.2023060584846264e-05,0.0,0.09346993852603211,0.0
27.271,-0.7282764151847145,0.06711918621366433,9.676739957766791e-06,-3.216058275005869e-05,0.0,0.09365661899812294,0.0
27.272000000000002,-0.7280316327503107,0.06736395766919069,9.718207455488686e-06,-3.22983997109093e-05,0.0,0.09384369964271559,0.0
27.273,-0.7277863267171166,0.06760925270002298,9.759763653740469e-06,-3.243651146739809e-05,0.0,0.09403118045981004,0.0
27.274,-0.7275404970851325,0.06785507130616121,9.801408552522137e-06,-3.2574918019525066e-05,0.0,0.0942190614494063,0.0
27.275000000000002,-0.7272941438543581,0.06810141348760539,9.843142151833692e-06,-3.271361936729023e-05,0.0,0.09440734261150435,0.0
27.276,-0.7270472670247935,0.06834827924435549,9.884964451675133e-06,-3.285261551069357e-05,0.0,0.09459602394610421,0.0
27.277,-0.7267998665964388,0.06859566857641154,9.92687545204646e-06,-3.29919064497351e-05,0.0,0.09478510545320587,0.0
27.278000000000002,-0.7265519425692939,0.06884358148377352,9.968875152947674e-06,-3.3131492184414805e-05,0.0,0.09497458713280933,0.0
27.279,-0.7263034949433589,0.06909201796644145,1.0010963554378775e-05,-3.3271372714732694e-05,0.0,0.0951644689849146,0.0
27.28,-0.7260545237186337,0.06934097802441531,1.0053140656339762e-05,-3.341154804068877e-05,0.0,0.09535475100952166,0.0
27.281000000000002,-0.7258050288951183,0.06959046165769511,1.0095406458830636e-05,-3.3552018162283025e-05,0.0,0.09554543320663053,0.0
27.282,-0.7255550104728128,0.06984046886628086,1.0137760961851396e-05,-3.3692783079515466e-05,0.0,0.0957365155762412,0.0
27.283,-0.725304468451717,0.07009099965017253,1.0180204165402042e-05,-3.383384279238609e-05,0.0,0.09592799811835367,0.0
27.284000000000002,-0.7250534028318312,0.07034205400937014,1.0222736069482575e-05,-3.39751973008949e-05,0.0,0.09611988083296795,0.0
27.285,-0.7248018136131551,0.0705936319438737,1.0265356674092993e-05,-3.411684660504189e-05,0.0,0.09631216372008403,0.0
27.286,-0.7245497007956889,0.0708457334536832,1.0308065979233299e-05,-3.425879070482706e-05,0.0,0.0965048467797019,0.0
27.287,-0.7242970643794325,0.07109835853879863,1.035086398490349e-05,-3.440102960025042e-05,0.0,0.09669793001182159,0.0
27.288,-0.7240439043643859,0.07135150719922001,1.0393750691103569e-05,-3.4543563291311955e-05,0.0,0.09689141341644307,0.0
27.289,-0.7237902207505492,0.07160517943494732,1.0436726097833533e-05,-3.468639177801168e-05,0.0,0.09708529699356636,0.0
27.29,-0.7235360135379223,0.07185937524598057,1.0479790205093384e-05,-3.482951506034958e-05,0.0,0.09727958074319144,0.0
27.291,-0.7232812827265053,0.07211409463231976,1.0522943012883122e-05,-3.497293313832567e-05,0.0,0.09747426466531833,0.0
27.292,-0.723026028316298,0.07236933759396488,1.0566184521202746e-05,-3.511664601193995e-05,0.0,0.09766934875994703,0.0
27.293,-0.7227702503073006,0.07262510413091595,1.0609514730052257e-05,-3.5260653681192405e-05,0.0,0.09786483302707752,0.0
27.294,-0.722513948699513,0.07288139424317296,1.0652933639431653e-05,-3.5404956146083046e-05,0.0,0.09806071746670982,0.0
27.295,-0.7222571234929352,0.0731382079307359,1.0696441249340936e-05,-3.5549553406611865e-05,0.0,0.09825700207884391,0.0
27.296,-0.7219997746875674,0.07339554519360479,1.0740037559780106e-05,-3.569444546277887e-05,0.0,0.09845368686347981,0.0
27.297,-0.7217419022834093,0.07365340603177961,1.0783722570749162e-05,-3.5839632314584055e-05,0.0,0.09865077182061752,0.0
27.298000000000002,-0.721483506280461,0.07391179044526038,1.0827496282248104e-05,-3.5985113962027425e-05,0.0,0.09884825695025702,0.0
27.299,-0.7212245866787226,0.07417069843404707,1.0871358694276932e-05,-3.613089040510898e-05,0.0,0.09904614225239833,0.0
27.3,-0.720965143478194,0.07443012999813971,1.0915309806835647e-05,-3.627696164382872e-05,0.0,0.09924442772704144,0.0
27.301000000000002,-0.7207051766788752,0.07469008513753829,1.0959349619924248e-05,-3.642332767818664e-05,0.0,0.09944311337418635,0.0
27.302,-0.7204446862807663,0.0749505638522428,1.1003478133542737e-05,-3.656998850818275e-05,0.0,0.09964219919383306,0.0
27.303,-0.7201836722838673,0.07521156614225326,1.1047695347691111e-05,-3.671694413381703e-05,0.0,0.09984168518598158,0.0
27.316000000000003,-0.7201836722838673,0.07521156614225326,1.1047695347691111e-05,-3.671694413381703e-05,0.0,0.09984168518598158,0.0
27.317,-0.7199226127152684,0.07547256876420197,1.1092197633131214e-05,-3.686531023720237e-05,0.0,0.10004111192317086,0.0
27.318,-0.7196619856020602,0.07573304847472129,1.1137181360624886e-05,-3.701620250045163e-05,0.0,0.1002400199779399,0.0
27.319000000000003,-0.7194017909442426,0.0759930052738112,1.1182646530172128e-05,-3.7169620923564805e-05,0.0,0.10043840935028868,0.0
27.32,-0.7191420287418158,0.0762524391614717,1.1228593141772938e-05,-3.73255655065419e-05,0.0,0.1006362800402172,0.0
27.321,-0.7188826989947796,0.0765113501377028,1.1275021195427318e-05,-3.748403624938292e-05,0.0,0.10083363204772547,0.0
27.322000000000003,-0.7186238017031342,0.07676973820250449,1.1321930691135267e-05,-3.7645033152087855e-05,0.0,0.10103046537281349,0.0
27.323,-0.7183653368668794,0.07702760335587677,1.1369321628896787e-05,-3.780855621465671e-05,0.0,0.10122678001548126,0.0
27.324,-0.7181073044860153,0.07728494559781965,1.1417194008711876e-05,-3.7974605437089486e-05,0.0,0.10142257597572876,0.0
27.325000000000003,-0.717849704560542,0.07754176492833312,1.1465547830580534e-05,-3.814318081938618e-05,0.0,0.10161785325355602,0.0
27.326,-0.7175925370904593,0.0777980613474172,1.1514383094502762e-05,-3.8314282361546795e-05,0.0,0.10181261184896302,0.0
27.327,-0.7173358020757673,0.07805383485507186,1.156369980047856e-05,-3.848791006357133e-05,0.0,0.10200685176194978,0.0
27.328000000000003,-0.717079499516466,0.07830908545129713,1.1613497948507926e-05,-3.866406392545978e-05,0.0,0.10220057299251627,0.0
27.329,-0.7168236294125554,0.07856381313609298,1.1663777538590862e-05,-3.884274394721215e-05,0.0,0.10239377554066251,0.0
27.330000000000002,-0.7165681917640355,0.07881801790945943,1.1714538570727368e-05,-3.9023950128828434e-05,0.0,0.1025864594063885,0.0
27.331,-0.7163131865709063,0.07907169977139647,1.1765781044917442e-05,-3.920768247030864e-05,0.0,0.10277862458969424,0.0
27.332,-0.7160586138331677,0.0793248587219041,1.1817504961161087e-05,-3.939394097165276e-05,0.0,0.10297027109057971,0.0
27.333000000000002,-0.7158044735508199,0.07957749476098233,1.1869710319458301e-05,-3.958272563286081e-05,0.0,0.10316139890904494,0.0
27.334,-0.7155507657238628,0.07982960788863117,1.1922397119809085e-05,-3.977403645393277e-05,0.0,0.10335200804508991,0.0
27.335,-0.7152974903522963,0.08008119810485059,1.1975565362213438e-05,-3.996787343486865e-05,0.0,0.10354209849871464,0.0
27.336000000000002,-0.7150446474361205,0.08033226540964061,1.202921504667136e-05,-4.0164236575668456e-05,0.0,0.1037316702699191,0.0
27.337,-0.7147922369753354,0.08058280980300123,1.2083346173182853e-05,-4.036312587633218e-05,0.0,0.10392072335870331,0.0
27.338,-0.7145402589699411,0.08083283128493243,1.2137958741747914e-05,-4.056454133685982e-05,0.0,0.10410925776506727,0.0
27.339000000000002,-0.7142887134199374,0.08108232985543423,1.2193052752366545e-05,-4.076848295725138e-05,0.0,0.10429727348901098,0.0
27.34,-0.7140376003253244,0.08133130551450662,1.2248628205038745e-05,-4.097495073750686e-05,0.0,0.10448477053053443,0.0
27.341,-0.7137869196861021,0.08157975826214962,1.2304685099764515e-05,-4.118394467762626e-05,0.0,0.10467174888963762,0.0
27.342000000000002,-0.7135366715022705,0.08182768809836322,1.2361223436543855e-05,-4.139546477760958e-05,0.0,0.10485820856632057,0.0
27.343,-0.7132868557738296,0.0820750950231474,1.2418243215376763e-05,-4.160951103745681e-05,0.0,0.10504414956058326,0.0
27.344,-0.7130374725007793,0.08232197903650218,1.2475744436263242e-05,-4.1826083457167964e-05,0.0,0.1052295718724257,0.0
27.345000000000002,-0.7127885216831198,0.08256834013842755,1.253372709920329e-05,-4.2045182036743035e-05,0.0,0.10541447550184788,0.0
27.346,-0.712540003320851,0.08281417832892352,1.2592191204196907e-05,-4.2266806776182026e-05,0.0,0.10559886044884981,0.0
27.347,-0.7122919174139728,0.08305949360799007,1.2651136751244094e-05,-4.2490957675484936e-05,0.0,0.10578272671343149,0.0
27.348000000000003,-0.7120442639624853,0.08330428597562722,1.271056374034485e-05,-4.2717634734651766e-05,0.0,0.1059660742955929,0.0
27.349,-0.7117970429663886,0.08354855543183498,1.2770472171499175e-05,-4.2946837953682515e-05,0.0,0.10614890319533407,0.0
27.35,-0.7115502544256825,0.08379230197661333,1.283086204470707e-05,-4.3178567332577183e-05,0.0,0.10633121341265499,0.0
27.351000000000003,-0.7113038983403671,0.08403552560996227,1.2891733359968536e-05,-4.341282287133577e-05,0.0,0.10651300494755565,0.0
27.352,-0.7110579747104424,0.08427822633188181,1.295308611728357e-05,-4.364960456995828e-05,0.0,0.10669427780003606,0.0
27.353,-0.7108124835359084,0.08452040414237194,1.3014920316652174e-05,-4.3888912428444707e-05,0.0,0.10687503197009621,0.0
27.354000000000003,-0.7105674248167652,0.08476205904143266,1.3077235958074347e-05,-4.413074644679505e-05,0.0,0.10705526745773611,0.0
27.355,-0.7103227985530125,0.08500319102906398,1.314003304155009e-05,-4.437510662500932e-05,0.0,0.10723498426295576,0.0
27.356,-0.7100786047446506,0.08524380010526589,1.3203311567079401e-05,-4.4621992963087505e-05,0.0,0.10741418238575515,0.0
27.357000000000003,-0.7098348433916793,0.0854838862700384,1.3267071534662283e-05,-4.4871405461029604e-05,0.0,0.10759286182613428,0.0
27.358,-0.7095915144940989,0.08572344952338151,1.3331312944298733e-05,-4.512334411883562e-05,0.0,0.10777102258409317,0.0
27.359,-0.709348618051909,0.08596248986529521,1.3396035795988754e-05,-4.537780893650556e-05,0.0,0.10794866465963181,0.0
27.360000000000003,-0.7091061540651098,0.08620100729577951,1.3461240089732345e-05,-4.5634799914039416e-05,0.0,0.10812578805275018,0.0
27.361,-0.7088641225337013,0.0864390018148344,1.3526925825529504e-05,-4.589431705143719e-05,0.0,0.1083023927634483,0.0
27.362000000000002,-0.7086225234576836,0.08667647342245988,1.3593093003380234e-05,-4.615636034869889e-05,0.0,0.10847847879172617,0.0
27.363,-0.7083813568370565,0.08691342211865595,1.3659741623284532e-05,-4.6420929805824504e-05,0.0,0.1086540461375838,0.0
27.364,-0.7081406226718201,0.08714984790342262,1.37268716852424e-05,-4.668802542281404e-05,0.0,0.10882909480102115,0.0
27.365000000000002,-0.7079003209619744,0.08738575077675989,1.3794483189253837e-05,-4.695764719966749e-05,0.0,0.10900362478203826,0.0
27.366,-0.7076604517075195,0.08762113073866776,1.3862576135318844e-05,-4.722979513638487e-05,0.0,0.10917763608063512,0.0
27.367,-0.7074210149084551,0.08785598778914622,1.393115052343742e-05,-4.750446923296616e-05,0.0,0.10935112869681173,0.0
27.368000000000002,-0.7071820105647815,0.08809032192819527,1.4000206353609565e-05,-4.7781669489411373e-05,0.0,0.10952410263056807,0.0
27.369,-0.7069434386764986,0.08832413315581492,1.4069743625835282e-05,-4.8061395905720506e-05,0.0,0.10969655788190416,0.0
27.37,-0.7067052992436064,0.08855742147200515,1.4139762340114566e-05,-4.834364848189356e-05,0.0,0.10986849445082,0.0
27.371000000000002,-0.7064675922661048,0.08879018687676599,1.4210262496447421e-05,-4.862842721793052e-05,0.0,0.11003991233731558,0.0
27.372,-0.7062303177439939,0.08902242937009741,1.4281244094833844e-05,-4.891573211383141e-05,0.0,0.11021081154139091,0.0
27.373,-0.7059934756772738,0.08925414895199944,1.4352707135273838e-05,-4.920556316959621e-05,0.0,0.11038119206304599,0.0
27.374000000000002,-0.7057570660659443,0.08948534562247207,1.44246516177674e-05,-4.9497920385224934e-05,0.0,0.11055105390228082,0.0
27.375,-0.7055210889100055,0.08971601938151529,1.4497077542314533e-05,-4.9792803760717576e-05,0.0,0.11072039705909538,0.0
27.376,-0.7052855442094574,0.0899461702291291,1.4569984908915235e-05,-5.009021329607414e-05,0.0,0.11088922153348969,0.0
27.377000000000002,-0.7050504319643001,0.0901757981653135,1.4643373717569507e-05,-5.039014899129462e-05,0.0,0.11105752732546376,0.0
27.378,-0.7048157521745334,0.0904049031900685,1.4717243968277348e-05,-5.069261084637902e-05,0.0,0.11122531443501757,0.0
27.379,-0.7045815048401574,0.09063348530339409,1.4791595661038758e-05,-5.099759886132734e-05,0.0,0.11139258286215112,0.0
27.380000000000003,-0.704347689961172,0.09086154450529027,1.4866428795853738e-05,-5.130511303613958e-05,0.0,0.11155933260686442,0.0
27.381,-0.7041143075375774,0.09108908079575706,1.4941743372722287e-05,-5.161515337081574e-05,0.0,0.11172556366915747,0.0
27.382,-0.7038813575693735,0.09131609417479444,1.5017539391644406e-05,-5.192771986535582e-05,0.0,0.11189127604903026,0.0
27.383000000000003,-0.7036488400565603,0.09154258464240242,1.5093816852620093e-05,-5.224281251975982e-05,0.0,0.1120564697464828,0.0
27.384,-0.7034167549991377,0.09176855219858099,1.5170575755649351e-05,-5.256043133402774e-05,0.0,0.11222114476151508,0.0
27.385,-0.7031851023971059,0.09199399684333015,1.5247816100732179e-05,-5.288057630815957e-05,0.0,0.11238530109412712,0.0
27.386000000000003,-0.7029538822504647,0.0922189185766499,1.5325537887868577e-05,-5.320324744215532e-05,0.0,0.1125489387443189,0.0
27.387,-0.7027230945592142,0.09244331739854025,1.5403741117058542e-05,-5.352844473601499e-05,0.0,0.11271205771209042,0.0
27.388,-0.7024927393233544,0.0926671933090012,1.548242578830208e-05,-5.385616818973858e-05,0.0,0.11287465799744169,0.0
27.389000000000003,-0.7022628165428854,0.09289054630803274,1.5561591901599185e-05,-5.418641780332609e-05,0.0,0.11303673960037271,0.0
27.39,-0.7020333262178069,0.09311337639563488,1.564123945694986e-05,-5.4519193576777516e-05,0.0,0.11319830252088348,0.0
27.391000000000002,-0.7018042683481192,0.09333568357180762,1.57213684543541e-05,-5.4854495510092864e-05,0.0,0.11335934675897398,0.0
27.392000000000003,-0.7015756429338221,0.09355746783655094,1.5801978893811916e-05,-5.519232360327213e-05,0.0,0.11351987231464424,0.0
27.393,-0.7013474499749158,0.09377872918986487,1.58830707753233e-05,-5.553267785631532e-05,0.0,0.11367987918789424,0.0
27.394000000000002,-0.7011196894714001,0.09399946763174938,1.596464409888825e-05,-5.5875558269222425e-05,0.0,0.113839367378724,0.0
27.395,-0.7008923614232752,0.09421968316220448,1.6046698864506774e-05,-5.622096484199345e-05,0.0,0.11399833688713348,0.0
27.396,-0.7006654658305409,0.09443937578123018,1.6129235072178866e-05,-5.6568897574628396e-05,0.0,0.11415678771312272,0.0
27.397000000000002,-0.7004390026931974,0.09465854548882649,1.6212252721904527e-05,-5.691935646712726e-05,0.0,0.11431471985669171,0.0
27.398,-0.7002129720112444,0.09487719228499339,1.6295751813683756e-05,-5.7272341519490046e-05,0.0,0.11447213331784045,0.0
27.399,-0.6999873737846822,0.09509531616973088,1.6379732347516557e-05,-5.762785273171674e-05,0.0,0.11462902809656893,0.0
27.400000000000002,-0.6997622080135107,0.09531291714303897,1.6464194323402926e-05,-5.798589010380736e-05,0.0,0.11478540419287715,0.0
27.401,-0.69953747469773,0.09552999520491764,1.6549137741342865e-05,-5.8346453635761896e-05,0.0,0.11494126160676513,0.0
27.402,-0.6993131738373398,0.09574655035536692,1.6634562601336375e-05,-5.870954332758035e-05,0.0,0.11509660033823285,0.0
27.403000000000002,-0.6990893054323404,0.09596258259438678,1.6720468903383453e-05,-5.907515917926273e-05,0.0,0.11525142038728031,0.0
27.404,-0.6988658694827317,0.09617809192197724,1.68068566474841e-05,-5.944330119080902e-05,0.0,0.11540572175390752,0.0
27.405,-0.6986428659885137,0.0963930783381383,1.6893725833638316e-05,-5.9813969362219236e-05,0.0,0.11555950443811448,0.0
27.406000000000002,-0.6984202949496863,0.09660754184286996,1.6981076461846104e-05,-6.018716369349337e-05,0.0,0.11571276843990119,0.0
27.407,-0.6981981563662496,0.09682148243617221,1.706890853210746e-05,-6.056288418463142e-05,0.0,0.11586551375926764,0.0
27.408,-0.6979764502382036,0.09703490011804505,1.7157222044422385e-05,-6.0941130835633395e-05,0.0,0.11601774039621383,0.0
27.409000000000002,-0.6977551765655484,0.09724779488848849,1.724601699879088e-05,-6.132190364649928e-05,0.0,0.11616944835073978,0.0
27.41,-0.6975343353482838,0.09746016674750252,1.7335293395212946e-05,-6.170520261722909e-05,0.0,0.11632063762284547,0.0
27.411,-0.6973139265864099,0.09767201569508714,1.742505123368858e-05,-6.209102774782281e-05,0.0,0.1164713082125309,0.0
27.412000000000003,-0.6970939502799267,0.09788334173124236,1.7515290514217782e-05,-6.247937903828045e-05,0.0,0.11662146011979609,0.0
27.413,-0.6968744064288342,0.09809414485596818,1.7606011236800556e-05,-6.287025648860202e-05,0.0,0.11677109334464102,0.0
27.414,-0.6966552950331324,0.0983044250692646,1.76972134014369e-05,-6.32636600987875e-05,0.0,0.1169202078870657,0.0
27.415000000000003,-0.6964366160928213,0.0985141823711316,1.778889700812681e-05,-6.36595898688369e-05,0.0,0.11706880374707011,0.0
27.416,-0.6962183696079008,0.0987234167615692,1.788106205687029e-05,-6.405804579875022e-05,0.0,0.11721688092465428,0.0
27.417,-0.6960005555783711,0.0989321282405774,1.7973708547667342e-05,-6.445902788852747e-05,0.0,0.1173644394198182,0.0
27.418000000000003,-0.6957831740042321,0.09914031680815619,1.8066836480517962e-05,-6.486253613816863e-05,0.0,0.11751147923256186,0.0
27.419,-0.6955662248854837,0.09934798246430557,1.816044585542215e-05,-6.526857054767371e-05,0.0,0.11765800036288526,0.0
27.42,-0.695349708222126,0.09955512520902554,1.825453667237991e-05,-6.567713111704271e-05,0.0,0.11780400281078841,0.0
27.421000000000003,-0.6951336240141591,0.09976174504231612,1.834910893139124e-05,-6.608821784627563e-05,0.0,0.11794948657627131,0.0
27.422,-0.6949179722615828,0.0999678419641773,1.844416263245614e-05,-6.650183073537247e-05,0.0,0.11809445165933397,0.0
27.423000000000002,-0.6947027529643972,0.10017341597460906,1.8539697775574605e-05,-6.691796978433322e-05,0.0,0.11823889805997635,0.0
27.424000000000003,-0.6944879661226023,0.10037846707361142,1.8635714360746643e-05,-6.73366349931579e-05,0.0,0.11838282577819849,0.0
27.425,-0.6942736117361982,0.10058299526118437,1.873221238797225e-05,-6.77578263618465e-05,0.0,0.11852623481400038,0.0
27.426000000000002,-0.6940596898051846,0.10078700053732792,1.8829191857251425e-05,-6.818154389039902e-05,0.0,0.11866912516738201,0.0
27.427,-0.6938462003295618,0.10099048290204206,1.8926652768584173e-05,-6.860778757881545e-05,0.0,0.11881149683834338,0.0
27.428,-0.6936331433093297,0.10119344235532679,1.902459512197049e-05,-6.903655742709581e-05,0.0,0.1189533498268845,0.0
27.429000000000002,-0.6934205187444883,0.10139587889718213,1.9123018917410373e-05,-6.946785343524008e-05,0.0,0.11909468413300538,0.0
27.43,-0.6932083266350375,0.10159779252760806,1.9221924154903826e-05,-6.990167560324828e-05,0.0,0.119235499756706,0.0
27.431,-0.6929965669809774,0.10179918324660459,1.932131083445085e-05,-7.03380239311204e-05,0.0,0.11937579669798636,0.0
27.432000000000002,-0.6927852397823081,0.1020000510541717,1.9421178956051444e-05,-7.077689841885643e-05,0.0,0.11951557495684646,0.0
27.433,-0.6925743450390295,0.10220039595030941,1.9521528519705606e-05,-7.121829906645637e-05,0.0,0.11965483453328632,0.0
27.434,-0.6923638827511415,0.10240021793501772,1.9622359525413336e-05,-7.166222587392023e-05,0.0,0.11979357542730591,0.0
27.435000000000002,-0.6921538529186442,0.10259951700829661,1.972367197317464e-05,-7.2108678841248e-05,0.0,0.11993179763890525,0.0
27.436,-0.6919442555415376,0.1027982931701461,1.982546586298951e-05,-7.25576579684397e-05,0.0,0.12006950116808435,0.0
27.437,-0.6917350906198217,0.1029965464205662,1.992774119485795e-05,-7.300916325549532e-05,0.0,0.12020668601484319,0.0
27.438000000000002,-0.6915263581534965,0.10319427675955689,2.003049796877996e-05,-7.346319470241486e-05,0.0,0.12034335217918177,0.0
27.439,-0.691318058142562,0.10339148418711817,2.013373618475554e-05,-7.391975230919832e-05,0.0,0.1204794996611001,0.0
27.44,-0.6911101905870182,0.10358816870325005,2.0237455842784688e-05,-7.43788360758457e-05,0.0,0.12061512846059817,0.0
27.441000000000003,-0.6909027554868651,0.10378433030795252,2.0341656942867405e-05,-7.484044600235699e-05,0.0,0.120750238577676,0.0
27.442,-0.6906957528421026,0.10397996900122558,2.0446339485003694e-05,-7.53045820887322e-05,0.0,0.12088483001233356,0.0
27.443,-0.6904891826527308,0.10417508478306924,2.055150346919355e-05,-7.577124433497134e-05,0.0,0.12101890276457088,0.0
27.444000000000003,-0.6902830449187498,0.10436967765348348,2.0657148895436978e-05,-7.62404327410744e-05,0.0,0.12115245683438794,0.0
27.445,-0.6900773396401595,0.10456374761246834,2.0763275763733975e-05,-7.671214730704137e-05,0.0,0.12128549222178475,0.0
27.446,-0.6898720668169598,0.10475729466002379,2.0869884074084542e-05,-7.718638803287226e-05,0.0,0.1214180089267613,0.0
27.447000000000003,-0.6896672264491508,0.10495031879614983,2.0976973826488677e-05,-7.766315491856707e-05,0.0,0.1215500069493176,0.0
27.448,-0.6894628185367325,0.10514282002084646,2.108454502094638e-05,-7.814244796412581e-05,0.0,0.12168148628945365,0.0
27.449,-0.689258843079705,0.10533479833411369,2.1192597657457656e-05,-7.862426716954846e-05,0.0,0.12181244694716944,0.0
27.450000000000003,-0.689055300078068,0.10552625373595151,2.13011317360225e-05,-7.910861253483503e-05,0.0,0.12194288892246498,0.0
27.451,-0.6888521895318218,0.10571718622635992,2.1410147256640912e-05,-7.959548405998552e-05,0.0,0.12207281221534026,0.0
27.452,-0.6886495114409663,0.10590759580533893,2.1519644219312897e-05,-8.008488174499993e-05,0.0,0.1222022168257953,0.0
27.453000000000003,-0.6884472658055015,0.10609748247288854,2.162962262403845e-05,-8.057680558987826e-05,0.0,0.12233110275383008,0.0
27.454,-0.6882454526254274,0.10628684622900875,2.174008247081757e-05,-8.107125559462051e-05,0.0,0.1224594699994446,0.0
27.455000000000002,-0.6880440719007439,0.10647568707369955,2.185102375965026e-05,-8.156823175922668e-05,0.0,0.12258731856263887,0.0
27.456000000000003,-0.6878431236314512,0.10666400500696094,2.1962446490536523e-05,-8.206773408369677e-05,0.0,0.12271464844341289,0.0
27.457,-0.6876426078175492,0.10685180002879292,2.2074350663476354e-05,-8.256976256803078e-05,0.0,0.12284145964176665,0.0
27.458000000000002,-0.6874425244590378,0.1070390721391955,2.2186736278469753e-05,-8.30743172122287e-05,0.0,0.12296775215770016,0.0
27.459,-0.6872428735559171,0.10722582133816867,2.2299603335516724e-05,-8.358139801629055e-05,0.0,0.12309352599121341,0.0
27.46,-0.6870436551081871,0.10741204762571244,2.2412951834617263e-05,-8.409100498021632e-05,0.0,0.12321878114230642,0.0
27.461000000000002,-0.6868448691158479,0.10759775100182681,2.252678177577137e-05,-8.4603138104006e-05,0.0,0.12334351761097917,0.0
27.462,-0.6866465155788992,0.10778293146651177,2.2641093158979048e-05,-8.51177973876596e-05,0.0,0.12346773539723166,0.0
27.463,-0.6864485944973413,0.10796758901976733,2.2755885984240297e-05,-8.563498283117711e-05,0.0,0.1235914345010639,0.0
27.464000000000002,-0.6862511058711741,0.10815172366159348,2.2871160251555114e-05,-8.615469443455854e-05,0.0,0.12371461492247589,0.0
27.465,-0.6860540497003976,0.10833533539199022,2.29869159609235e-05,-8.667693219780389e-05,0.0,0.12383727666146763,0.0
27.466,-0.6858574259850118,0.10851842421095756,2.3103153112345453e-05,-8.720169612091316e-05,0.0,0.1239594197180391,0.0
27.467000000000002,-0.6856612347250166,0.10870099011849549,2.321987170582098e-05,-8.772898620388635e-05,0.0,0.12408104409219033,0.0
27.468,-0.6854654759204122,0.10888303311460402,2.3337071741350074e-05,-8.825880244672346e-05,0.0,0.1242021497839213,0.0
27.469,-0.6852701495711985,0.10906455319928315,2.3454753218932737e-05,-8.879114484942449e-05,0.0,0.12432273679323202,0.0
27.470000000000002,-0.6850752556773754,0.10924555037253288,2.3572916138568972e-05,-8.932601341198943e-05,0.0,0.12444280512012248,0.0
27.471,-0.684880794238943,0.10942602463435319,2.3691560500258776e-05,-8.98634081344183e-05,0.0,0.1245623547645927,0.0
27.472,-0.6846867652559013,0.1096059759847441,2.3810686304002148e-05,-9.040332901671109e-05,0.0,0.12468138572664265,0.0
27.473000000000003,-0.6844931687282504,0.1097854044237056,2.393029354979909e-05,-9.09457760588678e-05,0.0,0.12479989800627236,0.0
27.474,-0.6843000046559901,0.1099643099512377,2.40503822376496e-05,-9.149074926088842e-05,0.0,0.12491789160348181,0.0
27.475,-0.6841072730391204,0.11014269256734038,2.4170952367553683e-05,-9.203824862277297e-05,0.0,0.12503536651827102,0.0
27.476000000000003,-0.6839149738776416,0.11032055227201368,2.4292003939511332e-05,-9.258827414452143e-05,0.0,0.12515232275063998,0.0
27.477,-0.6837231071715534,0.11049788906525757,2.4413536953522554e-05,-9.314082582613381e-05,0.0,0.12526876030058867,0.0
27.478,-0.6835316729208558,0.11067470294707205,2.4535551409587344e-05,-9.369590366761012e-05,0.0,0.12538467916811713,0.0
27.479000000000003,-0.683340671125549,0.11085099391745712,2.4658047307705703e-05,-9.425350766895034e-05,0.0,0.12550007935322532,0.0
27.48,-0.6831501017856328,0.11102676197641279,2.478102464787763e-05,-9.481363783015449e-05,0.0,0.12561496085591325,0.0
27.481,-0.6829599649011074,0.11120200712393905,2.490448343010313e-05,-9.537629415122255e-05,0.0,0.12572932367618095,0.0
27.482000000000003,-0.6827702604719726,0.1113767293600359,2.5028423654382197e-05,-9.594147663215453e-05,0.0,0.12584316781402838,0.0
27.483,-0.6825809884982286,0.11155092868470334,2.5152845320714833e-05,-9.650918527295043e-05,0.0,0.12595649326945557,0.0
27.484,-0.6823921489798752,0.1117246050979414,2.5277748429101038e-05,-9.707942007361025e-05,0.0,0.1260693000424625,0.0
27.485000000000003,-0.6822037419169126,0.11189775859975004,2.5403132979540815e-05,-9.765218103413399e-05,0.0,0.12618158813304917,0.0
27.486,-0.6820157673093405,0.11207038919012928,2.552899897203416e-05,-9.822746815452165e-05,0.0,0.1262933575412156,0.0
27.487000000000002,-0.6818282251571592,0.11224249686907911,2.5655346406581074e-05,-9.880528143477323e-05,0.0,0.12640460826696176,0.0
27.488,-0.6816411154603687,0.11241408163659954,2.578217528318156e-05,-9.938562087488873e-05,0.0,0.12651534031028766,0.0
27.489,-0.6814544382189688,0.11258514349269055,2.5909485601835614e-05,-9.996848647486815e-05,0.0,0.12662555367119332,0.0
27.490000000000002,-0.6812681934329595,0.11275568243735216,2.6037277362543237e-05,-0.00010055387823471149,0.0,0.12673524834967873,0.0
27.491,-0.681082381102341,0.11292569847058437,2.6165550565304428e-05,-0.00010114179615441874,0.0,0.12684442434574386,0.0
27.492,-0.6808970012271132,0.11309519159238718,2.629430521011919e-05,-0.00010173224023398992,0.0,0.12695308165938876,0.0
27.493000000000002,-0.680712053807276,0.11326416180276058,2.6423541296987523e-05,-0.000102325210473425,0.0,0.1270612202906134,0.0
27.494,-0.6805275388428295,0.11343260910170458,2.6553258825909423e-05,-0.00010292070687272401,0.0,0.1271688402394178,0.0
27.495,-0.6803434563337737,0.11360053348921917,2.6683457796884896e-05,-0.00010351872943188693,0.0,0.12727594150580193,0.0
27.496000000000002,-0.6801598062801086,0.11376793496530435,2.6814138209913936e-05,-0.00010411927815091377,0.0,0.1273825240897658,0.0
27.497,-0.6799765886818342,0.11393481352996013,2.6945300064996546e-05,-0.00010472235302980453,0.0,0.12748858799130944,0.0
27.498,-0.6797938035389505,0.1141011691831865,2.7076943362132724e-05,-0.00010532795406855921,0.0,0.1275941332104328,0.0
27.499000000000002,-0.6796114508514575,0.11426700192498346,2.7209068101322473e-05,-0.00010593608126717781,0.0,0.12769915974713592,0.0
27.5,-0.6794295306193552,0.11443231175535103,2.7341674282565792e-05,-0.00010654673462566033,0.0,0.12780366760141879,0.0
27.501,-0.6792480428426435,0.11459709867428919,2.747476190586268e-05,-0.00010715991414400677,0.0,0.1279076567732814,0.0
27.502000000000002,-0.6790669875213226,0.11476136268179794,2.7608330971213137e-05,-0.00010777561982221713,0.0,0.12801112726272376,0.0
27.503,-0.6788863646553923,0.11492510377787729,2.7742381478617165e-05,-0.0001083938516602914,0.0,0.12811407906974587,0.0
27.504,-0.6787061742448528,0.11508832196252723,2.787691342807476e-05,-0.0001090146096582296,0.0,0.1282165121943477,0.0
27.505000000000003,-0.6785264162897039,0.11525101723574777,2.8011926819585925e-05,-0.00010963789381603172,0.0,0.12831842663652931,0.0
27.506,-0.6783470907899457,0.11541318959753889,2.814742165315066e-05,-0.00011026370413369776,0.0,0.12841982239629066,0.0
27.507,-0.6781681977455782,0.11557483904790061,2.8283397928768966e-05,-0.00011089204061122771,0.0,0.12852069947363173,0.0
27.508000000000003,-0.6779897371566015,0.11573596558683294,2.841985564644084e-05,-0.00011152290324862159,0.0,0.12862105786855257,0.0
27.509,-0.6778117090230154,0.11589656921433586,2.8556794806166285e-05,-0.00011215629204587938,0.0,0.12872089758105315,0.0
27.51,-0.6776341133448199,0.11605664993040937,2.86942154079453e-05,-0.0001127922070030011,0.0,0.1288202186111335,0.0
27.511000000000003,-0.6774569501220152,0.11621620773505348,2.883211745177788e-05,-0.00011343064811998673,0.0,0.12891902095879357,0.0
27.512,-0.6772802193546013,0.11637524262826818,2.8970500937664033e-05,-0.00011407161539683629,0.0,0.12901730462403338,0.0
27.513,-0.6771039210425779,0.11653375461005347,2.9109365865603755e-05,-0.00011471510883354976,0.0,0.12911506960685296,0.0
27.514000000000003,-0.6769280551859452,0.11669174368040935,2.9248712235597047e-05,-0.00011536112843012715,0.0,0.12921231590725227,0.0
27.515,-0.6767526217847033,0.11684920983933583,2.9388540047643907e-05,-0.00011600967418656846,0.0,0.12930904352523132,0.0
27.516000000000002,-0.6765776208388521,0.11700615308683292,2.9528849301744335e-05,-0.0001166607461028737,0.0,0.12940525246079013,0.0
27.517000000000003,-0.6764030523483915,0.1171625734229006,2.9669639997898336e-05,-0.00011731434417904285,0.0,0.12950094271392867,0.0
27.518,-0.6762289163133216,0.11731847084753887,2.9810912136105905e-05,-0.00011797046841507592,0.0,0.12959611428464698,0.0
27.519000000000002,-0.6760552127336424,0.11747384536074773,2.9952665716367042e-05,-0.0001186291188109729,0.0,0.12969076717294503,0.0
27.52,-0.675881941609354,0.11762869696252719,3.0094900738681752e-05,-0.00011929029536673382,0.0,0.12978490137882281,0.0
27.521,-0.6757091029404562,0.11778302565287724,3.023761720305003e-05,-0.00011995399808235864,0.0,0.12987851690228036,0.0
27.522000000000002,-0.675536696726949,0.11793683143179788,3.0380815109471876e-05,-0.0001206202269578474,0.0,0.12997161374331764,0.0
27.523,-0.6753647229688327,0.11809011429928912,3.052449445794729e-05,-0.00012128898199320006,0.0,0.13006419190193466,0.0
27.524,-0.675193181666107,0.11824287425535096,3.066865524847628e-05,-0.00012196026318841665,0.0,0.13015625137813144,0.0
27.525000000000002,-0.6750220728187719,0.1183951112999834,3.0813297481058834e-05,-0.00012263407054349714,0.0,0.13024779217190796,0.0
27.526,-0.6748513964268276,0.11854682543318643,3.095842115569496e-05,-0.00012331040405844156,0.0,0.13033881428326424,0.0
27.527,-0.6746811524902739,0.11869801665496005,3.110402627238465e-05,-0.0001239892637332499,0.0,0.13042931771220026,0.0
27.528000000000002,-0.674511341009111,0.11884868496530426,3.125011283112791e-05,-0.00012467064956792214,0.0,0.130519302458716,0.0
27.529,-0.6743419619833387,0.11899883036421907,3.139668083192475e-05,-0.0001253545615624583,0.0,0.13060876852281153,0.0
27.53,-0.6741730154129572,0.11914845285170447,3.154373027477515e-05,-0.0001260409997168584,0.0,0.13069771590448678,0.0
27.531000000000002,-0.6740045012979663,0.11929755242776047,3.169126115967913e-05,-0.0001267299640311224,0.0,0.13078614460374177,0.0
27.532,-0.6738364196383662,0.11944612909238707,3.183927348663667e-05,-0.00012742145450525034,0.0,0.13087405462057652,0.0
27.533,-0.6736687704341566,0.11959418284558426,3.198776725564778e-05,-0.0001281154711392422,0.0,0.130961445954991,0.0
27.534000000000002,-0.6735015536853378,0.11974171368735205,3.213674246671246e-05,-0.00012881201393309796,0.0,0.13104831860698526,0.0
27.535,-0.6733347693919097,0.11988872161769043,3.2286199119830706e-05,-0.00012951108288681765,0.0,0.13113467257655925,0.0
27.536,-0.6731684175538724,0.1200352066365994,3.243613721500253e-05,-0.00013021267800040126,0.0,0.13122050786371298,0.0
27.537000000000003,-0.6730024981712256,0.12018116874407897,3.258655675222792e-05,-0.00013091679927384878,0.0,0.13130582446844646,0.0
27.538,-0.6728370112439696,0.12032660794012913,3.273745773150688e-05,-0.00013162344670716023,0.0,0.1313906223907597,0.0
27.539,-0.6726719567721042,0.12047152422474988,3.288884015283941e-05,-0.0001323326203003356,0.0,0.13147490163065265,0.0
27.540000000000003,-0.6725073347556296,0.12061591759794124,3.304070401622551e-05,-0.00013304432005337488,0.0,0.13155866218812537,0.0
27.541,-0.6723431451945456,0.1207597880597032,3.319304932166517e-05,-0.0001337585459662781,0.0,0.13164190406317783,0.0
27.542,-0.6721793880888524,0.12090313561003574,3.334587606915841e-05,-0.00013447529803904521,0.0,0.13172462725581002,0.0
27.543000000000003,-0.6720160634385498,0.12104596024893888,3.3499184258705216e-05,-0.00013519457627167626,0.0,0.13180683176602198,0.0
27.544,-0.671853171243638,0.12118826197641261,3.3652973890305595e-05,-0.00013591638066417122,0.0,0.13188851759381368,0.0
27.545,-0.6716907115041167,0.12133004079245693,3.380724496395954e-05,-0.0001366407112165301,0.0,0.13196968473918513,0.0
27.546000000000003,-0.6715286842199862,0.12147129669707185,3.3961997479667056e-05,-0.0001373675679287529,0.0,0.13205033320213633,0.0
27.547,-0.6713670893912465,0.12161202969025736,3.411723143742814e-05,-0.00013809695080083963,0.0,0.13213046298266726,0.0
27.548000000000002,-0.6712059270178974,0.12175223977201348,3.427294683724279e-05,-0.00013882885983279027,0.0,0.13221007408077795,0.0
27.549000000000003,-0.6710451970999389,0.12189192694234019,3.442914367911101e-05,-0.00013956329502460484,0.0,0.13228916649646838,0.0
27.55,-0.6708848996373712,0.1220310912012375,3.45858219630328e-05,-0.00014030025637628332,0.0,0.13236774022973855,0.0
27.551000000000002,-0.6707250346301942,0.12216973254870539,3.474298168900817e-05,-0.00014103974388782572,0.0,0.13244579528058847,0.0
27.552,-0.6705656020784079,0.12230785098474388,3.49006228570371e-05,-0.00014178175755923204,0.0,0.13252333164901814,0.0
27.553,-0.6704066019820122,0.12244544650935296,3.50587454671196e-05,-0.00014252629739050228,0.0,0.13260034933502757,0.0
27.554000000000002,-0.6702480343410072,0.12258251912253264,3.521734951925567e-05,-0.00014327336338163644,0.0,0.13267684833861673,0.0
27.555,-0.670089899155393,0.1227190688242829,3.537643501344531e-05,-0.00014402295553263451,0.0,0.13275282865978563,0.0
27.556,-0.6699321964251694,0.12285509561460378,3.553600194968852e-05,-0.0001447750738434965,0.0,0.1328282902985343,0.0
27.557000000000002,-0.6697749261503365,0.12299059949349525,3.5696050327985294e-05,-0.00014552971831422243,0.0,0.1329032332548627,0.0
27.558,-0.6696180883308943,0.12312558046095731,3.5856580148335646e-05,-0.00014628688894481227,0.0,0.13297765752877083,0.0
27.559,-0.6694616829668428,0.12326003851698997,3.6017591410739565e-05,-0.00014704658573526602,0.0,0.13305156312025873,0.0
27.560000000000002,-0.6693057100581821,0.12339397366159321,3.6179084115197054e-05,-0.0001478088086855837,0.0,0.13312495002932637,0.0
27.561,-0.6691501696049119,0.12352738589476706,3.634105826170811e-05,-0.0001485735577957653,0.0,0.13319781825597377,0.0
27.562,-0.6689950616070325,0.12366027521651149,3.6503513850272736e-05,-0.0001493408330658108,0.0,0.1332701678002009,0.0
27.563000000000002,-0.6688403860645438,0.12379264162682652,3.666645088089093e-05,-0.00015011063449572024,0.0,0.13334199866200777,0.0
27.564,-0.6686861429774458,0.12392448512571215,3.682986935356269e-05,-0.0001508829620854936,0.0,0.1334133108413944,0.0
27.565,-0.6685323323457384,0.12405580571316838,3.699376926828803e-05,-0.00015165781583513087,0.0,0.13348410433836078,0.0
27.566000000000003,-0.6683789541694217,0.1241866033891952,3.7158150625066936e-05,-0.00015243519574463206,0.0,0.13355437915290688,0.0
27.567,-0.6682260084484958,0.12431687815379261,3.732301342389941e-05,-0.00015321510181399718,0.0,0.13362413528503275,0.0
27.568,-0.6680734951829606,0.12444663000696062,3.7488357664785454e-05,-0.0001539975340432262,0.0,0.13369337273473836,0.0
27.569000000000003,-0.6679214143728159,0.12457585894869921,3.7654183347725066e-05,-0.00015478249243231916,0.0,0.13376209150202373,0.0
27.57,-0.667769766018062,0.1247045649790084,3.782049047271825e-05,-0.00015556997698127603,0.0,0.13383029158688883,0.0
27.571,-0.6676185501186989,0.12483274809788819,3.7987279039764996e-05,-0.0001563599876900968,0.0,0.13389797298933367,0.0
27.572000000000003,-0.6674677666747264,0.12496040830533858,3.815454904886532e-05,-0.00015715252455878148,0.0,0.13396513570935828,0.0
27.573,-0.6673174156861446,0.12508754560135957,3.832230050001921e-05,-0.00015794758758733008,0.0,0.13403177974696262,0.0
27.574,-0.6671674971529534,0.12521415998595115,3.8490533393226674e-05,-0.0001587451767757426,0.0,0.1340979051021467,0.0
27.575000000000003,-0.667018011075153,0.12534025145911332,3.8659247728487704e-05,-0.00015954529212401904,0.0,0.13416351177491054,0.0
27.576,-0.6668689574527433,0.1254658200208461,3.88284435058023e-05,-0.0001603479336321594,0.0,0.13422859976525411,0.0
27.577,-0.6667203362857242,0.1255908656711495,3.899812072517047e-05,-0.00016115310130016369,0.0,0.13429316907317745,0.0
27.578000000000003,-0.6665721475740959,0.12571538841002347,3.9168279386592205e-05,-0.00016196079512803189,0.0,0.13435721969868053,0.0
27.579,-0.6664243913178582,0.12583938823746804,3.9338919490067516e-05,-0.000162771015115764,0.0,0.13442075164176334,0.0
27.580000000000002,-0.6662770675170113,0.1259628651534832,3.9510041035596395e-05,-0.00016358376126336004,0.0,0.13448376490242592,0.0
27.581000000000003,-0.666130176171555,0.12608581915806896,3.968164402317884e-05,-0.00016439903357082,0.0,0.13454625948066823,0.0
27.582,-0.6659837172814894,0.1262082502512253,3.985372845281486e-05,-0.00016521683203814388,0.0,0.13460823537649028,0.0
27.583000000000002,-0.6658376908468145,0.12633015843295226,4.0026294324504445e-05,-0.00016603715666533168,0.0,0.1346696925898921,0.0
27.584,-0.6656920968675304,0.1264515437032498,4.01993416382476e-05,-0.0001668600074523834,0.0,0.13473063112087363,0.0
27.585,-0.6655469353436368,0.12657240606211792,4.037287039404432e-05,-0.00016768538439929903,0.0,0.13479105096943494,0.0
27.586000000000002,-0.665402206275134,0.12669274550955664,4.054688059189462e-05,-0.0001685132875060786,0.0,0.134850952135576,0.0
27.587,-0.6652579096620219,0.12681256204556596,4.0721372231798484e-05,-0.00016934371677272206,0.0,0.13491033461929677,0.0
27.588,-0.6651140455043005,0.12693185567014587,4.089634531375592e-05,-0.00017017667219922946,0.0,0.13496919842059732,0.0
27.589000000000002,-0.6649706138019698,0.12705062638329637,4.107179983776692e-05,-0.00017101215378560077,0.0,0.1350275435394776,0.0
27.59,-0.6648276145550297,0.12716887418501746,4.124773580383149e-05,-0.000171850161531836,0.0,0.13508536997593762,0.0
27.591,-0.6646850477634804,0.12728659907530918,4.142415321194963e-05,-0.00017269069543793516,0.0,0.1351426777299774,0.0
27.592000000000002,-0.6645429134273216,0.12740380105417148,4.160105206212134e-05,-0.00017353375550389823,0.0,0.13519946680159692,0.0
27.593,-0.6644012115465536,0.12752048012160438,4.1778432354346625e-05,-0.00017437934172972522,0.0,0.13525573719079617,0.0
27.594,-0.6642599421211763,0.12763663627760788,4.195629408862548e-05,-0.00017522745411541614,0.0,0.1353114888975752,0.0
27.595000000000002,-0.6641191051511898,0.12775226952218197,4.21346372649579e-05,-0.00017607809266097097,0.0,0.13536672192193394,0.0
27.596,-0.6639787006365938,0.12786737985532665,4.231346188334389e-05,-0.00017693125736638972,0.0,0.13542143626387246,0.0
27.597,-0.6638387285773886,0.12798196727704192,4.2492767943783446e-05,-0.0001777869482316724,0.0,0.1354756319233907,0.0
27.598000000000003,-0.663699188973574,0.12809603178732779,4.267255544627657e-05,-0.00017864516525681898,0.0,0.1355293089004887,0.0
27.599,-0.6635600818251502,0.12820957338618424,4.285282439082327e-05,-0.0001795059084418295,0.0,0.13558246719516645,0.0
27.6,-0.6634214071321171,0.1283225920736113,4.303357477742353e-05,-0.00018036917778670392,0.0,0.13563510680742394,0.0
27.601000000000003,-0.6632831648944746,0.12843508784960894,4.321480660607737e-05,-0.00018123497329144227,0.0,0.13568722773726116,0.0
27.602,-0.6631453551122228,0.12854706071417718,4.339651987678478e-05,-0.00018210329495604453,0.0,0.13573882998467815,0.0
27.603,-0.6630079777853618,0.128658510667316,4.3578714589545755e-05,-0.00018297414278051072,0.0,0.13578991354967487,0.0
27.604000000000003,-0.6628710329138914,0.12876943770902544,4.37613907443603e-05,-0.00018384751676484083,0.0,0.13584047843225136,0.0
27.605,-0.6627345204978117,0.12887984183930545,4.394454834122841e-05,-0.00018472341690903486,0.0,0.13589052463240758,0.0
27.606,-0.6625984405371227,0.12898972305815606,4.4128187380150094e-05,-0.0001856018432130928,0.0,0.13594005215014354,0.0
27.607000000000003,-0.6624627930318244,0.1290990813655773,4.4312307861125344e-05,-0.00018648279567701467,0.0,0.13598906098545926,0.0
27.608,-0.6623275779819168,0.12920791676156912,4.449690978415417e-05,-0.00018736627430080045,0.0,0.13603755113835472,0.0
27.609,-0.6621927953873998,0.12931622924613154,4.4681993149236564e-05,-0.00018825227908445016,0.0,0.13608552260882992,0.0
27.610000000000003,-0.6620584452482736,0.12942401881926455,4.486755795637253e-05,-0.00018914081002796378,0.0,0.13613297539688488,0.0
27.611,-0.6619245275645381,0.12953128548096815,4.505360420556206e-05,-0.00019003186713134132,0.0,0.13617990950251957,0.0
27.612000000000002,-0.6617910423361932,0.12963802923124235,4.524013189680516e-05,-0.0001909254503945828,0.0,0.13622632492573403,0.0
27.613,-0.6616579895632391,0.12974425007008714,4.5427141030101826e-05,-0.00019182155981768817,0.0,0.13627222166652822,0.0
