marzuk-umich/fetch_joint_controls/test/kaInterpolated.csv
ka_interp_joint_1,ka_interp_joint_2,ka_interp_joint_3,ka_interp_joint_4,ka_interp_joint_5,ka_interp_joint_6
0.130899532904973,0.13089349410714013,-2.4559121995217212e-05,-0.002327350289263533,0.0,0.13085209412931745
0.1308995255550314,0.1308933692705929,-2.2722903815738573e-05,-0.0021894073267940462,0.0,0.12834788170430209
0.13089951820508977,0.13089324443404565,-2.0886685636259935e-05,-0.002051464364324559,0.0,0.12584366927928675
0.13089951085514817,0.13089311959749844,-1.90504674567813e-05,-0.0019135214018550723,0.0,0.1233394568542714
0.13089950350520654,0.1308929947609512,-1.7214249277302662e-05,-0.001775578439385585,0.0,0.12083524442925606
0.13089949615526494,0.13089286992440397,-1.5378031097824024e-05,-0.0016376354769160983,0.0,0.1183310320042407
0.13089948880532334,0.13089274508785673,-1.3541812918345387e-05,-0.0014996925144466116,0.0,0.11582681957922535
0.13089948145538172,0.13089262025130952,-1.1705594738866749e-05,-0.0013617495519771244,0.0,0.11332260715421
0.13089947410544012,0.13089249541476228,-9.86937655938811e-06,-0.0012238065895076374,0.0,0.11081839472919465
0.1308994667554985,0.13089237057821504,-8.033158379909474e-06,-0.0010858636270381506,0.0,0.1083141823041793
0.1308994594055569,0.1308922457416678,-6.196940200430836e-06,-0.0009479206645686637,0.0,0.10580996987916395
0.1308994520556153,0.1308921209051206,-4.3607220209521975e-06,-0.0008099777020991767,0.0,0.1033057574541486
0.13089944470567366,0.13089199606857335,-2.5245038414735626e-06,-0.0006720347396296899,0.0,0.10080154502913326
0.13089943735573206,0.1308918712320261,-6.882856619949243e-07,-0.0005340917771602029,0.0,0.09829733260411791
0.13089943000579043,0.13089174639547888,1.147932517483714e-06,-0.00039614881469071596,0.0,0.09579312017910255
0.13089942265584883,0.13089162155893166,2.9841506969623523e-06,-0.000258205852221229,0.0,0.0932889077540872
0.13089941530590724,0.13089149672238443,4.8203688764409906e-06,-0.00012026288975174179,0.0,0.09078469532907185
0.1308994079559656,0.1308913718858372,6.656587055919629e-06,1.768007271774454e-05,0.0,0.0882804829040565
0.130899400606024,0.13089124704928995,8.492805235398264e-06,0.00015562303518723173,0.0,0.08577627047904116
0.13089939325608238,0.13089112221274274,1.0329023414876899e-05,0.0002935659976567185,0.0,0.08327205805402581
0.13089938590614078,0.1308909973761955,1.216524159435554e-05,0.0004315089601262057,0.0,0.08076784562901046
0.13089937855619918,0.13089087253964826,1.4001459773834175e-05,0.0005694519225956924,0.0,0.0782636332039951
0.13089937120625755,0.13089074770310102,1.5837677953312817e-05,0.0007073948850651796,0.0,0.07575942077897975
0.13089936385631595,0.1308906228665538,1.7673896132791452e-05,0.0008453378475346664,0.0,0.0732552083539644
0.13089935650637433,0.13089049803000657,1.9510114312270087e-05,0.0009832808100041532,0.0,0.07075099592894907
0.13089934915643273,0.13089037319345934,2.134633249174873e-05,0.0011212237724736404,0.0,0.0682467835039337
0.13089934180649113,0.1308902483569121,2.3182550671227363e-05,0.0012591667349431271,0.0,0.06574257107891836
0.1308993344565495,0.1308901235203649,2.5018768850706005e-05,0.0013971096974126143,0.0,0.06323835865390301
0.1308993271066079,0.13088999868381765,2.685498703018464e-05,0.001535052659882101,0.0,0.06073414622888766
0.13089931975666627,0.1308898738472704,2.869120520966328e-05,0.0016729956223515887,0.0,0.0582299338038723
0.13089931240672467,0.13088974901072317,3.0527423389141916e-05,0.001810938584821075,0.0,0.05572572137885695
0.13089930505678307,0.13088962417417596,3.236364156862056e-05,0.0019488815472905622,0.0,0.053221508953841604
0.13089929770684144,0.13088949933762872,3.419985974809919e-05,0.0020868245097600494,0.0,0.050717296528826256
0.13089929035689984,0.13088937450108148,3.603607792757783e-05,0.0022247674722295357,0.0,0.04821308410381091
0.13089928300695822,0.13088924966453425,3.787229610705647e-05,0.002362710434699022,0.0,0.04570887167879556
0.13089927565701662,0.13088912482798704,3.9708514286535104e-05,0.00250065339716851,0.0,0.0432046592537802
0.13089926830707502,0.1308889999914398,4.154473246601374e-05,0.0026385963596379965,0.0,0.040700446828764864
0.1308992609571334,0.13088887515489256,4.3380950645492374e-05,0.0027765393221074837,0.0,0.038196234403749516
0.1308992536071918,0.13088875031834532,4.521716882497101e-05,0.00291448228457697,0.0,0.03569202197873417
0.1308992462572502,0.1308886254817981,4.705338700444966e-05,0.003052425247046458,0.0,0.033187809553718806
0.13089923890730856,0.13088850064525087,4.888960518392829e-05,0.0031903682095159444,0.0,0.030683597128703458
0.13089923155736696,0.13088837580870363,5.072582336340693e-05,0.0033283111719854316,0.0,0.02817938470368811
0.13089922420742534,0.1308882509721564,5.256204154288556e-05,0.003466254134454918,0.0,0.02567517227867276
0.13089921685748374,0.13088812613560918,5.43982597223642e-05,0.003604197096924405,0.0,0.023170959853657414
0.13089920950754214,0.13088800129906195,5.6234477901842845e-05,0.0037421400593938923,0.0,0.02066674742864205
0.1308992021576005,0.1308878764625147,5.807069608132148e-05,0.0038800830218633795,0.0,0.018162535003626704
0.1308991948076589,0.13088775162596747,5.9906914260800115e-05,0.004018025984332866,0.0,0.01565832257861137
0.13089918745771728,0.13088762678942026,6.174313244027875e-05,0.004155968946802353,0.0,0.013154110153596021
0.13089918010777568,0.13088750195287302,6.357935061975739e-05,0.004293911909271839,0.0,0.010649897728580673
0.13089917275783408,0.13088737711632578,6.541556879923603e-05,0.004431854871741327,0.0,0.008145685303565312
0.13089916540789245,0.13088725227977854,6.725178697871467e-05,0.004569797834210814,0.0,0.0056414728785499635
0.13089915805795085,0.13088712744323133,6.90880051581933e-05,0.004707740796680301,0.0,0.0031372604535346293
0.12934649886898528,0.12708991963536237,5.864405173393874e-05,0.004622154126650686,0.0,0.0005658124301402888
0.12725844249414936,0.12198337287186518,4.3965556377362195e-05,0.00445948827300069,0.0,-0.002028820282350246
0.12517038611931344,0.11687682610836804,2.928706102078576e-05,0.004296822419350694,0.0,-0.004623452994840762
0.12308232974447753,0.1117702793448709,1.4608565664209327e-05,0.004134156565700699,0.0,-0.0072180857073312794
0.12099427336964161,0.10666373258137374,-6.992969236710629e-08,0.0039714907120507025,0.0,-0.009812718419821795
0.1189062169948057,0.1015571858178766,-1.4748425048943554e-05,0.003808824858400707,0.0,-0.012407351132312313
0.11681816061996977,0.09645063905437941,-2.9426920405520082e-05,0.0036461590047507106,0.0,-0.015001983844802846
0.11473010424513386,0.09134409229088226,-4.4105415762096516e-05,0.0034834931511007147,0.0,-0.017596616557293363
0.11264204787029795,0.0862375455273851,-5.878391111867296e-05,0.003320827297450719,0.0,-0.02019124926978388
0.11055399149546204,0.08113099876388796,-7.34624064752494e-05,0.003158161443800723,0.0,-0.022785881982274395
0.10846593512062612,0.07602445200039079,-8.814090183182594e-05,0.002995495590150727,0.0,-0.02538051469476493
0.1063778787457902,0.07091790523689363,-0.00010281939718840237,0.0028328297365007313,0.0,-0.027975147407255447
0.1042898223709543,0.06581135847339649,-0.0001174978925449788,0.0026701638828507354,0.0,-0.03056978011974596
0.10220176599611838,0.060704811709899345,-0.00013217638790155524,0.00250749802920074,0.0,-0.03316441283223648
0.10011370962128247,0.05559826494640219,-0.00014685488325813167,0.002344832175550744,0.0,-0.035759045544726996
0.09802565324644655,0.05049171818290504,-0.0001615333786147081,0.0021821663219007484,0.0,-0.03835367825721751
0.09593759687161064,0.0453851714194079,-0.00017621187397128457,0.002019500468250753,0.0,-0.04094831096970803
0.09384954049677471,0.04027862465591067,-0.0001908903693278612,0.0018568346146007548,0.0,-0.04354294368219858
0.0917614841219388,0.03517207789241353,-0.0002055688646844376,0.0016941687609507592,0.0,-0.0461375763946891
0.08967342774710288,0.030065531128916384,-0.00022024736004101406,0.0015315029073007633,0.0,-0.04873220910717961
0.08758537137226696,0.024958984365419226,-0.00023492585539759052,0.0013688370536507678,0.0,-0.05132684181967013
0.08549731499743106,0.019852437601922082,-0.0002496043507541669,0.0012061712000007723,0.0,-0.053921474532160646
0.08340925862259514,0.014745890838424938,-0.0002642828461107434,0.0010435053463507763,0.0,-0.05651610724465116
0.08132120224775924,0.00963934407492778,-0.0002789613414673198,0.0008808394927007808,0.0,-0.05911073995714168
0.07923314587292332,0.004532797311430636,-0.00029363983682389625,0.0007181736390507853,0.0,-0.06170537266963219
0.0771450894980874,-0.0005737494520665076,-0.00030831833218047266,0.0005555077854007898,0.0,-0.06430000538212272
0.07505703312325146,-0.005680296215563735,-0.00032299682753704934,0.00039284193175079165,0.0,-0.06689463809461327
0.07296897674841556,-0.010786842979060879,-0.00033767532289362575,0.00023017607810079613,0.0,-0.06948927080710378
0.07088092037357965,-0.015893389742558023,-0.0003523538182502022,6.751022445080062e-05,0.0,-0.0720839035195943
0.06879286399874374,-0.020999936506055167,-0.0003670323136067786,-9.515562919919576e-05,0.0,-0.07467853623208481
0.06670480762390782,-0.02610648326955231,-0.0003817108089633551,-0.0002578214828491913,0.0,-0.07727316894457534
0.06461675124907192,-0.031213030033049483,-0.0003963893043199315,-0.0004204873364991868,0.0,-0.07986780165706585
0.062528694874236,-0.036319576796546627,-0.00041106779967650794,-0.0005831531901491823,0.0,-0.08246243436955636
0.06044063849940008,-0.04142612356004377,-0.00042574629503308435,-0.0007458190437991778,0.0,-0.08505706708204688
0.05835258212456418,-0.046532670323540914,-0.0004404247903896608,-0.0009084848974491733,0.0,-0.0876516997945374
0.056264525749728234,-0.05163921708703814,-0.0004551032857462375,-0.0010711507510991715,0.0,-0.09024633250702795
0.054176469374892317,-0.056745763850535286,-0.00046978178110281384,-0.001233816604749167,0.0,-0.09284096521951847
0.05208841300005641,-0.06185231061403243,-0.0004844602764593903,-0.0013964824583991634,0.0,-0.09543559793200898
0.050000356625220496,-0.06695885737752957,-0.0004991387718159667,-0.0015591483120491589,0.0,-0.0980302306444995
0.04791230025038459,-0.07206540414102672,-0.0005138172671725432,-0.0017218141656991544,0.0,-0.10062486335699002
0.045824243875548676,-0.07717195090452389,-0.0005284957625291196,-0.00188448001934915,0.0,-0.10321949606948053
0.04373618750071276,-0.08227849766802103,-0.0005431742578856961,-0.0020471458729991454,0.0,-0.10581412878197105
0.041648131125876856,-0.08738504443151818,-0.0005578527532422725,-0.002209811726649141,0.0,-0.10840876149446156
0.03956007475104094,-0.09249159119501532,-0.000572531248598849,-0.0023724775802991373,0.0,-0.11100339420695209
0.037472018376205035,-0.09759813795851247,-0.0005872097439554255,-0.002535143433949133,0.0,-0.1135980269194426
0.03538396200136909,-0.10270468472200969,-0.0006018882393120019,-0.002697809287599131,0.0,-0.11619265963193315
0.03329590562653317,-0.10781123148550684,-0.0006165667346685784,-0.0028604751412491265,0.0,-0.11878729234442367
0.03120784925169727,-0.11291777824900398,-0.0006312452300251549,-0.003023140994899122,0.0,-0.12138192505691418
0.029119792876861353,-0.11802432501250112,-0.0006459237253817313,-0.0031858068485491175,0.0,-0.12397655776940471
0.027031736502025436,-0.1231308717759983,-0.0006606022207383078,-0.003348472702199113,0.0,-0.1265711904818952
0.024943680127189533,-0.12823741853949544,-0.0006752807160948842,-0.0035111385558491085,0.0,-0.12916582319438571
0.020930738610577457,-0.13085680934565122,-0.0006702560159308304,-0.0035491874003899648,0.0,-0.12928316463940234
0.014891602207885147,-0.13085814124934228,-0.0006444911099555862,-0.0034560604458685634,0.0,-0.12679283106602535
0.008852465805192836,-0.13085947315303337,-0.000618726203980342,-0.003362933491347162,0.0,-0.12430249749264836
0.0028133294025004425,-0.13086080505672443,-0.0005929612980050974,-0.0032698065368257593,0.0,-0.12181216391927133
-0.003225807000191868,-0.13086213696041551,-0.0005671963920298533,-0.003176679582304358,0.0,-0.11932183034589433
-0.009264943402884179,-0.13086346886410657,-0.0005414314860546091,-0.0030835526277829565,0.0,-0.11683149677251733
-0.01530407980557649,-0.13086480076779766,-0.0005156665800793649,-0.0029904256732615547,0.0,-0.11434116319914034
-0.0213432162082688,-0.13086613267148872,-0.0004899016741041207,-0.0028972987187401533,0.0,-0.11185082962576334
-0.02738235261096111,-0.1308674645751798,-0.00046413676812887656,-0.002804171764218752,0.0,-0.10936049605238635
-0.033421489013653424,-0.13086879647887087,-0.00043837186215363235,-0.0027110448096973505,0.0,-0.10687016247900935
-0.039460625416345735,-0.13087012838256196,-0.0004126069561783882,-0.002617917855175949,0.0,-0.10437982890563235
-0.045499761819038045,-0.13087146028625302,-0.000386842050203144,-0.0025247909006545473,0.0,-0.10188949533225536
-0.05153889822173044,-0.1308727921899441,-0.00036107714422789944,-0.0024316639461331446,0.0,-0.09939916175887832
-0.05757803462442275,-0.13087412409363516,-0.0003353122382526553,-0.0023385369916117432,0.0,-0.09690882818550131
-0.06361717102711506,-0.13087545599732625,-0.00030954733227741107,-0.002245410037090342,0.0,-0.09441849461212432
-0.06965630742980737,-0.1308767879010173,-0.0002837824263021669,-0.00215228308256894,0.0,-0.09192816103874732
-0.07569544383249968,-0.1308781198047084,-0.00025801752032692275,-0.002059156128047539,0.0,-0.08943782746537032
-0.08173458023519199,-0.13087945170839946,-0.00023225261435167854,-0.0019660291735261372,0.0,-0.08694749389199333
-0.0877737166378843,-0.13088078361209055,-0.00020648770837643438,-0.0018729022190047359,0.0,-0.08445716031861633
-0.09381285304057661,-0.1308821155157816,-0.00018072280240119022,-0.0017797752644833345,0.0,-0.08196682674523934
-0.09985198944326892,-0.13088344741947266,-0.000154957896425946,-0.001686648309961933,0.0,-0.07947649317186234
-0.10589112584596132,-0.13088477932316375,-0.00012919299045070147,-0.0015935213554405304,0.0,-0.07698615959848532
-0.11193026224865353,-0.1308861112268548,-0.00010342808447545758,-0.0015003944009191299,0.0,-0.07449582602510835
-0.11796939865134594,-0.1308874431305459,-7.766317850021304e-05,-0.0014072674463977272,0.0,-0.07200549245173132
-0.12400853505403815,-0.13088877503423696,-5.189827252496926e-05,-0.001314140491876327,0.0,-0.06951515887835436
-0.13004767145673055,-0.13089010693792805,-2.6133366549724725e-05,-0.0012210135373549244,0.0,-0.06702482530497732
-0.13608680785942293,-0.1308914388416191,-3.6846057448018665e-07,-0.0011278865828335217,0.0,-0.0645344917316003
-0.14212594426211517,-0.1308927707453102,2.5396445400763593e-05,-0.0010347596283121216,0.0,-0.062044158158223325
-0.14816508066480755,-0.13089410264900125,5.116135137600813e-05,-0.0009416326737907185,0.0,-0.05955382458484629
-0.1542042170674998,-0.13089543455269234,7.692625735125202e-05,-0.0008485057192693184,0.0,-0.05706349101146933
-0.16024335347019217,-0.1308967664563834,0.00010269116332649656,-0.0007553787647479157,0.0,-0.054573157438092296
-0.1662824898728844,-0.1308980983600745,0.00012845606930174034,-0.0006622518102265156,0.0,-0.05208282386471534
-0.1723216262755768,-0.13089943026376555,0.00015422097527698487,-0.000569124855705113,0.0,-0.049592490291338304
-0.17836076267826903,-0.13090076216745664,0.00017998588125222876,-0.00047599790118371286,0.0,-0.047102156717961335
-0.1843998990809614,-0.1309020940711477,0.0002057507872274733,-0.00038287094666230974,0.0,-0.04461182314458431
-0.19043903548365382,-0.13090342597483878,0.00023151569320271784,-0.00028974399214090705,0.0,-0.042121489571207274
-0.19647817188634603,-0.13090475787852984,0.0002572805991779616,-0.00019661703761950696,0.0,-0.03963115599783032
-0.20251730828903844,-0.13090608978222093,0.00028304550515320616,-0.00010349008309810427,0.0,-0.03714082242445328
-0.20855644469173065,-0.130907421685912,0.00030881041112845004,-1.0363128576704184e-05,0.0,-0.034650488851076314
-0.21459558109442306,-0.13090875358960308,0.00033457531710369447,8.27638259446985e-05,0.0,-0.03216015527769929
-0.22063471749711527,-0.13091008549329414,0.00036034022307893847,0.00017589078046609903,0.0,-0.02966982170432232
-0.22667385389980765,-0.13091141739698522,0.0003861051290541829,0.0002690177349875017,0.0,-0.027179488130945298
-0.23271299030249992,-0.13091274930067628,0.0004118700350294267,0.0003621446895089018,0.0,-0.02468915455756833
-0.2387521267051923,-0.13091408120436737,0.0004376349410046713,0.0004552716440303045,0.0,-0.022198820984191306
-0.24479126310788468,-0.13091541310805843,0.00046339984697991575,0.0005483985985517072,0.0,-0.019708487410814268
-0.2508303995105769,-0.13091674501174952,0.0004891647529551598,0.0006415255530731073,0.0,-0.0172181538374373
-0.25686953591326933,-0.13091807691544058,0.0005149296589304042,0.00073465250759451,0.0,-0.014727820264060276
-0.26290867231596154,-0.13091940881913167,0.000540694564905648,0.00082777946211591,0.0,-0.012237486690683308
-0.2689478087186539,-0.13092074072282273,0.0005664594708808926,0.0009209064166373127,0.0,-0.009747153117306284
-0.27498694512134614,-0.1309220726265138,0.0005922243768561364,0.0010140333711587137,0.0,-0.007256819543929316
-0.2810260815240386,-0.13092340453020487,0.0006179892828313808,0.0011071603256801164,0.0,-0.004766485970552292
-0.2843558374592543,-0.13092431726155668,0.0006475560358942781,0.0011847588245936125,0.0,-0.003415939707484732
-0.27865432516954686,-0.13092383275177763,0.0006897956125826896,0.0012105958048140896,0.0,-0.0058646844787825884
-0.2729528128798394,-0.13092334824199858,0.0007320351892711012,0.0012364327850345666,0.0,-0.008313429250080445
-0.26725130059013213,-0.1309228637322195,0.0007742747659595117,0.001262269765255043,0.0,-0.010762174021378234
-0.2615497883004247,-0.13092237922244046,0.0008165143426479232,0.00128810674547552,0.0,-0.01321091879267609
-0.2558482760107174,-0.1309218947126614,0.0008587539193363337,0.0013139437256959965,0.0,-0.01565966356397388
-0.25014676372100997,-0.13092141020288234,0.0009009934960247453,0.0013397807059164735,0.0,-0.018108408335271733
-0.2444452514313027,-0.1309209256931033,0.0009432330727131557,0.00136561768613695,0.0,-0.020557153106569522
-0.23874373914159525,-0.13092044118332424,0.0009854726494015673,0.001391454666357427,0.0,-0.02300589787786738
-0.23304222685188797,-0.13091995667354517,0.0010277122260899778,0.0014172916465779034,0.0,-0.02545464264916517
-0.22734071456218052,-0.13091947216376612,0.0010699518027783893,0.0014431286267983805,0.0,-0.027903387420463024
-0.22163920227247308,-0.13091898765398707,0.0011121913794668009,0.0014689656070188575,0.0,-0.030352132191760882
-0.2159376899827658,-0.130918503144208,0.0011544309561552113,0.001494802587239334,0.0,-0.03280087696305867
-0.21023617769305836,-0.13091801863442895,0.001196670532843623,0.001520639567459811,0.0,-0.03524962173435653
-0.20453466540335108,-0.1309175341246499,0.0012389101095320334,0.0015464765476802874,0.0,-0.037698366505654314
-0.19883315311364363,-0.13091704961487083,0.001281149686220445,0.0015723135279007644,0.0,-0.04014711127695217
-0.19313164082393636,-0.13091656510509178,0.0013233892629088554,0.0015981505081212408,0.0,-0.04259585604824996
-0.1874301285342289,-0.13091608059531273,0.001365628839597267,0.001623987488341718,0.0,-0.045044600819547816
-0.18172861624452163,-0.1309155960855337,0.0014078684162856774,0.0016498244685621943,0.0,-0.0474933455908456
-0.1760271039548142,-0.1309151115757546,0.001450107992974089,0.0016756614487826713,0.0,-0.04994209036214346
-0.17032559166510677,-0.13091462706597556,0.0014923475696625005,0.0017014984290031486,0.0,-0.05239083513344132
-0.16462407937539947,-0.13091414255619652,0.001534587146350911,0.001727335409223625,0.0,-0.0548395799047391
-0.15892256708569205,-0.13091365804641744,0.0015768267230393226,0.0017531723894441019,0.0,-0.057288324676036964
-0.15322105479598477,-0.1309131735366384,0.0016190662997277328,0.0017790093696645783,0.0,-0.05973706944733475
-0.14751954250627733,-0.13091268902685935,0.0016613058764161446,0.0018048463498850555,0.0,-0.062185814218632604
-0.14181803021657005,-0.13091220451708027,0.001703545453104555,0.001830683330105532,0.0,-0.0646345589899304
-0.1361165179268626,-0.13091172000730122,0.0017457850297929664,0.001856520310326009,0.0,-0.06708330376122826
-0.13041500563715533,-0.13091123549752218,0.0017880246064813769,0.0018823572905464852,0.0,-0.06953204853252604
-0.12471349334744788,-0.1309107509877431,0.0018302641831697886,0.0019081942707669624,0.0,-0.0719807933038239
-0.11901198105774044,-0.13091026647796405,0.0018725037598582004,0.0019340312509874395,0.0,-0.07442953807512176
-0.11331046876803316,-0.130909781968185,0.0019147433365466105,0.0019598682312079157,0.0,-0.07687828284641954
-0.10760895647832572,-0.13090929745840593,0.0019569829132350222,0.001985705211428393,0.0,-0.0793270276177174
-0.10190744418861844,-0.13090881294862688,0.0019992224899234327,0.0020115421916488694,0.0,-0.08177577238901519
-0.096205931898911,-0.13090832843884784,0.0020414620666118445,0.0020373791718693466,0.0,-0.08422451716031304
-0.09050441960920372,-0.13090784392906876,0.0020837016433002545,0.002063216152089823,0.0,-0.08667326193161083
-0.0848029073194963,-0.13090735941928971,0.0021259412199886663,0.0020890531323103,0.0,-0.0891220067029087
-0.079101395029789,-0.13090687490951067,0.0021681807966770768,0.0021148901125307763,0.0,-0.09157075147420647
-0.07339988274008158,-0.1309063903997316,0.002210420373365488,0.002140727092751253,0.0,-0.09401949624550433
-0.0676983704503743,-0.13090590588995255,0.0022526599500538986,0.0021665640729717295,0.0,-0.09646824101680213
-0.06199685816066686,-0.1309054213801735,0.0022948995267423103,0.002192401053192207,0.0,-0.09891698578809997
-0.05629534587095941,-0.13090493687039442,0.002337139103430722,0.002218238033412684,0.0,-0.10136573055939783
-0.050593833581252134,-0.13090445236061538,0.002379378680119132,0.0022440750136331605,0.0,-0.10381447533069563
-0.04489232129154469,-0.13090396785083633,0.002421618256807544,0.0022699119938536373,0.0,-0.10626322010199347
-0.03919080900183741,-0.13090348334105725,0.0024638578334959544,0.0022957489740741137,0.0,-0.10871196487329127
-0.03348929671212997,-0.1309029988312782,0.0025060974101843657,0.002321585954294591,0.0,-0.11116070964458913
-0.02778778442242269,-0.13090251432149916,0.002548336986872776,0.002347422934515067,0.0,-0.1136094544158869
-0.022086272132715246,-0.13090202981172008,0.002590576563561188,0.002373259914735544,0.0,-0.11605819918718477
-0.016384759843007968,-0.13090154530194104,0.0026328161402495985,0.0023990968949560206,0.0,-0.11850694395848256
-0.010683247553300523,-0.130901060792162,0.0026750557169380102,0.002424933875176498,0.0,-0.12095568872978041
-0.004981735263593079,-0.1309005762823829,0.0027172952936264216,0.002450770855396975,0.0,-0.12340443350107827
0.0007197770261141989,-0.13090009177260387,0.002759534870314832,0.0024766078356174516,0.0,-0.12585317827237608
0.006421289315821643,-0.13089960726282482,0.002801774447003244,0.0025024448158379284,0.0,-0.1283019230436739
0.006664583747127835,-0.13089878472192398,0.002629826390862255,0.002338207525434088,0.0,-0.12349175646659602
0.0067642408663708235,-0.1308979532854673,0.002452241818067856,0.0021689682805401287,0.0,-0.118490565906666
0.006863897985613808,-0.13089712184901062,0.0022746572452734624,0.001999729035646175,0.0,-0.11348937534673612
0.006963555104856797,-0.13089629041255396,0.002097072672479063,0.0018304897907522161,0.0,-0.10848818478680608
0.007063212224099781,-0.13089545897609728,0.0019194880996846694,0.0016612505458582618,0.0,-0.10348699422687621
0.00716286934334277,-0.1308946275396406,0.0017419035268902703,0.0014920113009643029,0.0,-0.09848580366694618
0.007262526462585758,-0.1308937961031839,0.0015643189540958714,0.0013227720560703442,0.0,-0.09348461310701617
0.007362183581828743,-0.13089296466672726,0.0013867343813014775,0.00115353281117639,0.0,-0.08848342254708627
0.007461840701071731,-0.13089213323027057,0.0012091498085070786,0.0009842935662824311,0.0,-0.08348223198715625
0.007561497820314717,-0.1308913017938139,0.0010315652357126845,0.000815054321388477,0.0,-0.07848104142722637
0.007661154939557704,-0.1308904703573572,0.0008539806629182856,0.0006458150764945181,0.0,-0.07347985086729635
0.00776081205880069,-0.13088963892090055,0.0006763960901238915,0.00047657583160056393,0.0,-0.06847866030736646
0.007860469178043677,-0.13088880748444387,0.0004988115173294927,0.00030733658670660524,0.0,-0.06347746974743644
0.007960126297286664,-0.1308879760479872,0.000321226944535099,0.00013809734181265089,0.0,-0.05847627918750656
0.008059783416529652,-0.1308871446115305,0.0001436423717407001,-3.1141903081307806e-05,0.0,-0.053475088627576536
0.008159440535772639,-0.13088631317507385,-3.3942201053698776e-05,-0.00020038114797526693,0.0,-0.048473898067646515
0.008259097655015625,-0.13088548173861717,-0.00021152677384809289,-0.00036962039286922085,0.0,-0.04347270750771663
0.008358754774258612,-0.13088465030216048,-0.00038911134664249176,-0.0005388596377631795,0.0,-0.03847151694778661
0.008458411893501598,-0.13088381886570383,-0.0005666959194368859,-0.0007080988826571339,0.0,-0.03347032638785673
0.008558069012744586,-0.13088298742924714,-0.0007442804922312848,-0.0008773381275510926,0.0,-0.028469135827926692
0.008657726131987571,-0.13088215599279046,-0.0009218650650256789,-0.001046577372445047,0.0,-0.02346794526799681
0.00875738325123056,-0.13088132455633378,-0.0010994496378200777,-0.0012158166173390056,0.0,-0.018466754708066788
0.008857040370473544,-0.13088049311987712,-0.0012770342106144719,-0.00138505586223296,0.0,-0.013465564148136905
0.008956697489716533,-0.13087966168342044,-0.0014546187834088703,-0.0015542951071269187,0.0,-0.008464373588206883
0.00905635460895952,-0.13087883024696376,-0.0016322033562032696,-0.0017235343520208778,0.0,-0.0034631830282768616
0.009156011728202506,-0.13087799881050707,-0.0018097879289976637,-0.0018927735969148317,0.0,0.0015380075316530073
0.009255668847445494,-0.13087716737405042,-0.001987372501792062,-0.002062012841808791,0.0,0.006539198091583043
0.009355325966688479,-0.13087633593759374,-0.0021649570745864563,-0.002231252086702745,0.0,0.01154038865151294
0.009454983085931467,-0.13087550450113705,-0.0023425416473808547,-0.002400491331596704,0.0,0.016541579211442947
0.009554640205174453,-0.13087467306468037,-0.002520126220175249,-0.002569730576490658,0.0,0.021542769771372844
0.00965429732441744,-0.1308738416282237,-0.002697710792969648,-0.002738969821384617,0.0,0.02654396033130285
0.009753954443660427,-0.13087301019176703,-0.0028752953657640423,-0.002908209066278571,0.0,0.03154515089123275
0.009853611562903413,-0.13087217875531035,-0.0030528799385584407,-0.003077448311172529,0.0,0.036546341451162756
0.009953268682146401,-0.13087134731885366,-0.00323046451135284,-0.0032466875560664883,0.0,0.04154753201109279
0.010052925801389386,-0.130870515882397,-0.003408049084147234,-0.003415926800960442,0.0,0.04654872257102266
0.010152582920632376,-0.13086968444594033,-0.0035856336569416326,-0.0035851660458544013,0.0,0.051549913130952696
0.010252240039875361,-0.13086885300948364,-0.0037632182297360267,-0.0037544052907483552,0.0,0.056551103690882565
0.01035189715911835,-0.130868021573027,-0.003940802802530425,-0.003923644535642314,0.0,0.0615522942508126
0.010451554278361334,-0.1308671901365703,-0.004118387375324819,-0.004092883780536268,0.0,0.06655348481074247
0.010551211397604322,-0.13086635870011362,-0.0042959719481192185,-0.004262123025430227,0.0,0.0715546753706725
0.010650868516847307,-0.13086552726365694,-0.004473556520913613,-0.004431362270324181,0.0,0.07655586593060237
0.010750525636090295,-0.13086469582720028,-0.004651141093708011,-0.00460060151521814,0.0,0.08155705649053241
0.010850182755333282,-0.1308638643907436,-0.00482872566650241,-0.004769840760112099,0.0,0.08655824705046242
0.010949839874576268,-0.13086303295428692,-0.0050063102392968045,-0.004939080005006053,0.0,0.09155943761039231
0.011049496993819253,-0.13086220151783023,-0.005183894812091198,-0.005108319249900007,0.0,0.09656062817032221
0.011149154113062245,-0.13086137008137358,-0.005361479384885601,-0.005277558494793971,0.0,0.10156181873025236
0.01124881123230523,-0.1308605386449169,-0.005539063957679996,-0.005446797739687925,0.0,0.10656300929018225
0.011348468351548215,-0.1308597072084602,-0.00571664853047439,-0.005616036984581879,0.0,0.11156419985011212
0.011448125470791201,-0.13085887577200353,-0.005894233103268785,-0.005785276229475833,0.0,0.11656539041004202
0.011547782590034191,-0.13085804433554687,-0.006071817676063188,-0.005954515474369797,0.0,0.12156658096997217
0.011647439709277178,-0.1308572128990902,-0.0062494022488575815,-0.006123754719263751,0.0,0.12656777152990206
0.012688197981542245,-0.1308575765633768,-0.006124350944410695,-0.005970579867372967,0.0,0.12795690855875294
0.014098674563923209,-0.1308584097315268,-0.005880406973904721,-0.0056907423346024485,0.0,0.12792702455753716
0.015509151146304094,-0.1308592428996768,-0.00563646300339876,-0.0054109048018319466,0.0,0.12789714055632137
0.01691962772868498,-0.13086007606782682,-0.0053925190328928,-0.005131067269061444,0.0,0.12786725655510559
0.018330104311065867,-0.13086090923597682,-0.005148575062386839,-0.004851229736290942,0.0,0.1278373725538898
0.01974058089344683,-0.13086174240412685,-0.004904631091880864,-0.004571392203520423,0.0,0.127807488552674
0.02115105747582772,-0.13086257557227685,-0.004660687121374903,-0.00429155467074992,0.0,0.1277776045514582
0.022561534058208606,-0.13086340874042687,-0.004416743150868942,-0.004011717137979418,0.0,0.12774772055024242
0.02397201064058949,-0.13086424190857687,-0.004172799180362981,-0.0037318796052089155,0.0,0.12771783654902663
0.025382487222970457,-0.1308650750767269,-0.003928855209857007,-0.0034520420724383975,0.0,0.12768795254781085
0.02679296380535134,-0.1308659082448769,-0.0036849112393510463,-0.003172204539667895,0.0,0.12765806854659506
0.028203440387732225,-0.13086674141302693,-0.0034409672688450856,-0.0028923670068973927,0.0,0.12762818454537925
0.029613916970113188,-0.13086757458117693,-0.003197023298339111,-0.0026125294741268746,0.0,0.12759830054416346
0.031024393552494076,-0.13086840774932693,-0.0029530793278331503,-0.002332691941356372,0.0,0.12756841654294768
0.03243487013487496,-0.13086924091747695,-0.0027091353573271896,-0.00205285440858587,0.0,0.1275385325417319
0.03384534671725585,-0.13087007408562695,-0.0024651913868212285,-0.001773016875815367,0.0,0.1275086485405161
0.035255823299636814,-0.13087090725377698,-0.002221247416315254,-0.0014931793430448493,0.0,0.1274787645393003
0.0366662998820177,-0.13087174042192698,-0.0019773034458092937,-0.0012133418102743465,0.0,0.1274488805380845
0.03807677646439859,-0.130872573590077,-0.0017333594753033326,-0.0009335042775038445,0.0,0.12741899653686872
0.03948725304677955,-0.130873406758227,-0.0014894155047973584,-0.000653666744733326,0.0,0.12738911253565294
0.04089772962916044,-0.13087423992637703,-0.0012454715342913973,-0.00037382921196282316,0.0,0.12735922853443715
0.04230820621154132,-0.13087507309452703,-0.0010015275637854362,-9.399167919232117e-05,0.0,0.12732934453322137
0.04371868279392221,-0.13087590626267706,-0.0007575835932794759,0.00018584585357818168,0.0,0.12729946053200555
0.04512915937630318,-0.13087673943082706,-0.0005136396227735018,0.0004656833863486993,0.0,0.12726957653078977
0.04653963595868406,-0.13087757259897706,-0.0002696956522675407,0.0007455209191192021,0.0,0.12723969252957398
0.047950112541064946,-0.1308784057671271,-2.5751681761579555e-05,0.0010253584518897041,0.0,0.1272098085283582
0.04936058912344583,-0.1308792389352771,0.0002181922887443807,0.001305195984660207,0.0,0.1271799245271424
0.0507710657058268,-0.13088007210342711,0.0004621362592503557,0.0015850335174307246,0.0,0.1271500405259266
0.052181542288207684,-0.1308809052715771,0.000706080229756316,0.0018648710502012274,0.0,0.12712015652471081
0.05359201887058857,-0.13088173843972714,0.0009500242002622771,0.0021447085829717303,0.0,0.12709027252349503
0.055002495452969535,-0.13088257160787714,0.0011939681707682512,0.0024245461157422488,0.0,0.12706038852227924
0.05641297203535042,-0.13088340477602717,0.0014379121412742123,0.00270438364851275,0.0,0.12703050452106346
0.05782344861773131,-0.13088423794417717,0.0016818561117801726,0.0029842211812832527,0.0,0.12700062051984767
0.05923392520011219,-0.1308850711123272,0.0019258000822861346,0.0032640587140537556,0.0,0.12697073651863186
0.060644401782493154,-0.1308859042804772,0.0021697440527921087,0.003543896246824274,0.0,0.12694085251741608
0.06205487836487404,-0.13088673744862722,0.002413688023298069,0.003823733779594777,0.0,0.1269109685162003
0.06346535494725493,-0.13088757061677722,0.0026576319938040292,0.004103571312365278,0.0,0.1268810845149845
0.06487583152963589,-0.13088840378492722,0.002901575964310005,0.0043834088451357965,0.0,0.12685120051376872
0.06628630811201677,-0.13088923695307725,0.0031455199348159654,0.004663246377906299,0.0,0.1268213165125529
0.06769678469439766,-0.13089007012122725,0.0033894639053219256,0.004943083910676802,0.0,0.12679143251133712
0.06910726127677855,-0.13089090328937728,0.0036334078758278876,0.005222921443447303,0.0,0.12676154851012134
0.07051773785915952,-0.13089173645752727,0.0038773518463338617,0.005502758976217822,0.0,0.12673166450890555
0.0719282144415404,-0.1308925696256773,0.004121295816839822,0.005782596508988325,0.0,0.12670178050768977
0.07333869102392128,-0.1308934027938273,0.004365239787345782,0.0060624340417588275,0.0,0.12667189650647398
0.07474916760630217,-0.13089423596197733,0.004609183757851744,0.00634227157452933,0.0,0.12664201250525817
0.07615964418868314,-0.13089506913012733,0.004853127728357718,0.006622109107299847,0.0,0.12661212850404238
0.07757012077106402,-0.13089590229827736,0.005097071698863679,0.00690194664007035,0.0,0.1265822445028266
0.07898059735344491,-0.13089673546642736,0.005341015669369641,0.007181784172840853,0.0,0.1265523605016108
0.08039107393582587,-0.13089756863457735,0.005584959639875615,0.007461621705611371,0.0,0.12652247650039503
0.08180155051820676,-0.13089840180272738,0.005828903610381575,0.007741459238381872,0.0,0.1264925924991792
0.08321202710058764,-0.13089923497087738,0.006072847580887535,0.008021296771152375,0.0,0.12646270849796343
0.08439394875093918,-0.12962672000750416,0.006087655760386578,0.00798992080231287,0.0,0.12419784891100238
0.08530922298058981,-0.12686863222401998,0.005835138850377474,0.007595462414928249,0.0,0.11932551780733769
0.08622449721024039,-0.12411054444053594,0.005582621940368385,0.00720100402754365,0.0,0.11445318670367327
0.08713977143989098,-0.12135245665705192,0.005330105030359295,0.006806545640159051,0.0,0.10958085560000884
0.0880550456695416,-0.11859436887356774,0.005077588120350191,0.006412087252774431,0.0,0.10470852449634414
0.08897031989919219,-0.11583628109008372,0.004825071210341101,0.0060176288653898315,0.0,0.09983619339267973
0.08988559412884277,-0.11307819330659968,0.004572554300332011,0.005623170478005233,0.0,0.0949638622890153
0.09080086835849334,-0.11032010552311566,0.004320037390322921,0.005228712090620634,0.0,0.09009153118535088
0.09171614258814398,-0.10756201773963148,0.004067520480313818,0.004834253703236014,0.0,0.08521920008168618
0.09263141681779455,-0.10480392995614746,0.003815003570304728,0.004439795315851415,0.0,0.08034686897802175
0.09354669104744513,-0.10204584217266344,0.003562486660295638,0.0040453369284668165,0.0,0.07547453787435732
0.09446196527709572,-0.0992877543891794,0.003309969750286548,0.003650878541082218,0.0,0.0706022067706929
0.09537723950674634,-0.09652966660569523,0.0030574528402774444,0.0032564201536975966,0.0,0.0657298756670282
0.09629251373639693,-0.0937715788222112,0.0028049359302683547,0.002861961766312998,0.0,0.06085754456336377
0.09720778796604751,-0.09101349103872716,0.0025524190202592645,0.0024675033789283993,0.0,0.055985213459699354
0.09812306219569814,-0.08825540325524299,0.002299902110250161,0.002073044991543779,0.0,0.05111288235603466
0.09903833642534872,-0.08549731547175896,0.0020473852002410708,0.0016785866041591803,0.0,0.04624055125237023
0.0999536106549993,-0.08273922768827494,0.0017948682902319815,0.0012841282167745808,0.0,0.041368220148705795
0.10086888488464987,-0.07998113990479092,0.0015423513802228913,0.0008896698293899821,0.0,0.03649588904504138
0.10178415911430051,-0.07722305212130673,0.0012898344702137873,0.0004952114420053617,0.0,0.03162355794137668
0.1026994333439511,-0.07446496433782271,0.001037317560204698,0.00010075305462076307,0.0,0.02675122683771225
0.10361470757360167,-0.07170687655433869,0.0007848006501956079,-0.0002937053327638356,0.0,0.021878895734047832
0.10452998180325229,-0.0689487887708545,0.0005322837401865038,-0.0006881637201484568,0.0,0.017006564630383136
0.10544525603290288,-0.06619070098737047,0.00027976683017741453,-0.0010826221075330555,0.0,0.012134233526718705
0.10636053026255346,-0.06343261320388645,2.7249920168324372e-05,-0.0014770804949176541,0.0,0.007261902423054287
0.10727580449220404,-0.06067452542040243,-0.00022526698984076578,-0.0018715388823022528,0.0,0.002389571319389855
0.10819107872185467,-0.05791643763691824,-0.00047778389984986895,-0.002265997269686874,0.0,-0.0024827597842748406
0.10910635295150525,-0.05515834985343422,-0.0007303008098589591,-0.0026604556570714727,0.0,-0.0073550908879392585
0.11002162718115582,-0.05240026206995019,-0.0009828177198680493,-0.0030549140444560714,0.0,-0.012227421991603704
0.11093690141080641,-0.04964217428646617,-0.0012353346298771386,-0.00344937243184067,0.0,-0.017099753095268122
0.11185217564045705,-0.04688408650298198,-0.0014878515398862426,-0.0038438308192252895,0.0,-0.021972084198932818
0.11276744987010762,-0.04412599871949796,-0.0017403684498953319,-0.00423828920660989,0.0,-0.026844415302597235
0.1136827240997582,-0.04136791093601393,-0.001992885359904422,-0.004632747593994489,0.0,-0.03171674640626165
0.11459799832940883,-0.038609823152529754,-0.002245402269913526,-0.005027205981379108,0.0,-0.03658907750992635
0.11551327255905941,-0.03585173536904572,-0.0024979191799226162,-0.005421664368763707,0.0,-0.041461408613590794
0.11642854678871,-0.0330936475855617,-0.0027504360899317064,-0.005816122756148305,0.0,-0.04633373971725521
0.11734382101836058,-0.030335559802077666,-0.003002952999940795,-0.006210581143532904,0.0,-0.05120607082091963
0.1182590952480112,-0.027577472018593494,-0.003255469909949899,-0.006605039530917525,0.0,-0.056078401924584326
0.11917436947766177,-0.02481938423510946,-0.003507986819958989,-0.006999497918302124,0.0,-0.06095073302824877
0.12008964370731237,-0.02206129645162544,-0.003760503729968079,-0.007393956305686723,0.0,-0.06582306413191319
0.121004917936963,-0.019303208668141253,-0.004013020639977183,-0.007788414693071344,0.0,-0.07069539523557788
0.12192019216661357,-0.016545120884657233,-0.004265537549986273,-0.00818287308045594,0.0,-0.0755677263392423
0.12283546639626415,-0.013787033101173199,-0.004518054459995362,-0.008577331467840541,0.0,-0.08044005744290675
0.12375074062591473,-0.011028945317689179,-0.004770571370004452,-0.008971789855225142,0.0,-0.08531238854657117
0.12466601485556536,-0.008270857534205006,-0.005023088280013556,-0.00936624824260976,0.0,-0.09018471965023586
0.12558128908521593,-0.005512769750720986,-0.005275605190022646,-0.00976070662999436,0.0,-0.09505705075390028
0.12649656331486653,-0.0027546819672369383,-0.005528122100031736,-0.010155165017378957,0.0,-0.0999293818575647
0.1274118375445171,3.4058162470818054e-06,-0.005780639010040826,-0.010549623404763557,0.0,-0.10480171296122914
0.12832711177416772,0.0027614935997312684,-0.0060331559200499305,-0.010944081792148178,0.0,-0.10967404406489384
0.12924238600381832,0.0055195813832152885,-0.006285672830059019,-0.011338540179532775,0.0,-0.11454637516855826
0.1301576602334689,0.008277669166699309,-0.006538189740068109,-0.011732998566917376,0.0,-0.11941870627222267
0.13088524394362172,0.010951954933428142,-0.006668851276630968,-0.011932530948734515,0.0,-0.12328308067318972
0.1308855268907205,0.013301507885229819,-0.006327323241089621,-0.011376725058977641,0.0,-0.12324162285120296
0.13088580983781925,0.015651060837031498,-0.005985795205548273,-0.010820919169220768,0.0,-0.1232001650292162
0.13088609278491803,0.018000613788833178,-0.005644267170006926,-0.010265113279463894,0.0,-0.12315870720722945
0.13088637573201678,0.020350166740634987,-0.005302739134465559,-0.00970930738970699,0.0,-0.12311724938524268
0.13088665867911556,0.022699719692436664,-0.004961211098924212,-0.009153501499950116,0.0,-0.12307579156325592
0.13088694162621434,0.02504927264423834,-0.004619683063382864,-0.008597695610193242,0.0,-0.12303433374126917
0.1308872245733131,0.02739882559604015,-0.004278155027841498,-0.008041889720436339,0.0,-0.1229928759192824
0.13088750752041187,0.029748378547841826,-0.00393662699230015,-0.007486083830679465,0.0,-0.12295141809729565
0.13088779046751065,0.0320979314996435,-0.003595098956758803,-0.006930277940922591,0.0,-0.12290996027530889
0.1308880734146094,0.03444748445144519,-0.0032535709212174555,-0.0063744720511657174,0.0,-0.12286850245332213
0.13088835636170817,0.036797037403246996,-0.002912042885676089,-0.005818666161408813,0.0,-0.12282704463133537
0.13088863930880693,0.03914659035504867,-0.0025705148501347416,-0.005262860271651939,0.0,-0.1227855868093486
0.1308889222559057,0.04149614330685035,-0.002228986814593394,-0.0047070543818950655,0.0,-0.12274412898736185
0.13088920520300448,0.043845696258652034,-0.0018874587790520467,-0.004151248492138193,0.0,-0.12270267116537509
0.13088948815010323,0.04619524921045384,-0.0015459307435106802,-0.003595442602381288,0.0,-0.12266121334338834
0.130889771097202,0.04854480216225551,-0.0012044027079693327,-0.0030396367126244144,0.0,-0.12261975552140157
0.13089005404430076,0.050894355114057196,-0.0008628746724279853,-0.002483830822867541,0.0,-0.1225782976994148
0.13089033699139954,0.053243908065859005,-0.0005213466368866188,-0.001928024933110636,0.0,-0.12253683987742806
0.13089061993849832,0.055593461017660675,-0.0001798186013452713,-0.0013722190433537625,0.0,-0.12249538205544129
0.13089090288559707,0.05794301396946236,0.00016170943419607613,-0.0008164131535968889,0.0,-0.12245392423345454
0.13089118583269585,0.06029256692126404,0.0005032374697374236,-0.0002606072638400153,0.0,-0.12241246641146777
0.13089146877979463,0.06264211987306585,0.0008447655052787901,0.00029519862591688775,0.0,-0.12237100858948101
0.13089175172689338,0.06499167282486752,0.0011862935408201367,0.0008510045156737613,0.0,-0.12232955076749426
0.13089203467399216,0.0673412257766692,0.001527821576361485,0.001406810405430635,0.0,-0.12228809294550749
0.1308923176210909,0.06969077872847088,0.0018693496119028333,0.0019626162951875085,0.0,-0.12224663512352074
0.1308926005681897,0.07204033168027268,0.002210877647444199,0.0025184221849444133,0.0,-0.12220517730153398
0.13089288351528847,0.07438988463207437,0.0025524056829855472,0.003074228074701287,0.0,-0.12216371947954723
0.13089316646238722,0.07673943758387605,0.002893933718526894,0.0036300339644581604,0.0,-0.12212226165756046
0.130893449409486,0.07908899053567786,0.0032354617540682595,0.0041858398542150635,0.0,-0.1220808038355737
0.13089373235658477,0.08143854348747953,0.0035769897896096078,0.004741645743971939,0.0,-0.12203934601358694
0.13089401530368353,0.08378809643928121,0.003918517825150956,0.005297451633728811,0.0,-0.12199788819160018
0.1308942982507823,0.08613764939108288,0.004260045860692303,0.005853257523485686,0.0,-0.12195643036961343
0.13089458119788105,0.0884872023428847,0.004601573896233668,0.006409063413242589,0.0,-0.12191497254762666
0.13089486414497983,0.09083675529468638,0.004943101931775017,0.006964869302999464,0.0,-0.1218735147256399
0.1308951470920786,0.09318630824648806,0.005284629967316365,0.007520675192756336,0.0,-0.12183205690365315
0.13089543003917736,0.09553586119828987,0.005626158002857731,0.00807648108251324,0.0,-0.12179059908166638
0.13089571298627614,0.09788541415009154,0.005967686038399079,0.008632286972270115,0.0,-0.12174914125967963
0.1308959959333749,0.10023496710189322,0.0063092140739404255,0.009188092862026986,0.0,-0.12170768343769287
0.13089627888047367,0.1025845200536949,0.006650742109481774,0.009743898751783862,0.0,-0.12166622561570611
0.13089656182757245,0.1049340730054967,0.006992270145023139,0.010299704641540765,0.0,-0.12162476779371935
0.1308968447746712,0.10728362595729839,0.007333798180564488,0.01085551053129764,0.0,-0.12158330997173258
0.13089712772176998,0.10963317890910007,0.007675326216105834,0.011411316421054512,0.0,-0.12154185214974583
0.13089741066886876,0.11198273186090174,0.008016854251647183,0.011967122310811387,0.0,-0.12150039432775907
0.1308976936159675,0.11433228481270355,0.008358382287188548,0.01252292820056829,0.0,-0.12145893650577232
0.1308979765630663,0.11668183776450523,0.008699910322729897,0.013078734090325166,0.0,-0.12141747868378555
0.13089825951016504,0.1190313907163069,0.009041438358271245,0.013634539980082037,0.0,-0.12137602086179879
0.13089854245726382,0.12138094366810871,0.00938296639381261,0.01419034586983894,0.0,-0.12133456303981204
0.1308988254043626,0.1237304966199104,0.009724494429353959,0.014746151759595816,0.0,-0.12129310521782527
0.13089910835146135,0.12608004957171207,0.010066022464895304,0.015301957649352688,0.0,-0.12125164739583852
0.13089939129856012,0.12842960252351374,0.010407550500436652,0.015857763539109563,0.0,-0.12121018957385175
0.1308996742456589,0.13077915547531554,0.010749078535978018,0.016413569428866466,0.0,-0.12116873175186499
0.12173947515148281,0.13312791846545477,0.010442646658799206,0.015973025587683817,0.0,-0.11673244488385857
0.11208411486588647,0.13547663875496355,0.010101189921473356,0.01547862500428822,0.0,-0.11205859968904028
0.1024287545802896,0.13782535904447246,0.009759733184147487,0.014984224420892596,0.0,-0.10738475449422172
0.09277339429469325,0.14017407933398124,0.009418276446821638,0.014489823837496998,0.0,-0.10271090929940342
0.08311803400909692,0.14252279962349004,0.009076819709495788,0.0139954232541014,0.0,-0.09803706410458513
0.07346267372350057,0.14487151991299882,0.008735362972169938,0.013501022670705803,0.0,-0.09336321890976682
0.0638073134379037,0.14722024020250774,0.00839390623484407,0.013006622087310177,0.0,-0.08868937371494827
0.054151953152307364,0.1495689604920165,0.00805244949751822,0.01251222150391458,0.0,-0.08401552852012997
0.044496592866711024,0.15191768078152532,0.007710992760192371,0.012017820920518982,0.0,-0.07934168332531166
0.034841232581114684,0.1542664010710341,0.007369536022866521,0.011523420337123384,0.0,-0.07466783813049338
0.025185872295517803,0.156615121360543,0.007028079285540653,0.01102901975372776,0.0,-0.06999399293567482
0.015530512009921463,0.15896384165005178,0.006686622548214803,0.010534619170332162,0.0,-0.06532014774085651
0.005875151724325123,0.16131256193956056,0.006345165810888953,0.010040218586936565,0.0,-0.06064630254603822
-0.0037802085612717584,0.1636612822290695,0.006003709073563085,0.00954581800354094,0.0,-0.05597245735121967
-0.013435568846868085,0.16601000251857828,0.0056622523362372355,0.009051417420145341,0.0,-0.05129861215640137
-0.02309092913246444,0.16835872280808706,0.0053207955989113855,0.008557016836749745,0.0,-0.046624766961583075
-0.032746289418060764,0.17070744309759583,0.004979338861585536,0.008062616253354147,0.0,-0.04195092176676478
-0.042401649703657646,0.17305616338710478,0.004637882124259667,0.007568215669958522,0.0,-0.03727707657194622
-0.05205700998925397,0.17540488367661355,0.004296425386933818,0.007073815086562924,0.0,-0.03260323137712792
-0.061712370274850326,0.17775360396612233,0.003954968649607968,0.006579414503167326,0.0,-0.027929386182309626
-0.0713677305604472,0.18010232425563125,0.0036135119122820995,0.006085013919771702,0.0,-0.023255540987491066
-0.08102309084604353,0.18245104454514005,0.0032720551749562503,0.0055906133363761035,0.0,-0.01858169579267277
-0.09067845113163989,0.18479976483464883,0.0029305984376304,0.005096212752980507,0.0,-0.013907850597854474
-0.10033381141723621,0.1871484851241576,0.00258914170030455,0.004601812169584909,0.0,-0.009234005403036177
-0.1099891717028331,0.18949720541366652,0.0022476849629786827,0.004107411586189283,0.0,-0.004560160208217617
-0.11964453198842945,0.19184592570317532,0.0019062282256528326,0.0036130110027936865,0.0,0.00011368498660067894
-0.12929989227402577,0.1941946459926841,0.0015647714883269825,0.0031186104193980883,0.0,0.004787530181418975
-0.1389552525596221,0.19654336628219288,0.0012233147510011325,0.00262420983600249,0.0,0.009461375376237285
-0.14861061284521898,0.1988920865717018,0.000881858013675265,0.002129809252606866,0.0,0.014135220571055845
-0.1582659731308153,0.2012408068612106,0.000540401276349415,0.0016354086692112677,0.0,0.018809065765874128
-0.1679213334164117,0.20358952715071937,0.00019894453902356488,0.0011410080858156712,0.0,0.023482910960692438
-0.17757669370200857,0.20593824744022826,-0.00014251219830230255,0.000646607502420047,0.0,0.028156756155510998
-0.1872320539876049,0.20828696772973707,-0.00048396893562815263,0.00015220691902444877,0.0,0.03283060135032928
-0.19688741427320122,0.21063568801924587,-0.0008254256729540027,-0.0003421936643711494,0.0,0.03750444654514759
-0.20654277455879755,0.21298440830875465,-0.001166882410279851,-0.0008365942477667476,0.0,0.04217829173996587
-0.21619813484439443,0.21533312859826353,-0.0015083391476057202,-0.0013309948311623736,0.0,0.04685213693478443
-0.22585349512999076,0.21768184888777234,-0.0018497958849315703,-0.0018253954145579683,0.0,0.05152598212960274
-0.23550885541558714,0.22003056917728114,-0.0021912526222574204,-0.0023197959979535665,0.0,0.056199827324421026
-0.24516421570118402,0.22237928946679003,-0.002532709359583288,-0.0028141965813491925,0.0,0.060873672519239586
-0.25481957598678034,0.2247280097562988,-0.002874166096909138,-0.0033085971647447907,0.0,0.0655475177140579
-0.26447493627237667,0.2270767300458076,-0.003215622834234988,-0.003802997748140389,0.0,0.07022136290887618
-0.274130296557973,0.2294254503353164,-0.0035570795715608363,-0.004297398331535984,0.0,0.07489520810369449
-0.2837856568435699,0.2317741706248253,-0.0038985363088867055,-0.0047917989149316095,0.0,0.07956905329851305
-0.2934410171291662,0.23412289091433408,-0.0042399930462125555,-0.005286199498327208,0.0,0.08424289849333133
-0.3030963774147626,0.23647161120384289,-0.004581449783538406,-0.005780600081722806,0.0,0.08891674368814964
-0.3127517377003589,0.23882033149335166,-0.004922906520864254,-0.006275000665118404,0.0,0.09359058888296792
-0.3224070979859558,0.24116905178286058,-0.005264363258190121,-0.006769401248514027,0.0,0.09826443407778648
-0.3320624582715521,0.24351777207236935,-0.0056058199955159715,-0.007263801831909625,0.0,0.1029382792726048
-0.34171781855714845,0.24586649236187816,-0.0059472767328418216,-0.007758202415305223,0.0,0.10761212446742308
-0.3513731788427453,0.24821521265138707,-0.0062887334701676924,-0.008252602998700849,0.0,0.11228596966224164
-0.36102853912834165,0.25056393294089585,-0.006630190207493539,-0.008747003582096447,0.0,0.11695981485705995
-0.35731498995959454,0.24782961297884382,-0.006758698125897698,-0.008885319345187836,0.0,0.11790320951838383
-0.3476597032555836,0.24283616401609803,-0.006792562124781103,-0.008865375188144021,0.0,0.11718862616482129
-0.3380044165515721,0.237842715053352,-0.00682642612366451,-0.008845431031100207,0.0,0.1164740428112587
-0.32834912984756115,0.23284926609060624,-0.006860290122547915,-0.008825486874056392,0.0,0.11575945945769615
-0.3186938431435502,0.22785581712786046,-0.00689415412143132,-0.008805542717012579,0.0,0.11504487610413361
-0.30903855643953876,0.22286236816511443,-0.006928018120314727,-0.008785598559968764,0.0,0.11433029275057102
-0.2993832697355278,0.21786891920236867,-0.006961882119198132,-0.00876565440292495,0.0,0.11361570939700848
-0.28972798303151687,0.2128754702396229,-0.006995746118081537,-0.008745710245881135,0.0,0.11290112604344593
-0.2800726963275059,0.20788202127687713,-0.007029610116964942,-0.008725766088837322,0.0,0.11218654268988339
-0.2704174096234945,0.2028885723141311,-0.007063474115848348,-0.008705821931793508,0.0,0.1114719593363208
-0.26076212291948353,0.19789512335138532,-0.0070973381147317535,-0.008685877774749693,0.0,0.11075737598275825
-0.2511068362154726,0.19290167438863956,-0.007131202113615159,-0.00866593361770588,0.0,0.11004279262919571
-0.24145154951146164,0.1879082254258938,-0.007165066112498564,-0.008645989460662066,0.0,0.10932820927563316
-0.23179626280745017,0.18291477646314774,-0.007198930111381971,-0.008626045303618251,0.0,0.10861362592207059
-0.22214097610343922,0.177921327500402,-0.007232794110265376,-0.008606101146574436,0.0,0.10789904256850805
-0.2124856893994283,0.17292787853765623,-0.007266658109148781,-0.008586156989530623,0.0,0.1071844592149455
-0.20283040269541683,0.16793442957491017,-0.007300522108032188,-0.008566212832486809,0.0,0.10646987586138291
-0.19317511599140588,0.1629409806121644,-0.007334386106915593,-0.008546268675442994,0.0,0.10575529250782037
-0.18351982928739494,0.15794753164941866,-0.007368250105798997,-0.00852632451839918,0.0,0.10504070915425782
-0.173864542583384,0.15295408268667288,-0.007402114104682402,-0.008506380361355367,0.0,0.10432612580069528
-0.16420925587937252,0.14796063372392682,-0.007435978103565809,-0.008486436204311552,0.0,0.10361154244713269
-0.1545539691753616,0.1429671847611811,-0.007469842102449214,-0.008466492047267737,0.0,0.10289695909357015
-0.14489868247135065,0.1379737357984353,-0.007503706101332619,-0.008446547890223925,0.0,0.1021823757400076
-0.13524339576733918,0.13298028683568924,-0.007537570100216026,-0.008426603733180108,0.0,0.10146779238644502
-0.12558810906332823,0.12798683787294352,-0.007571434099099431,-0.008406659576136295,0.0,0.10075320903288247
-0.11593282235931729,0.12299338891019773,-0.007605298097982835,-0.00838671541909248,0.0,0.10003862567931993
-0.10627753565530634,0.11799993994745198,-0.00763916209686624,-0.008366771262048668,0.0,0.09932404232575738
-0.0966222489512949,0.11300649098470592,-0.007673026095749647,-0.008346827105004853,0.0,0.09860945897219481
-0.08696696224728395,0.10801304202196016,-0.007706890094633052,-0.008326882947961039,0.0,0.09789487561863225
-0.077311675543273,0.1030195930592144,-0.0077407540935164575,-0.008306938790917224,0.0,0.09718029226506972
-0.06765638883926206,0.09802614409646862,-0.007774618092399863,-0.008286994633873411,0.0,0.09646570891150716
-0.058001102135250615,0.09303269513372259,-0.007808482091283269,-0.008267050476829596,0.0,0.09575112555794459
-0.04834581543123967,0.08803924617097683,-0.007842346090166675,-0.008247106319785782,0.0,0.09503654220438204
-0.038690528727228723,0.08304579720823105,-0.00787621008905008,-0.008227162162741969,0.0,0.0943219588508195
-0.029035242023217223,0.07805234824548501,-0.007910074087933486,-0.008207218005698153,0.0,0.09360737549725691
-0.019379955319206277,0.07305889928273926,-0.007943938086816892,-0.00818727384865434,0.0,0.09289279214369436
-0.009724668615195331,0.06806545031999348,-0.007977802085700297,-0.008167329691610525,0.0,0.09217820879013182
-6.93819111844407e-05,0.06307200135724772,-0.008011666084583702,-0.008147385534566712,0.0,0.09146362543656927
0.009585904792826505,0.058078552394501964,-0.008045530083467107,-0.008127441377522897,0.0,0.09074904208300673
0.019241191496838006,0.0530851034317559,-0.008079394082350512,-0.008107497220479083,0.0,0.09003445872944414
0.02889647820084945,0.04809165446900987,-0.00811325808123392,-0.008087553063435268,0.0,0.08931987537588157
0.0385517649048599,0.04309820550626439,-0.008147122080117322,-0.008067608906391455,0.0,0.08860529202231905
0.04820705160887134,0.03810475654351833,-0.008180986079000729,-0.00804766474934764,0.0,0.08789070866875648
0.057862338312882844,0.0331113075807723,-0.008214850077884136,-0.008027720592303826,0.0,0.08717612531519389
0.06751762501689323,0.02811785861802682,-0.00824871407676754,-0.008007776435260013,0.0,0.08646154196163139
0.07717291172090468,0.02312440965528076,-0.008282578075650946,-0.007987832278216197,0.0,0.0857469586080688
0.08682819842491513,0.01813096069253528,-0.00831644207453435,-0.007967888121172384,0.0,0.0850323752545063
0.09648348512892657,0.013137511729789247,-0.008350306073417756,-0.00794794396412857,0.0,0.08431779190094371
0.10613877183293807,0.008144062767043186,-0.008384170072301163,-0.007927999807084755,0.0,0.08360320854738112
0.11579405853694846,0.0031506138042977083,-0.008418034071184567,-0.007908055650040942,0.0,0.08288862519381862
0.1254493452409599,-0.0018428351584483527,-0.008451898070067973,-0.007888111492997127,0.0,0.08217404184025603
0.1308959488969843,-0.0047324390921988785,-0.008254159776943475,-0.007676899821313846,0.0,0.07998042641876794
0.13089602154973193,-0.004899420047249623,-0.007756700870632368,-0.007218165483626631,0.0,0.07587276949761226
0.13089609420247955,-0.005066401002300387,-0.007259241964321207,-0.006759431145939365,0.0,0.07176511257645612
0.13089616685522718,-0.00523338195735115,-0.006761783058010045,-0.0063006968082521,0.0,0.06765745565529999
0.1308962395079748,-0.005400362912401895,-0.006264324151698939,-0.005841962470564886,0.0,0.0635497987341443
0.13089631216072242,-0.005567343867452659,-0.005766865245387777,-0.005383228132877621,0.0,0.05944214181298817
0.13089638481347005,-0.005734324822503403,-0.005269406339076672,-0.004924493795190405,0.0,0.05533448489183248
0.1308964574662177,-0.005901305777554167,-0.0047719474327655095,-0.00446575945750314,0.0,0.05122682797067634
0.13089653011896532,-0.00606828673260493,-0.004274488526454349,-0.004007025119815875,0.0,0.0471191710495202
0.13089660277171294,-0.006235267687655675,-0.0037770296201432426,-0.0035482907821286604,0.0,0.043011514128364514
0.13089667542446057,-0.0064022486427064386,-0.003279570713832081,-0.0030895564444413945,0.0,0.038903857207208375
0.1308967480772082,-0.006569229597757202,-0.0027821118075209194,-0.0026308221067541286,0.0,0.03479620028605224
0.13089682072995582,-0.006736210552807946,-0.0022846529012098132,-0.002172087769066915,0.0,0.030688543364896556
0.13089689338270344,-0.0069031915078587094,-0.0017871939948986516,-0.001713353431379649,0.0,0.026580886443740417
0.13089696603545106,-0.007070172462909473,-0.00128973508858749,-0.001254619093692383,0.0,0.02247322952258428
0.13089703868819869,-0.007237153417960218,-0.0007922761822763838,-0.0007958847560051692,0.0,0.018365572601428598
0.1308971113409463,-0.007404134373010981,-0.0002948172759652222,-0.00033715041831790336,0.0,0.01425791568027246
0.13089718399369393,-0.007571115328061726,0.00020264163034588306,0.00012158391936931134,0.0,0.010150258759116779
0.13089725664644156,-0.00773809628311249,0.0007001005366570456,0.0005803182570565772,0.0,0.00604260183796064
0.13089732929918918,-0.007905077238163253,0.0011975594429682063,0.0010390525947438414,0.0,0.0019349449168045013
0.1308974019519368,-0.008072058193213997,0.0016950183492793133,0.001497786932431057,0.0,-0.0021727120043511933
0.13089747460468443,-0.008239039148264762,0.002192477255590474,0.001956521270118323,0.0,-0.006280368925507332
0.13089754725743205,-0.008406020103315525,0.002689936161901635,0.002415255607805587,0.0,-0.01038802584666347
0.13089761991017967,-0.00857300105836627,0.003187395068212742,0.0028739899454928025,0.0,-0.014495682767819151
0.1308976925629273,-0.008739982013417032,0.0036848539745239026,0.0033327242831800684,0.0,-0.01860333968897529
0.13089776521567492,-0.008906962968467796,0.004182312880835065,0.0037914586208673325,0.0,-0.02271099661013143
0.13089783786842255,-0.00907394392351854,0.00467977178714617,0.004250192958554548,0.0,-0.02681865353128711
0.13089791052117017,-0.009240924878569305,0.005177230693457333,0.004708927296241814,0.0,-0.030926310452443248
0.1308979831739178,-0.009407905833620066,0.005674689599768494,0.005167661633929078,0.0,-0.03503396737359939
0.13089805582666542,-0.009574886788670812,0.006172148506079601,0.005626395971616294,0.0,-0.03914162429475507
0.13089812847941304,-0.009741867743721575,0.0066696074123907614,0.0060851303093035596,0.0,-0.04324928121591122
0.13089820113216066,-0.009908848698772321,0.007167066318701868,0.006543864646990773,0.0,-0.04735693813706689
0.1308982737849083,-0.010075829653823084,0.007664525225013029,0.007002598984678039,0.0,-0.051464595058223025
0.1308983464376559,-0.010242810608873847,0.00816198413132419,0.007461333322365305,0.0,-0.055572251979379164
0.13089841909040353,-0.010409791563924593,0.008659443037635299,0.007920067660052519,0.0,-0.05967990890053486
0.13089849174315116,-0.010576772518975356,0.00915690194394646,0.008378801997739785,0.0,-0.063787565821691
0.13089856439589878,-0.010743753474026119,0.00965436085025762,0.00883753633542705,0.0,-0.06789522274284714
0.1308986370486464,-0.010910734429076863,0.010151819756568725,0.009296270673114265,0.0,-0.0720028796640028
0.13089870970139403,-0.011077715384127627,0.010649278662879886,0.00975500501080153,0.0,-0.07611053658515894
0.13089878235414165,-0.01124469633917839,0.01114673756919105,0.010213739348488796,0.0,-0.08021819350631508
0.13089885500688928,-0.011411677294229136,0.011644196475502156,0.01067247368617601,0.0,-0.08432585042747077
0.1308989276596369,-0.011578658249279897,0.012141655381813317,0.011131208023863276,0.0,-0.08843350734862691
0.13089900031238452,-0.011745639204330643,0.012639114288124422,0.01158994236155049,0.0,-0.09254116426978261
0.13089907296513215,-0.011912620159381406,0.013136573194435586,0.012048676699237756,0.0,-0.09664882119093875
0.13089914561787977,-0.012079601114432171,0.013634032100746747,0.012507411036925022,0.0,-0.10075647811209489
0.1308992182706274,-0.012246582069482915,0.014131491007057852,0.012966145374612235,0.0,-0.10486413503325055
0.13089929092337502,-0.012413563024533678,0.014628949913369013,0.013424879712299501,0.0,-0.10897179195440669
0.13089936357612264,-0.012580543979584441,0.015126408819680174,0.013883614049986767,0.0,-0.11307944887556283
0.13089943622887026,-0.012747524934635185,0.015623867725991282,0.014342348387673981,0.0,-0.11718710579671852
0.1308995088816179,-0.01291450588968595,0.016121326632302445,0.014801082725361247,0.0,-0.12129476271787466
0.1308995815343655,-0.013081486844736714,0.016618785538613602,0.015259817063048513,0.0,-0.12540241963903082
0.1308996384133161,-0.013123345949531844,0.016901352234768394,0.01552232336701692,0.0,-0.1280417116664159
0.1308996231834801,-0.012593219453158219,0.016201554541636787,0.014887787231127578,0.0,-0.12396847846513301
0.1308996079536441,-0.012063092956784652,0.015501756848505261,0.014253251095238308,0.0,-0.11989524526385059
0.13089959272380813,-0.01153296646041103,0.014801959155373655,0.013618714959348969,0.0,-0.11582201206256773
0.13089957749397216,-0.011002839964037406,0.01410216146224205,0.012984178823459628,0.0,-0.11174877886128486
0.13089956226413618,-0.01047271346766384,0.013402363769110522,0.012349642687570358,0.0,-0.10767554566000243
0.1308995470343002,-0.009942586971290215,0.012702566075978916,0.011715106551681016,0.0,-0.10360231245871956
0.13089953180446423,-0.009412460474916591,0.012002768382847313,0.011080570415791677,0.0,-0.09952907925743669
0.13089951657462826,-0.008882333978543027,0.011302970689715783,0.010446034279902407,0.0,-0.09545584605615427
0.13089950134479228,-0.008352207482169402,0.010603172996584179,0.009811498144013065,0.0,-0.0913826128548714
0.1308994861149563,-0.007822080985795777,0.009903375303452575,0.009176962008123724,0.0,-0.08730937965358854
0.1308994708851203,-0.007291954489422213,0.009203577610321046,0.008542425872234454,0.0,-0.08323614645230612
0.13089945565528432,-0.0067618279930485884,0.00850377991718944,0.007907889736345115,0.0,-0.07916291325102323
0.13089944042544835,-0.006231701496674964,0.007803982224057836,0.007273353600455773,0.0,-0.07508968004974037
0.13089942519561237,-0.005701575000301399,0.007104184530926308,0.006638817464566503,0.0,-0.07101644684845795
0.1308994099657764,-0.005171448503927775,0.006404386837794703,0.006004281328677164,0.0,-0.06694321364717508
0.13089939473594042,-0.0046413220075542105,0.005704589144663175,0.005369745192787894,0.0,-0.06286998044589266
0.13089937950610445,-0.0041111955111805855,0.005004791451531571,0.0047352090568985525,0.0,-0.05879674724460979
0.13089936427626847,-0.003581069014806962,0.004304993758399964,0.004100672921009211,0.0,-0.05472351404332691
0.1308993490464325,-0.003050942518433396,0.003605196065268438,0.003466136785119941,0.0,-0.050650280842044496
0.1308993338165965,-0.002520816022059773,0.0029053983721368318,0.0028316006492306017,0.0,-0.04657704764076162
0.13089931858676052,-0.0019906895256861477,0.0022056006790052273,0.0021970645133412604,0.0,-0.04250381443947876
0.13089930335692454,-0.0014605630293125817,0.0015058029858736992,0.0015625283774519903,0.0,-0.03843058123819633
0.13089928812708856,-0.0009304365329389584,0.000806005292742093,0.0009279922415626508,0.0,-0.03435734803691347
0.1308992728972526,-0.00040031003656533504,0.00010620759961048679,0.0002934561056733096,0.0,-0.030284114835630593
0.1308992576674166,0.00012981645980823103,-0.0005935900935210396,-0.0003410800302159622,0.0,-0.026210881634348177
0.13089924243758064,0.0006599429561818543,-0.0012933877866526458,-0.0009756161661053017,0.0,-0.0221376484330653
0.13089922720774466,0.0011900694525554204,-0.001993185479784172,-0.0016101523019945718,0.0,-0.018064415231782885
0.13089921197790866,0.0017201959489290455,-0.0026929831729157784,-0.0022446884378839113,0.0,-0.01399118203050001
0.13089919674807268,0.002250322445302669,-0.003392780866047381,-0.002879224573773251,0.0,-0.009917948829217135
0.1308991815182367,0.002780448941676235,-0.004092578559178911,-0.003513760709662521,0.0,-0.0058447156279347184
0.13089916628840073,0.00331057543804986,-0.004792376252310517,-0.004148296845551864,0.0,-0.0017714824266518436
0.13089915105856476,0.0038407019344234815,-0.00549217394544212,-0.004782832981441203,0.0,0.0023017507746310173
0.13089913582872878,0.0043708284307970476,-0.00619197163857365,-0.0054173691173304735,0.0,0.006374983975913434
0.1308991205988928,0.004900954927170673,-0.0068917693317052525,-0.006051905253219813,0.0,0.010448217177196323
0.13089910536905683,0.005431081423544294,-0.007591567024836859,-0.006686441389109156,0.0,0.014521450378479184
0.13089909013922085,0.00596120791991786,-0.008291364717968385,-0.007320977524998426,0.0,0.0185946835797616
0.13089907490938485,0.006491334416291485,-0.008991162411099991,-0.007955513660887766,0.0,0.02266791678104446
0.13089905967954887,0.007021460912665051,-0.009690960104231518,-0.008590049796777036,0.0,0.02674114998232688
0.1308990444497129,0.007551587409038676,-0.010390757797363124,-0.009224585932666375,0.0,0.030814383183609767
0.13089902921987692,0.008081713905412298,-0.01109055549049473,-0.009859122068555718,0.0,0.03488761638489263
0.13089901399004095,0.008611840401785864,-0.011790353183626257,-0.010493658204444988,0.0,0.038960849586175045
0.13089899876020497,0.009141966898159489,-0.012490150876757863,-0.011128194340334328,0.0,0.043034082787457933
0.130898983530369,0.009672093394533114,-0.013189948569889469,-0.011762730476223667,0.0,0.047107315988740794
0.13089896830053302,0.010202219890906677,-0.013889746263020995,-0.012397266612112937,0.0,0.05118054919002321
0.13089895307069704,0.010732346387280302,-0.014589543956152598,-0.01303180274800228,0.0,0.0552537823913061
0.13089893784086104,0.011262472883653927,-0.015289341649284208,-0.01366633888389162,0.0,0.05932701559258896
0.13089892261102506,0.011792599380027493,-0.015989139342415734,-0.01430087501978089,0.0,0.06340024879387138
0.1308989073811891,0.012322725876401115,-0.016688937035547337,-0.01493541115567023,0.0,0.06747348199515424
0.1308988921513531,0.01285285237277474,-0.017388734728678946,-0.015569947291559569,0.0,0.07154671519643713
0.13089887692151714,0.013382978869148306,-0.018088532421810473,-0.01620448342744884,0.0,0.07561994839771954
0.13089886169168116,0.01391310536552193,-0.018788330114942076,-0.01683901956333818,0.0,0.0796931815990024
0.13089886653926974,0.01378693682281606,-0.01809755843658818,-0.016242350681506427,0.0,0.07743542619345932
0.13089887305997705,0.013606077026853505,-0.01729090597727697,-0.01554308138153109,0.0,0.07465008840401335
0.13089887958068436,0.01342521723089095,-0.01648425351796576,-0.014843812081555751,0.0,0.0718647506145674
0.13089888610139166,0.013244357434928416,-0.015677601058654643,-0.01414454278158049,0.0,0.06907941282512176
0.13089889262209897,0.013063497638965861,-0.014870948599343434,-0.013445273481605152,0.0,0.06629407503567579
0.13089889914280628,0.012882637843003307,-0.014064296140032226,-0.012746004181629814,0.0,0.06350873724622984
0.1308989056635136,0.012701778047040773,-0.013257643680721107,-0.012046734881654555,0.0,0.06072339945678419
0.13089891218422087,0.012520918251078218,-0.012450991221409899,-0.011347465581679216,0.0,0.05793806166733823
0.13089891870492817,0.012340058455115663,-0.01164433876209869,-0.010648196281703878,0.0,0.055152723877892273
0.13089892522563548,0.01215919865915313,-0.010837686302787572,-0.009948926981728617,0.0,0.05236738608844663
0.1308989317463428,0.011978338863190574,-0.010031033843476363,-0.009249657681753279,0.0,0.04958204829900067
0.1308989382670501,0.01179747906722804,-0.009224381384165245,-0.008550388381778018,0.0,0.04679671050955502
0.1308989447877574,0.011616619271265486,-0.008417728924854036,-0.00785111908180268,0.0,0.04401137272010906
0.1308989513084647,0.011435759475302933,-0.007611076465542828,-0.0071518497818273425,0.0,0.041226034930663104
0.13089895782917202,0.011254899679340397,-0.0068044240062317095,-0.006452580481852082,0.0,0.03844069714121746
0.13089896434987933,0.011074039883377842,-0.005997771546920501,-0.005753311181876743,0.0,0.0356553593517715
0.13089897087058663,0.010893180087415289,-0.005191119087609294,-0.005054041881901405,0.0,0.03287002156232554
0.1308989773912939,0.010712320291452753,-0.004384466628298174,-0.004354772581926144,0.0,0.030084683772879893
0.13089898391200122,0.0105314604954902,-0.003577814168986967,-0.0036555032819508056,0.0,0.027299345983433934
0.13089899043270853,0.010350600699527646,-0.002771161709675757,-0.002956233981975467,0.0,0.024514008193987982
0.13089899695341584,0.010169740903565112,-0.0019645092503646384,-0.0022569646820002065,0.0,0.02172867040454233
0.13089900347412314,0.009988881107602557,-0.0011578567910534299,-0.0015576953820248696,0.0,0.018943332615096377
0.13089900999483045,0.009808021311640023,-0.0003512043317423115,-0.0008584260820496091,0.0,0.016157994825650723
0.13089901651553776,0.009627161515677468,0.0004554481275688971,-0.0001591567820742705,0.0,0.013372657036204771
0.13089902303624507,0.009446301719714913,0.0012621005868801022,0.0005401125179010681,0.0,0.010587319246758806
0.13089902955695237,0.00926544192375238,0.002068753046191224,0.0012393818178763304,0.0,0.007801981457313159
0.13089903607765968,0.009084582127789825,0.002875405505502429,0.0019386511178516655,0.0,0.005016643667867207
0.13089904259836696,0.00890372233182727,0.0036820579648136377,0.002637920417827004,0.0,0.0022313058784212414
0.13089904911907427,0.008722862535864736,0.004488710424124756,0.0033371897178022664,0.0,-0.0005540319110244052
0.13089905563978158,0.008542002739902181,0.005295362883435965,0.004036459017777605,0.0,-0.003339369700470357
0.13089906216048888,0.008361142943939626,0.006102015342747173,0.0047357283177529436,0.0,-0.006124707489916309
0.1308990686811962,0.008180283147977092,0.006908667802058292,0.005434997617728202,0.0,-0.00891004527936197
0.1308990752019035,0.007999423352014538,0.0077153202613695,0.006134266917703541,0.0,-0.011695383068807921
0.1308990817226108,0.007818563556052004,0.008521972720680619,0.006833536217678803,0.0,-0.014480720858253568
0.1308990882433181,0.007637703760089449,0.009328625179991827,0.007532805517654138,0.0,-0.017266058647699534
0.13089909476402542,0.007456843964126895,0.010135277639303036,0.008232074817629477,0.0,-0.020051396437145486
0.1308991012847327,0.00727598416816436,0.010941930098614154,0.00893134411760474,0.0,-0.022836734226591132
0.13089910780544,0.007095124372201805,0.011748582557925363,0.009630613417580078,0.0,-0.025622072016037084
0.13089911432614731,0.0069142645762392515,0.012555235017236571,0.010329882717555416,0.0,-0.02840740980548305
0.13089912084685462,0.006733404780276717,0.013361887476547693,0.011029152017530675,0.0,-0.031192747594928696
0.13089912736756193,0.006552544984314163,0.014168539935858898,0.011728421317506014,0.0,-0.03397808538437465
0.13089913388826924,0.006371685188351608,0.014975192395170103,0.012427690617481352,0.0,-0.036763423173820614
0.13089914040897654,0.006190825392389074,0.015781844854481225,0.013126959917456611,0.0,-0.03954876096326626
0.13089914692968385,0.00600996559642652,0.01658849731379243,0.01382622921743195,0.0,-0.04233409875271221
0.13089915345039116,0.005829105800463965,0.017395149773103642,0.014525498517407288,0.0,-0.045119436542158164
0.13089915997109847,0.00564824600450143,0.018201802232414757,0.01522476781738255,0.0,-0.04790477433160381
0.13089916649180575,0.0054673862085388766,0.01900845469172597,0.01592403711735789,0.0,-0.05069011212104979
0.13089917301251305,0.005286526412576341,0.019815107151037084,0.01662330641733315,0.0,-0.05347544991049544
0.13089917953322036,0.005105666616613788,0.020621759610348296,0.01732257571730849,0.0,-0.05626078769994139
0.13089918605392767,0.004924806820651233,0.0214284120696595,0.018021845017283822,0.0,-0.05904612548938734
0.13089919257463498,0.004743947024688699,0.022235064528970623,0.018721114317259084,0.0,-0.06183146327883299
0.13089918531646372,0.004586440634628198,0.021883972336928206,0.018445604716337806,0.0,-0.06121463189396178
0.13089917116885322,0.004440610947518727,0.020954007819208885,0.01768270566496814,0.0,-0.058896715921931714
0.1308991570212427,0.004294781260409272,0.020024043301489665,0.01691980661359856,0.0,-0.056578799949901906
0.13089914287363216,0.004148951573299801,0.019094078783770344,0.016156907562228894,0.0,-0.054260883977871835
0.13089912872602164,0.00400312188619033,0.01816411426605102,0.015394008510859227,0.0,-0.05194296800584177
0.13089911457841114,0.003857292199080876,0.017234149748331803,0.014631109459489644,0.0,-0.049625052033811956
0.1308991004308006,0.003711462511971405,0.01630418523061248,0.01386821040811998,0.0,-0.04730713606178189
0.13089908628319008,0.0035656328248619504,0.015374220712893263,0.013105311356750398,0.0,-0.04498922008975208
0.13089907213557955,0.0034198031377524795,0.01444425619517394,0.012342412305380732,0.0,-0.04267130411772201
0.13089905798796905,0.003273973450643009,0.013514291677454618,0.011579513254011065,0.0,-0.04035338814569195
0.13089904384035853,0.003128143763533554,0.0125843271597354,0.010816614202641484,0.0,-0.038035472173662134
0.130899029692748,0.0029823140764240834,0.011654362642016077,0.010053715151271818,0.0,-0.03571755620163207
0.13089901554513747,0.0028364843893146125,0.010724398124296755,0.009290816099902151,0.0,-0.033399640229602
0.13089900139752697,0.002690654702205158,0.009794433606577536,0.00852791704853257,0.0,-0.03108172425757219
0.13089898724991644,0.002544825015095687,0.008864469088858214,0.007765017997162903,0.0,-0.02876380828554212
0.13089897310230592,0.002398995327986216,0.007934504571138893,0.007002118945793237,0.0,-0.026445892313512055
0.1308989589546954,0.0022531656408767615,0.007004540053419673,0.006239219894423656,0.0,-0.024127976341482248
0.1308989448070849,0.0021073359537672905,0.006074575535700351,0.005476320843053989,0.0,-0.021810060369452176
0.13089893065947436,0.001961506266657836,0.005144611017981134,0.004713421791684408,0.0,-0.01949214439742237
0.13089891651186383,0.001815676579548365,0.00421464650026181,0.003950522740314743,0.0,-0.017174228425392297
0.1308989023642533,0.0016698468924388945,0.0032846819825424894,0.003187623688945075,0.0,-0.014856312453362233
0.1308988882166428,0.0015240172053294396,0.0023547174648232694,0.0024247246375754955,0.0,-0.012538396481332419
0.13089887406903228,0.001378187518219969,0.0014247529471039487,0.0016618255862058291,0.0,-0.010220480509302354
0.13089885992142175,0.001232357831110498,0.000494788429384628,0.0008989265348361627,0.0,-0.007902564537272283
0.13089884577381122,0.001086528144001043,-0.00043517608833459204,0.00013602748346657964,0.0,-0.0055846485652424754
0.13089883162620072,0.0009406984568915725,-0.0013651406060539127,-0.0006268715679030867,0.0,-0.003266732593212411
0.1308988174785902,0.0007948687697821016,-0.002295105123773237,-0.0013897706192727496,0.0,-0.0009488166211823398
0.13089880333097967,0.0006490390826726471,-0.0032250696414924535,-0.0021526696706423327,0.0,0.0013690993508474747
0.13089878918336914,0.0005032093955631761,-0.004155034159211778,-0.002915568722011999,0.0,0.003687015322877532
0.13089877503575864,0.0003573797084537051,-0.005084998676931098,-0.0036784677733816655,0.0,0.006004931294907603
0.1308987608881481,0.0002115500213442506,-0.006014963194650318,-0.004441366824751245,0.0,0.008322847266937411
0.13089874674053759,6.572033423477962e-05,-0.006944927712369639,-0.0052042658761209115,0.0,0.010640763238967482
0.13089873259292706,-8.010935287467488e-05,-0.007874892230088859,-0.005967164927490495,0.0,0.01295867921099729
0.13089871844531656,-0.00022593903998414586,-0.008804856747808183,-0.006730063978860161,0.0,0.015276595183027361
0.13089870429770603,-0.00037176872709361684,-0.0097348212655275,-0.007492963030229827,0.0,0.017594511155057432
0.1308986901500955,-0.0005175984142030713,-0.01066478578324672,-0.008255862081599407,0.0,0.01991242712708724
0.13089867600248498,-0.0006634281013125423,-0.011594750300966045,-0.009018761132969073,0.0,0.02223034309911731
0.13089866185487448,-0.0008092577884220133,-0.012524714818685362,-0.00978166018433874,0.0,0.02454825907114737
0.13089864770726395,-0.0009550874755314678,-0.013454679336404582,-0.010544559235708323,0.0,0.026866175043177176
0.13089863355965342,-0.0011009171626409388,-0.014384643854123906,-0.01130745828707799,0.0,0.029184091015207247
0.1308986194120429,-0.001246746849750409,-0.01531460837184323,-0.012070357338447652,0.0,0.03150200698723732
0.1308986052644324,-0.0013925765368598643,-0.016244572889562443,-0.012833256389817235,0.0,0.033819922959267126
0.13089859111682187,-0.0015384062239693344,-0.017174537407281767,-0.013596155441186898,0.0,0.0361378389312972
0.13089857696921134,-0.0016842359110787897,-0.018104501925000988,-0.014359054492556485,0.0,0.038455754903327005
0.1308985628216008,-0.0018300655981882599,-0.01903446644272031,-0.015121953543926148,0.0,0.040773670875357076
0.1308985486739903,-0.001975895285297731,-0.01996443096043963,-0.015884852595295818,0.0,0.043091586847387134
0.13089853452637978,-0.0021217249724071853,-0.02089439547815885,-0.016647751646665397,0.0,0.045409502819416955
0.13089852037876926,-0.0022675546595166563,-0.021824359995878173,-0.01741065069803506,0.0,0.04772741879144701
0.13089850623115873,-0.0024133843466261273,-0.02275432451359749,-0.01817354974940473,0.0,0.050045334763477084
0.13089849208354823,-0.002559214033735582,-0.02368428903131671,-0.01893644880077431,0.0,0.05236325073550689
0.1308984779359377,-0.0027050437208450528,-0.024614253549036035,-0.01969934785214398,0.0,0.05468116670753696
0.1308984787634681,-0.0027583450576481603,-0.024755403067587244,-0.019792257397187426,0.0,0.05525372593204852
0.1308985011177636,-0.0026786368908858684,-0.0237626310248343,-0.018922057026886936,0.0,0.05331733483200217
0.1308985234720591,-0.002598928724123568,-0.02276985898208125,-0.018051856656586353,0.0,0.051380943731955606
0.13089854582635457,-0.002519220557361276,-0.02177708693932831,-0.017181656286285863,0.0,0.04944455263190926
0.13089856818065007,-0.0024395123905989755,-0.020784314896575257,-0.016311455915985276,0.0,0.04750816153186269
0.13089859053494557,-0.0023598042238366745,-0.019791542853822206,-0.015441255545684691,0.0,0.04557177043181613
0.13089861288924107,-0.0022800960570743827,-0.018798770811069263,-0.014571055175384203,0.0,0.04363537933176978
0.13089863524353657,-0.0022003878903120817,-0.017805998768316213,-0.013700854805083616,0.0,0.041698988231723216
0.13089865759783204,-0.002120679723549781,-0.01681322672556316,-0.012830654434783033,0.0,0.03976259713167665
0.13089867995212753,-0.0020409715567874893,-0.01582045468281022,-0.011960454064482543,0.0,0.037826206031630304
0.13089870230642303,-0.0019612633900251888,-0.014827682640057167,-0.011090253694181958,0.0,0.03588981493158374
0.13089872466071853,-0.0018815552232628878,-0.013834910597304117,-0.010220053323881373,0.0,0.033953423831537176
0.13089874701501403,-0.0018018470565005962,-0.012842138554551175,-0.009349852953580883,0.0,0.03201703273149083
0.1308987693693095,-0.0017221388897382954,-0.011849366511798123,-0.008479652583280298,0.0,0.030080641631444263
0.130898791723605,-0.0016424307229759947,-0.01085659446904507,-0.007609452212979713,0.0,0.0281442505313977
0.1308988140779005,-0.0015627225562137028,-0.00986382242629213,-0.006739251842679223,0.0,0.02620785943135135
0.130898836432196,-0.001483014389451402,-0.008871050383539077,-0.005869051472378638,0.0,0.024271468331304787
0.13089885878649146,-0.0014033062226891102,-0.007878278340786138,-0.00499885110207815,0.0,0.022335077231258438
0.13089888114078696,-0.0013235980559268095,-0.006885506298033084,-0.004128650731777563,0.0,0.020398686131211874
0.13089890349508246,-0.0012438898891645087,-0.005892734255280033,-0.00325845036147698,0.0,0.01846229503116531
0.13089892584937796,-0.0011641817224022168,-0.0048999622125270904,-0.00238824999117649,0.0,0.01652590393111896
0.13089894820367345,-0.0010844735556399163,-0.00390719016977404,-0.0015180496208759033,0.0,0.014589512831072397
0.13089897055796892,-0.0010047653888776156,-0.0029144181270209894,-0.0006478492505753199,0.0,0.012653121731025833
0.13089899291226442,-0.0009250572221153237,-0.0019216460842680465,0.00022235111972516985,0.0,0.010716730630979485
0.13089901526655992,-0.000845349055353023,-0.000928874041514996,0.0010925514900257532,0.0,0.00878033953093292
0.13089903762085542,-0.0007656408885907224,6.3898001238058e-05,0.00196275186032634,0.0,0.006843948430886357
0.13089905997515092,-0.0006859327218284306,0.0010566700439909975,0.00283295223062683,0.0,0.004907557330840008
0.1308990823294464,-0.0006062245550661296,0.002049442086744048,0.0037031526009274132,0.0,0.002971166230793444
0.13089910468374188,-0.0005265163883038377,0.003042214129496991,0.004573352971227903,0.0,0.0010347751307470954
0.13089912703803738,-0.0004468082215415372,0.0040349861722500414,0.00544355334152849,0.0,-0.0009016159692994685
0.13089914939233288,-0.00036710005477923625,0.005027758215003095,0.006313753711829073,0.0,-0.0028380070693460324
0.13089917174662838,-0.0002873918880169444,0.006020530257756035,0.007183954082129563,0.0,-0.004774398169392381
0.13089919410092385,-0.00020768372125464386,0.007013302300509089,0.00805415445243015,0.0,-0.006710789269438952
0.13089921645521935,-0.0001279755544923429,0.008006074343262136,0.008924354822730733,0.0,-0.008647180369485516
0.13089923880951485,-4.826738773005103e-05,0.008998846386015079,0.009794555193031223,0.0,-0.010583571469531858
0.13089926116381034,3.14407790322495e-05,0.009991618428768133,0.010664755563331806,0.0,-0.012519962569578422
0.1308992835181058,0.00011114894579455003,0.010984390471521187,0.011534955933632393,0.0,-0.014456353669624986
0.1308993058724013,0.0001908571125568419,0.011977162514274123,0.01240515630393288,0.0,-0.01639274476967134
0.1308993282266968,0.00027056527931914286,0.012969934557027177,0.01327535667423347,0.0,-0.018329135869717905
0.1308993505809923,0.0003502734460814347,0.01396270659978012,0.014145557044533956,0.0,-0.020265526969764247
0.1308993729352878,0.00042998161284373525,0.014955478642533174,0.01501575741483454,0.0,-0.02220191806981081
0.13089939528958328,0.0005096897796060362,0.01594825068528622,0.01588595778513513,0.0,-0.024138309169857375
0.13089941764387877,0.0005893979463683281,0.016941022728039164,0.016756158155435616,0.0,-0.02607470026990373
0.13089943999817427,0.0006691061131306286,0.017933794770792218,0.0176263585257362,0.0,-0.028011091369950294
0.13089946235246977,0.0007488142798929296,0.018926566813545265,0.01849655889603679,0.0,-0.02994748246999686
0.13089948470676527,0.0008285224466552214,0.019919338856298208,0.019366759266337276,0.0,-0.0318838735700432
0.13089950706106074,0.000908230613417522,0.02091211089905126,0.02023695963663786,0.0,-0.033820264670089764
0.13089952941535624,0.0009879387801798225,0.02190488294180431,0.02110716000693845,0.0,-0.03575665577013633
0.13089955176965173,0.0010676469469421144,0.02289765498455725,0.021977360377238936,0.0,-0.037693046870182684
0.13089957412394723,0.0011473551137044149,0.023890427027310306,0.02284756074753952,0.0,-0.03962943797022925
0.1308995964782427,0.0012270632804667067,0.02488319907006325,0.023717761117840012,0.0,-0.04156582907027559
0.13089960597686578,0.001292532724558917,0.025571070681602723,0.02428890184986504,0.0,-0.04301854808230911
0.13089954476929044,0.0012796891939656232,0.02458198992146742,0.023215214571374425,0.0,-0.0418110706102707
0.1308994835617151,0.0012668456633723303,0.02359290916133223,0.02214152729288393,0.0,-0.040603593138232426
0.13089942235413976,0.0012540021327790364,0.02260382840119693,0.021067840014393317,0.0,-0.039396115666194026
0.13089936114656442,0.0012411586021857423,0.021614747641061624,0.019994152735902705,0.0,-0.03818863819415562
0.1308992999389891,0.0012283150715924496,0.020625666880926433,0.01892046545741221,0.0,-0.03698116072211735
0.13089923873141376,0.0012154715409991555,0.01963658612079113,0.017846778178921597,0.0,-0.035773683250078944
0.13089917752383842,0.0012026280104058614,0.01864750536065583,0.016773090900430984,0.0,-0.03456620577804054
0.13089911631626308,0.0011897844798125687,0.01765842460052064,0.015699403621940486,0.0,-0.03335872830600227
0.13089905510868774,0.0011769409492192746,0.016669343840385334,0.014625716343449873,0.0,-0.03215125083396386
0.1308989939011124,0.0011640974186259805,0.015680263080250036,0.01355202906495926,0.0,-0.03094377336192546
0.13089893269353708,0.0011512538880326878,0.014691182320114841,0.012478341786468766,0.0,-0.029736295889887188
0.13089887148596174,0.0011384103574393937,0.01370210155997954,0.011404654507978151,0.0,-0.028528818417848784
0.1308988102783864,0.001125566826846101,0.012713020799844347,0.010330967229487658,0.0,-0.027321340945810513
0.13089874907081106,0.001112723296252807,0.011723940039709045,0.009257279950997043,0.0,-0.02611386347377211
0.13089868786323572,0.001099879765659513,0.010734859279573744,0.008183592672506429,0.0,-0.024906386001733706
0.1308986266556604,0.0010870362350662202,0.009745778519438551,0.007109905394015934,0.0,-0.023698908529695435
0.13089856544808506,0.001074192704472926,0.00875669775930325,0.006036218115525321,0.0,-0.022491431057657028
0.13089850424050972,0.001061349173879632,0.007767616999167948,0.004962530837034709,0.0,-0.021283953585618624
0.13089844303293438,0.0010485056432863395,0.006778536239032757,0.003888843558544214,0.0,-0.020076476113580353
0.13089838182535904,0.0010356621126930453,0.005789455478897455,0.002815156280053601,0.0,-0.01886899864154195
0.13089832061778373,0.0010228185820997512,0.004800374718762154,0.0017414690015629848,0.0,-0.017661521169503546
0.13089825941020838,0.0010099750515064586,0.0038112939586269594,0.00066778172307249,0.0,-0.016454043697465275
0.13089819820263304,0.0009971315209131644,0.0028222131984916576,-0.00040590555541812276,0.0,-0.015246566225426868
0.1308981369950577,0.0009842879903198718,0.001833132438356467,-0.0014795928339086176,0.0,-0.0140390887533886
0.13089807578748236,0.0009714444597265777,0.0008440516782211652,-0.0025532801123992303,0.0,-0.012831611281350193
0.13089801457990705,0.0009586009291332835,-0.00014502908191413658,-0.003626967390889843,0.0,-0.011624133809311786
0.1308979533723317,0.0009457573985399909,-0.0011341098420493308,-0.004700654669380338,0.0,-0.010416656337273518
0.13089789216475636,0.0009329138679466968,-0.0021231906021846325,-0.005774341947870954,0.0,-0.009209178865235111
0.13089783095718102,0.0009200703373534027,-0.0031122713623199343,-0.0068480292263615634,0.0,-0.008001701393196711
0.13089776974960568,0.00090722680676011,-0.004101352122455125,-0.007921716504852062,0.0,-0.006794223921158436
0.13089770854203034,0.000894383276166816,-0.005090432882590427,-0.008995403783342671,0.0,-0.005586746449120036
0.13089764733445503,0.000881539745573522,-0.006079513642725732,-0.010069091061833287,0.0,-0.0043792689770816295
0.13089758612687968,0.0008686962149802292,-0.007068594402860919,-0.011142778340323786,0.0,-0.0031717915050433615
0.13089752491930434,0.0008558526843869352,-0.008057675162996224,-0.012216465618814395,0.0,-0.0019643140330049547
0.130897463711729,0.0008430091537936425,-0.009046755923131419,-0.013290152897304893,0.0,-0.0007568365609666797
0.13089740250415366,0.0008301656232003484,-0.010035836683266717,-0.014363840175795502,0.0,0.0004506409110717202
0.13089734129657835,0.0008173220926070543,-0.011024917443402022,-0.015437527454286119,0.0,0.001658118383110127
0.130897280089003,0.0008044785620137616,-0.01201399820353721,-0.01651121473277661,0.0,0.002865595855148395
0.13089721888142766,0.0007916350314204675,-0.013003078963672515,-0.017584902011267226,0.0,0.004073073327186802
0.13089715767385232,0.0007787915008271734,-0.013992159723807813,-0.018658589289757842,0.0,0.005280550799225209
0.13089709646627698,0.0007659479702338808,-0.014981240483943007,-0.019732276568248334,0.0,0.006488028271263477
0.13089703525870167,0.0007531044396405866,-0.015970321244078312,-0.02080596384673895,0.0,0.007695505743301884
0.13089697405112632,0.0007402609090472926,-0.01695940200421361,-0.02187965112522956,0.0,0.008902983215340284
0.13089691284355098,0.0007274173784539999,-0.017948482764348805,-0.022953338403720058,0.0,0.010110460687378559
0.13089685163597564,0.0007145738478607058,-0.018937563524484103,-0.024027025682210674,0.0,0.011317938159416958
0.1308967904284003,0.0007017303172674117,-0.019926644284619408,-0.025100712960701283,0.0,0.012525415631455365
0.130896729220825,0.0006888867866741191,-0.020915725044754602,-0.02617440023919178,0.0,0.01373289310349364
0.13089666801324965,0.0006760432560808249,-0.0219048058048899,-0.02724808751768239,0.0,0.01494037057553204
0.1308966068056743,0.0006631997254875323,-0.022893886565025095,-0.02832177479617289,0.0,0.016147848047570315
0.13089654559809896,0.0006503561948942382,-0.023882967325160393,-0.0293954620746635,0.0,0.017355325519608715
0.13089648439052362,0.0006375126643009441,-0.0248720480852957,-0.030469149353154115,0.0,0.018562802991647122
0.13089620009399952,0.002916866870425459,-0.024086641060918193,-0.02952550085956653,0.0,0.01840664798526903
0.13089589030159554,0.0054581865321751645,-0.02309843543259626,-0.028351299706312727,0.0,0.01809464926707188
0.13089558050919156,0.00799950619392487,-0.022110229804274326,-0.02717709855305893,0.0,0.01778265054887473
0.13089527071678758,0.010540825855674294,-0.021122024175952506,-0.026002897399805255,0.0,0.017470651830677617
0.1308949609243836,0.013082145517424,-0.02013381854763057,-0.024828696246551457,0.0,0.017158653112480465
0.13089465113197962,0.015623465179173705,-0.01914561291930864,-0.023654495093297655,0.0,0.016846654394283317
0.13089434133957564,0.018164784840923126,-0.018157407290986815,-0.022480293940043986,0.0,0.0165346556760862
0.13089403154717166,0.020706104502672833,-0.017169201662664883,-0.02130609278679018,0.0,0.01622265695788905
0.13089372175476768,0.023247424164422256,-0.01618099603434306,-0.020131891633536514,0.0,0.015910658239691938
0.1308934119623637,0.02578874382617196,-0.015192790406021124,-0.01895769048028271,0.0,0.015598659521494786
0.13089310216995972,0.028330063487921667,-0.014204584777699193,-0.01778348932702891,0.0,0.015286660803297637
0.13089279237755574,0.03087138314967109,-0.013216379149377368,-0.01660928817377524,0.0,0.014974662085100522
0.13089248258515176,0.033412702811420794,-0.012228173521055435,-0.015435087020521439,0.0,0.014662663366903372
0.13089217279274779,0.0359540224731705,-0.011239967892733502,-0.014260885867267637,0.0,0.014350664648706223
0.1308918630003438,0.038495342134919924,-0.01025176226441168,-0.013086684714013967,0.0,0.014038665930509106
0.13089155320793983,0.04103666179666963,-0.009263556636089746,-0.011912483560760165,0.0,0.013726667212311958
0.13089124341553585,0.04357798145841933,-0.008275351007767814,-0.010738282407506367,0.0,0.013414668494114807
0.13089093362313187,0.04611930112016876,-0.00728714537944599,-0.009564081254252694,0.0,0.013102669775917692
0.1308906238307279,0.04866062078191846,-0.006298939751124055,-0.008389880100998896,0.0,0.012790671057720544
0.1308903140383239,0.05120194044366789,-0.005310734122802235,-0.007215678947745222,0.0,0.012478672339523426
0.13089000424591993,0.05374326010541759,-0.0043225284944802995,-0.006041477794491424,0.0,0.012166673621326278
0.13088969445351595,0.056284579767167296,-0.003334322866158368,-0.004867276641237622,0.0,0.011854674903129128
0.13088938466111197,0.05882589942891672,-0.002346117237836544,-0.0036930754879839524,0.0,0.011542676184932012
0.130889074868708,0.061367219090666426,-0.0013579116095146088,-0.0025188743347301507,0.0,0.011230677466734864
0.130888765076304,0.06390853875241613,-0.00036970598119267714,-0.001344673181476349,0.0,0.010918678748537712
0.13088845528390003,0.06644985841416555,0.0006184996471291469,-0.00017047202822267904,0.0,0.010606680030340598
0.13088814549149605,0.06899117807591526,0.0016067052754510786,0.0010037291250311227,0.0,0.010294681312143448
0.13088783569909207,0.07153249773766497,0.0025949109037730136,0.002177930278284921,0.0,0.009982682593946298
0.1308875259066881,0.07407381739941439,0.0035831165320948342,0.0033521314315385943,0.0,0.009670683875749183
0.13088721611428414,0.0766151370611641,0.004571322160416769,0.0045263325847923926,0.0,0.009358685157552034
0.13088690632188016,0.0791564567229138,0.005559527788738701,0.005700533738046198,0.0,0.009046686439354884
0.13088659652947618,0.08169777638466323,0.0065477334170605216,0.006874734891299864,0.0,0.008734687721157769
0.1308862867370722,0.08423909604641293,0.007535939045382457,0.00804893604455367,0.0,0.008422689002960618
0.13088597694466822,0.08678041570816235,0.00852414467370428,0.009223137197807336,0.0,0.008110690284763503
0.13088566715226424,0.08932173536991206,0.009512350302026216,0.010397338351061141,0.0,0.0077986915665663546
0.13088535735986026,0.09186305503166177,0.010500555930348151,0.01157153950431494,0.0,0.007486692848369204
0.13088504756745628,0.09440437469341119,0.011488761558669968,0.012745740657568613,0.0,0.007174694130172089
0.1308847377750523,0.0969456943551609,0.012476967186991903,0.01391994181082241,0.0,0.006862695411974939
0.13088442798264832,0.0994870140169106,0.013465172815313838,0.015094142964076209,0.0,0.006550696693777789
0.13088411819024434,0.10202833367866002,0.014453378443635662,0.016268344117329882,0.0,0.006238697975580675
0.13088380839784036,0.10456965334040973,0.01544158407195759,0.01744254527058368,0.0,0.005926699257383525
0.13088349860543638,0.10711097300215944,0.016429789700279526,0.018616746423837486,0.0,0.005614700539186375
0.1308831888130324,0.10965229266390886,0.01741799532860135,0.019790947577091152,0.0,0.005302701820989259
0.13088287902062842,0.11219361232565857,0.018406200956923285,0.020965148730344958,0.0,0.004990703102792109
0.13088256922822444,0.11473493198740799,0.01939440658524511,0.022139349883598624,0.0,0.004678704384594995
0.13088225943582046,0.1172762516491577,0.020382612213567037,0.02331355103685243,0.0,0.004366705666397845
0.13088194964341648,0.1198175713109074,0.021370817841888972,0.024487752190106227,0.0,0.004054706948200695
0.1308816398510125,0.12235889097265681,0.022359023470210796,0.0256619533433599,0.0,0.0037427082300035795
0.13088133005860852,0.12490021063440652,0.02334722909853273,0.0268361544966137,0.0,0.003430709511806431
0.13088102026620455,0.12744153029615624,0.02433543472685466,0.028010355649867504,0.0,0.003118710793609281
0.13088071047380057,0.12998284995790566,0.025323640355176483,0.02918455680312117,0.0,0.0028067120754121655
0.12760670882980313,0.13089507839756737,0.025010033260954495,0.02895822408907334,0.0,0.002629421906657634
0.12249943974891264,0.13089501575285942,0.023967411042107624,0.027947592409336294,0.0,0.0025275685255909987
0.11739217066802272,0.1308949531081515,0.02292478882326087,0.026936960729599363,0.0,0.002425715144524375
0.11228490158713222,0.13089489046344355,0.021882166604413996,0.025926329049862317,0.0,0.00232386176345774
0.1071776325062423,0.13089482781873563,0.020839544385567243,0.024915697370125382,0.0,0.0022220083823911163
0.1020703634253518,0.13089476517402768,0.019796922166720368,0.02390506569038834,0.0,0.002120155001324481
0.09696309434446132,0.13089470252931976,0.018754299947873497,0.022894434010651294,0.0,0.002018301620257846
0.09185582526357139,0.1308946398846118,0.017711677729026744,0.02188380233091436,0.0,0.0019164482391912222
0.0867485561826809,0.1308945772399039,0.016669055510179873,0.020873170651177317,0.0,0.0018145948581245873
0.08164128710179042,0.13089451459519594,0.015626433291333,0.019862538971440268,0.0,0.0017127414770579522
0.07653401802090049,0.13089445195048802,0.014583811072486243,0.018851907291703336,0.0,0.0016108880959913286
0.07142674894001,0.13089438930578007,0.013541188853639372,0.017841275611966294,0.0,0.0015090347149246935
0.0663194798591195,0.13089432666107215,0.0124985666347925,0.016830643932229244,0.0,0.0014071813338580586
0.06121221077822958,0.1308942640163642,0.011455944415945746,0.015820012252492313,0.0,0.0013053279527914347
0.056104941697339095,0.13089420137165628,0.010413322197098873,0.014809380572755267,0.0,0.0012034745717247996
0.050997672616448594,0.13089413872694833,0.009370699978252003,0.013798748893018221,0.0,0.0011016211906581647
0.04589040353555868,0.1308940760822404,0.008328077759405247,0.01278811721328129,0.0,0.0009997678095915409
0.04078313445466818,0.13089401343753246,0.0072854555405583755,0.011777485533544244,0.0,0.0008979144285249058
0.03567586537377826,0.13089395079282454,0.006242833321711619,0.01076685385380731,0.0,0.0007960610474582821
0.03056859629288776,0.1308938881481166,0.005200211102864748,0.009756222174070267,0.0,0.0006942076663916472
0.025461327211997273,0.13089382550340867,0.0041575888840178765,0.008745590494333221,0.0,0.0005923542853250121
0.02035405813110734,0.13089376285870072,0.00311496666517112,0.007734958814596286,0.0,0.0004905009042583883
0.015246789050216855,0.1308937002139928,0.0020723444463242487,0.006724327134859244,0.0,0.00038864752319175315
0.010139519969326369,0.13089363756928485,0.0010297222274773775,0.005713695455122198,0.0,0.00028679414212511804
0.005032250888436451,0.13089357492457693,-1.2899991369379193e-05,0.004703063775385263,0.0,0.00018494076105849463
-7.501819245406272e-05,0.13089351227986898,-0.0010555222102162504,0.0036924320956482175,0.0,8.308737999185951e-05
-0.005182287273344549,0.13089344963516106,-0.0020981444290631215,0.002681800415911175,0.0,-1.8766001074775607e-05
-0.01028955635423448,0.1308933869904531,-0.0031407666479098782,0.0016711687361742403,0.0,-0.00012061938214139945
-0.015396825435124967,0.1308933243457452,-0.004183388866756749,0.0006605370564371944,0.0,-0.00022247276320803457
-0.020504094516014898,0.13089326170103724,-0.005226011085603506,-0.0003500946232997369,0.0,-0.000324326144274658
-0.025611363596905384,0.13089319905632932,-0.006268633304450374,-0.0013607263030367828,0.0,-0.0004261795253412931
-0.03071863267779587,0.13089313641162137,-0.007311255523297245,-0.002371357982773825,0.0,-0.0005280329064079282
-0.0358259017586858,0.13089307376691345,-0.008353877742144005,-0.0033819896625107634,0.0,-0.000629886287474552
