marzuk-umich/fetch_joint_controls/test/Velocity Decay Logs/actual_all_joints.csv
Time,Joint_0,Joint_1,Joint_2,Joint_3,Joint_4,Joint_5,Joint_6
1744140033.5768225,0.6407038425109863,0.0010791473449707038,0.0011901572434663762,0.0012981222869873042,0.0004161984897613491,0.004537675799560548,9.650415315627658e-05
1744140033.5867863,0.6399366115234375,0.0018459014953613288,-0.0003436360420227061,0.0028321074249267573,3.307845959663047e-05,0.005304429949951173,-0.0010539772497177163
1744140033.5968356,0.6399366115234375,0.0014625244201660163,3.985837981700796e-05,0.0016814993621826167,3.307845959663047e-05,0.004153821887207032,-0.0002869846807479898
1744140033.6068275,0.6391698573730469,0.0006957702697753913,3.985837981700796e-05,0.0012981222869873042,0.0004161984897613491,0.006071660937500001,9.650415315627658e-05
1744140033.6167989,0.6391698573730469,0.0010791473449707038,0.00042335466430187124,0.002065114855957031,-0.0007339141093730961,0.005687807025146485,0.00048000043764113987
1744140033.6268167,0.6399366115234375,0.0006957702697753913,3.985837981700796e-05,-0.0002358628509521489,3.307845959663047e-05,0.00492105287475586,9.650415315627658e-05
1744140033.636854,0.6407038425109863,0.002613132482910157,3.985837981700796e-05,0.0016814993621826167,0.0008000673032760586,0.005304429949951173,0.00048000043764113987
1744140033.646808,0.6399366115234375,0.0018459014953613288,0.0008068490861415853,0.0016814993621826167,0.0004161984897613491,0.006071660937500001,0.00048000043764113987
1744140033.6568341,0.6399366115234375,0.0018459014953613288,3.985837981700796e-05,0.0024484919311523433,3.307845959663047e-05,0.004153821887207032,9.650415315627658e-05
1744140033.6668575,0.6395532344482422,0.0018459014953613288,-0.0003436360420227061,0.0016814993621826167,0.0004161984897613491,0.005687807025146485,9.650415315627658e-05
1744140033.676833,0.6407038425109863,0.0010791473449707038,-0.0007271323265075694,0.002065114855957031,0.0004161984897613491,0.004153821887207032,-0.0010539772497177163
1744140033.6868236,0.6407038425109863,0.0022297554077148445,-0.0003436360420227061,0.0016814993621826167,3.307845959663047e-05,0.006455038012695313,-0.0002869846807479898
1744140033.696817,0.6399366115234375,0.0014625244201660163,0.0008068490861415853,0.0016814993621826167,3.307845959663047e-05,0.005687807025146485,9.650415315627658e-05
1744140033.7068279,0.6399366115234375,0.0018459014953613288,3.985837981700796e-05,0.002065114855957031,0.0004161984897613491,0.004537675799560548,9.650415315627658e-05
1744140033.7168224,0.6399366115234375,0.0022297554077148445,-0.0003436360420227061,0.0016814993621826167,3.307845959663047e-05,0.00492105287475586,-0.0006704809652328531
1744140033.7268069,0.6399366115234375,0.0003119163574218757,0.00042335466430187124,0.0005311297180175777,0.0004161984897613491,0.005687807025146485,0.0008634967221260031
1744140033.7368495,0.6403199885986328,0.0018459014953613288,3.985837981700796e-05,0.0012981222869873042,3.307845959663047e-05,0.00492105287475586,9.650415315627658e-05
1744140033.746854,0.6399366115234375,0.0010791473449707038,3.985837981700796e-05,0.002065114855957031,0.0004161984897613491,0.004537675799560548,9.650415315627658e-05
1744140033.7567894,0.6399366115234375,0.0006957702697753913,0.0008068490861415853,0.0016814993621826167,0.0008000673032760586,0.004537675799560548,-0.0006704809652328531
1744140033.766803,0.6391698573730469,0.0018459014953613288,0.00042335466430187124,0.002065114855957031,0.0008000673032760586,0.005304429949951173,9.650415315627658e-05
1744140033.7768831,0.6399366115234375,-7.14607177734368e-05,-0.0003436360420227061,0.0012981222869873042,0.0004161984897613491,0.00492105287475586,0.00048000043764113987
1744140033.7868202,0.6399366115234375,0.0006957702697753913,-0.0007271323265075694,0.0012981222869873042,0.0008000673032760586,0.006071660937500001,0.00048000043764113987
1744140033.7968206,0.641470596661377,0.0018459014953613288,-0.0007271323265075694,0.002065114855957031,-0.0007339141093730961,0.005304429949951173,0.00048000043764113987
1744140033.8068058,0.6403199885986328,0.0010791473449707038,-0.0007271323265075694,0.002065114855957031,-0.0003504178248882328,0.004153821887207032,9.650415315627658e-05
1744140033.8168826,0.6410872195861816,0.0022297554077148445,3.985837981700796e-05,0.0012981222869873042,-0.0003504178248882328,0.004537675799560548,-0.0002869846807479898
1744140033.82684,0.6387860034606934,0.0022297554077148445,-0.0003436360420227061,0.0012981222869873042,0.0004161984897613491,0.00492105287475586,0.0008634967221260031
1744140033.8367958,0.6387860034606934,0.0014625244201660163,0.00042335466430187124,0.0016814993621826167,3.307845959663047e-05,0.004153821887207032,9.650415315627658e-05
1744140033.8468213,0.6395532344482422,0.0006957702697753913,-0.0003436360420227061,0.0028321074249267573,-0.0003504178248882328,0.004153821887207032,-0.0006704809652328531
1744140033.8568447,0.6395532344482422,0.0018459014953613288,0.00042335466430187124,0.0012981222869873042,0.0004161984897613491,0.006071660937500001,0.0012469930066108664
1744140033.866824,0.6403199885986328,0.0018459014953613288,0.00042335466430187124,0.0016814993621826167,-0.0003504178248882328,0.00492105287475586,0.00048000043764113987
1744140033.8768535,0.6391698573730469,0.0010791473449707038,3.985837981700796e-05,0.002065114855957031,0.0011835635877609219,0.00492105287475586,-0.0006704809652328531
1744140033.886832,0.6399366115234375,0.0014625244201660163,-0.0011106267483472834,0.0016814993621826167,3.307845959663047e-05,0.00492105287475586,9.650415315627658e-05
1744140033.8968503,0.6395532344482422,0.0014625244201660163,-0.0003436360420227061,0.0016814993621826167,-0.0007339141093730961,0.00492105287475586,-0.0002869846807479898
1744140033.9068227,0.6399366115234375,0.0010791473449707038,3.985837981700796e-05,0.0012981222869873042,3.307845959663047e-05,0.005304429949951173,-0.0006704809652328531
1744140033.9168446,0.6395532344482422,0.0014625244201660163,-0.0007271323265075694,0.0012981222869873042,0.0004161984897613491,0.005304429949951173,-0.0002869846807479898
1744140033.9267998,0.6395532344482422,0.0014625244201660163,3.985837981700796e-05,0.0012981222869873042,3.307845959663047e-05,0.005304429949951173,-0.0006704809652328531
1744140033.9368355,0.6407038425109863,0.0006957702697753913,-0.0003436360420227061,0.0012981222869873042,0.0004161984897613491,0.00492105287475586,-0.0006704809652328531
1744140033.946823,0.6399366115234375,0.002613132482910157,-0.0003436360420227061,0.0012981222869873042,-0.0003504178248882328,0.004537675799560548,-0.0010539772497177163
1744140033.9567997,0.6403199885986328,0.0018459014953613288,-0.0003436360420227061,0.0016814993621826167,-0.0003504178248882328,0.00492105287475586,9.650415315627658e-05
1744140033.9668026,0.6395532344482422,0.0022297554077148445,-0.0007271323265075694,0.0016814993621826167,3.307845959663047e-05,0.00492105287475586,-0.0002869846807479898
1744140033.9768448,0.6399366115234375,0.0018459014953613288,3.985837981700796e-05,0.002065114855957031,3.307845959663047e-05,0.004537675799560548,-0.0010539772497177163
1744140033.9868546,0.6403199885986328,0.0010791473449707038,-0.0003436360420227061,0.002065114855957031,-0.0007339141093730961,0.004153821887207032,9.650415315627658e-05
1744140033.996859,0.6403199885986328,0.0003119163574218757,-0.0003436360420227061,0.002065114855957031,0.0008000673032760586,0.00492105287475586,-0.0006704809652328531
1744140034.0068252,0.6395532344482422,0.0014625244201660163,-0.0007271323265075694,0.002065114855957031,3.307845959663047e-05,0.006455038012695313,0.00048000043764113987
1744140034.0168333,0.6399366115234375,0.0022297554077148445,3.985837981700796e-05,0.0016814993621826167,0.0011835635877609219,0.00492105287475586,-0.0006704809652328531
1744140034.0268495,0.6407038425109863,0.0018459014953613288,0.00042335466430187124,0.0012981222869873042,0.0004161984897613491,0.004153821887207032,-0.0002869846807479898
1744140034.036851,0.6395532344482422,0.0022297554077148445,3.985837981700796e-05,0.0005311297180175777,0.0015670561469554867,0.005687807025146485,-0.0006704809652328531
1744140034.0468628,0.6399366115234375,0.0010791473449707038,3.985837981700796e-05,0.0016814993621826167,-0.0007339141093730961,0.00492105287475586,-0.0002869846807479898
1744140034.0568573,0.6391698573730469,0.0010791473449707038,0.00042335466430187124,0.0009145067932128902,0.0015670561469554867,0.00492105287475586,0.00048000043764113987
1744140034.066836,0.6407038425109863,0.0014625244201660163,3.985837981700796e-05,0.0012981222869873042,-0.0015009048156976734,0.00492105287475586,9.650415315627658e-05
1744140034.0768564,0.6403199885986328,0.0010791473449707038,3.985837981700796e-05,0.0012981222869873042,-0.0003504178248882328,0.00492105287475586,-0.0010539772497177163
1744140034.0868075,0.6403199885986328,0.0022297554077148445,0.00042335466430187124,0.0016814993621826167,3.307845959663047e-05,0.00492105287475586,0.00048000043764113987
1744140034.096817,0.6403199885986328,0.0010791473449707038,0.0011901572434663762,0.0024484919311523433,3.307845959663047e-05,0.00492105287475586,0.00048000043764113987
1744140034.1068294,0.6399366115234375,0.0018459014953613288,-0.0007271323265075694,0.0009145067932128902,3.307845959663047e-05,0.00492105287475586,-0.0006704809652328531
1744140034.116852,0.6403199885986328,0.0003119163574218757,0.0008068490861415853,0.0012981222869873042,0.0004161984897613491,0.006071660937500001,-0.0010539772497177163
1744140034.1268287,0.6403199885986328,-7.14607177734368e-05,0.00042335466430187124,0.002065114855957031,3.307845959663047e-05,0.00492105287475586,9.650415315627658e-05
1744140034.1368093,0.6403199885986328,0.0022297554077148445,-0.0003436360420227061,0.0016814993621826167,-0.0003504178248882328,0.004537675799560548,-0.0006704809652328531
1744140034.1468177,0.6391698573730469,0.0010791473449707038,-0.0003436360420227061,0.0016814993621826167,3.307845959663047e-05,0.004537675799560548,-0.0002869846807479898
1744140034.156823,0.6403199885986328,0.0010791473449707038,3.985837981700796e-05,0.0012981222869873042,3.307845959663047e-05,0.005304429949951173,-0.0002869846807479898
1744140034.166822,0.641470596661377,0.0014625244201660163,-0.0003436360420227061,0.0016814993621826167,-0.0003504178248882328,0.005687807025146485,9.650415315627658e-05
1744140034.1768522,0.6399366115234375,0.0014625244201660163,-0.0007271323265075694,0.0009145067932128902,3.307845959663047e-05,0.005687807025146485,-0.0002869846807479898
1744140034.1868217,0.6391698573730469,0.0018459014953613288,0.00042335466430187124,0.002065114855957031,3.307845959663047e-05,0.006071660937500001,0.00048000043764113987
1744140034.196809,0.6391698573730469,0.0022297554077148445,0.0008068490861415853,0.0009145067932128902,0.0008000673032760586,0.00492105287475586,-0.0002869846807479898
1744140034.2068598,0.6403199885986328,0.002613132482910157,3.985837981700796e-05,0.0012981222869873042,0.0008000673032760586,0.004537675799560548,9.650415315627658e-05
1744140034.2168834,0.6391698573730469,0.0022297554077148445,0.0008068490861415853,0.0016814993621826167,3.307845959663047e-05,0.004537675799560548,0.0008634967221260031
1744140034.2268426,0.6399366115234375,0.0014625244201660163,3.985837981700796e-05,0.0016814993621826167,3.307845959663047e-05,0.004153821887207032,-0.0010539772497177163
1744140034.2368307,0.6407038425109863,0.0010791473449707038,3.985837981700796e-05,0.0012981222869873042,0.0019501799024105038,0.005687807025146485,9.650415315627658e-05
1744140034.2468646,0.6403199885986328,0.0018459014953613288,-0.0003436360420227061,0.0012981222869873042,3.307845959663047e-05,0.005687807025146485,0.00048000043764113987
1744140034.256856,0.6407038425109863,0.0014625244201660163,0.00042335466430187124,0.0012981222869873042,0.0004161984897613491,0.004153821887207032,0.0012469930066108664
1744140034.2667983,0.6403199885986328,0.0022297554077148445,-0.0003436360420227061,0.002065114855957031,-0.0003504178248882328,0.005304429949951173,-0.0002869846807479898
1744140034.2768455,0.6410872195861816,0.0018459014953613288,0.0011901572434663762,0.0012981222869873042,3.307845959663047e-05,0.004537675799560548,-0.0002869846807479898
1744140034.286837,0.6395532344482422,0.0018459014953613288,0.00042335466430187124,0.0005311297180175777,3.307845959663047e-05,0.005304429949951173,-0.0010539772497177163
1744140034.2968245,0.6395532344482422,0.0014625244201660163,-0.0007271323265075694,0.0016814993621826167,-0.0007339141093730961,0.00492105287475586,9.650415315627658e-05
1744140034.3068132,0.6403199885986328,0.0010791473449707038,0.0011901572434663762,0.0016814993621826167,0.0004161984897613491,0.006071660937500001,-0.0002869846807479898
1744140034.316851,0.6403199885986328,0.0018459014953613288,0.0008068490861415853,0.0012981222869873042,3.307845959663047e-05,0.00492105287475586,-0.0006704809652328531
1744140034.3268275,0.6399366115234375,0.0014625244201660163,-0.0003436360420227061,0.0012981222869873042,-0.0007339141093730961,0.005687807025146485,-0.0010539772497177163
1744140034.3368266,0.6403199885986328,0.0010791473449707038,0.0008068490861415853,0.0012981222869873042,-0.0007339141093730961,0.0037704448120117195,-0.0010539772497177163
1744140034.3468032,0.6399366115234375,0.0014625244201660163,-0.0003436360420227061,0.0012981222869873042,3.307845959663047e-05,0.005304429949951173,-0.0006704809652328531
1744140034.3568006,0.6399366115234375,0.0018459014953613288,0.00042335466430187124,0.0016814993621826167,0.0011835635877609219,0.005304429949951173,9.650415315627658e-05
1744140034.3668327,0.6407038425109863,0.0014625244201660163,0.00042335466430187124,0.0012981222869873042,-0.0003504178248882328,0.005687807025146485,9.650415315627658e-05
1744140034.3768177,0.6399366115234375,0.0014625244201660163,0.00042335466430187124,0.0012981222869873042,0.0011835635877609219,0.004537675799560548,9.650415315627658e-05
1744140034.3868592,0.6399366115234375,0.0006957702697753913,0.0008068490861415853,0.0009145067932128902,0.0008000673032760586,0.006071660937500001,-0.0002869846807479898
1744140034.3968534,0.6395532344482422,0.0014625244201660163,3.985837981700796e-05,0.002065114855957031,0.0004161984897613491,0.006071660937500001,-0.0006704809652328531
1744140034.4068239,0.6391698573730469,0.0022297554077148445,3.985837981700796e-05,0.0012981222869873042,3.307845959663047e-05,0.005304429949951173,-0.0006704809652328531
1744140034.416831,0.6399366115234375,0.0014625244201660163,3.985837981700796e-05,0.0012981222869873042,0.0019501799024105038,0.004537675799560548,-0.0002869846807479898
1744140034.4267952,0.6391698573730469,0.0022297554077148445,3.985837981700796e-05,0.002065114855957031,-0.0003504178248882328,0.005304429949951173,0.0012469930066108664
1744140034.4368196,0.6399366115234375,0.002613132482910157,0.0008068490861415853,0.0016814993621826167,-0.0007339141093730961,0.005304429949951173,9.650415315627658e-05
1744140034.4468217,0.6395532344482422,0.0006957702697753913,3.985837981700796e-05,0.0024484919311523433,3.307845959663047e-05,0.004153821887207032,-0.0002869846807479898
1744140034.4568474,0.6399366115234375,0.0010791473449707038,0.00042335466430187124,0.0016814993621826167,3.307845959663047e-05,0.005687807025146485,-0.0002869846807479898
1744140034.4668233,0.6410872195861816,0.0010791473449707038,-0.0007271323265075694,0.002065114855957031,0.0008000673032760586,0.004537675799560548,0.0012469930066108664
1744140034.476799,0.6403199885986328,0.0010791473449707038,-0.0007271323265075694,0.002065114855957031,0.0004161984897613491,0.004153821887207032,-0.0002869846807479898
1744140034.4868321,0.6395532344482422,0.0010791473449707038,-0.0003436360420227061,0.0009145067932128902,0.0008000673032760586,0.005687807025146485,9.650415315627658e-05
1744140034.4968626,0.6399366115234375,0.0006957702697753913,3.985837981700796e-05,0.0016814993621826167,0.0008000673032760586,0.004537675799560548,-0.0002869846807479898
1744140034.5068486,0.6403199885986328,0.0010791473449707038,0.0011901572434663762,0.0012981222869873042,0.0004161984897613491,0.004537675799560548,-0.0002869846807479898
1744140034.5167997,0.6399366115234375,0.0003119163574218757,3.985837981700796e-05,0.002065114855957031,0.0004161984897613491,0.005687807025146485,9.650415315627658e-05
1744140034.5268607,0.6407038425109863,0.0014625244201660163,0.00042335466430187124,0.0028321074249267573,-0.0003504178248882328,0.004537675799560548,-0.0006704809652328531
1744140034.53685,0.6395532344482422,0.0006957702697753913,0.0008068490861415853,0.0012981222869873042,0.0004161984897613491,0.006455038012695313,-0.0014374735342025796
1744140034.5468345,0.6407038425109863,0.0006957702697753913,3.985837981700796e-05,0.0012981222869873042,0.0004161984897613491,0.005304429949951173,-0.0006704809652328531
1744140034.556839,0.6391698573730469,0.0003119163574218757,0.00042335466430187124,0.0028321074249267573,-0.0007339141093730961,0.004537675799560548,-0.0006704809652328531
1744140034.5668643,0.6399366115234375,0.0022297554077148445,3.985837981700796e-05,0.0012981222869873042,0.0004161984897613491,0.005304429949951173,9.650415315627658e-05
1744140034.5768578,0.6403199885986328,0.0014625244201660163,0.00042335466430187124,0.0016814993621826167,-0.0003504178248882328,0.00492105287475586,0.00048000043764113987
1744140034.586849,0.6395532344482422,0.0018459014953613288,0.0008068490861415853,0.002065114855957031,3.307845959663047e-05,0.004537675799560548,9.650415315627658e-05
1744140034.5968173,0.6399366115234375,0.0029965095581054695,0.0008068490861415853,0.0024484919311523433,0.0004161984897613491,0.004537675799560548,-0.0010539772497177163
1744140034.6068385,0.6403199885986328,0.0003119163574218757,-0.0003436360420227061,0.0016814993621826167,-0.0003504178248882328,0.004153821887207032,-0.0014374735342025796
1744140034.6168513,0.6403199885986328,0.0006957702697753913,-0.0003436360420227061,0.002065114855957031,0.0004161984897613491,0.004153821887207032,0.0012469930066108664
1744140034.626807,0.6399366115234375,0.0003119163574218757,-0.0003436360420227061,0.0016814993621826167,-0.0007339141093730961,0.005304429949951173,9.650415315627658e-05
1744140034.636835,0.6399366115234375,0.0010791473449707038,0.0008068490861415853,0.0024484919311523433,-0.0003504178248882328,0.00492105287475586,-0.0002869846807479898
1744140034.6468492,0.6399366115234375,0.0010791473449707038,0.0008068490861415853,0.0016814993621826167,-0.0011177829228878056,0.00492105287475586,0.00048000043764113987
1744140034.6568475,0.6403199885986328,0.0022297554077148445,3.985837981700796e-05,0.0012981222869873042,-0.0003504178248882328,0.005304429949951173,-0.0014374735342025796
1744140034.6668553,0.6403199885986328,0.0018459014953613288,-0.0003436360420227061,0.0016814993621826167,-0.0003504178248882328,0.00492105287475586,-0.0006704809652328531
1744140034.6768315,0.6403199885986328,0.002613132482910157,0.00042335466430187124,0.0012981222869873042,-0.0007339141093730961,0.005304429949951173,-0.0006704809652328531
1744140034.6868544,0.6407038425109863,0.0018459014953613288,-0.0007271323265075694,0.0016814993621826167,0.0008000673032760586,0.004537675799560548,-0.0002869846807479898
1744140034.696783,0.6399366115234375,0.0010791473449707038,-0.0003436360420227061,0.0012981222869873042,-0.0003504178248882328,0.004537675799560548,0.00048000043764113987
1744140034.7068431,0.6399366115234375,0.0022297554077148445,-0.0007271323265075694,0.002065114855957031,0.0008000673032760586,0.00492105287475586,9.650415315627658e-05
1744140034.7168052,0.6395532344482422,0.0010791473449707038,0.00042335466430187124,0.0024484919311523433,0.0004161984897613491,0.004537675799560548,9.650415315627658e-05
1744140034.726831,0.6407038425109863,0.0010791473449707038,0.00042335466430187124,0.0012981222869873042,-0.0011177829228878056,0.00492105287475586,0.00048000043764113987
1744140034.7368562,0.6399366115234375,0.0018459014953613288,0.0011901572434663762,0.0009145067932128902,0.0015670561469554867,0.00492105287475586,-0.0002869846807479898
1744140034.7468157,0.6403199885986328,0.0014625244201660163,0.0008068490861415853,0.0009145067932128902,0.0004161984897613491,0.005304429949951173,9.650415315627658e-05
1744140034.756792,0.6407038425109863,0.0018459014953613288,0.0008068490861415853,0.002065114855957031,0.0011835635877609219,0.005687807025146485,0.00048000043764113987
1744140034.7668269,0.6403199885986328,0.0010791473449707038,-0.0003436360420227061,0.002065114855957031,0.0015670561469554867,0.005304429949951173,0.00048000043764113987
1744140034.7767813,0.6399366115234375,0.0022297554077148445,0.0011901572434663762,0.002065114855957031,0.0004161984897613491,0.00492105287475586,9.650415315627658e-05
1744140034.7868204,0.6399366115234375,0.0018459014953613288,-0.0003436360420227061,0.002065114855957031,-0.0011177829228878056,0.00492105287475586,0.00048000043764113987
1744140034.7968314,0.6407038425109863,0.0006957702697753913,0.0008068490861415853,0.003599099993896484,-0.0003504178248882328,0.006071660937500001,9.650415315627658e-05
1744140034.8068209,0.6403199885986328,0.0010791473449707038,3.985837981700796e-05,0.0024484919311523433,3.307845959663047e-05,0.00492105287475586,-0.0002869846807479898
1744140034.816848,0.6387860034606934,0.0014625244201660163,0.00042335466430187124,0.0016814993621826167,-0.0007339141093730961,0.005687807025146485,-0.0006704809652328531
1744140034.8268135,0.6399366115234375,0.0014625244201660163,0.00042335466430187124,0.0012981222869873042,3.307845959663047e-05,0.005687807025146485,0.00048000043764113987
1744140034.8368533,0.6410872195861816,0.0014625244201660163,0.00042335466430187124,0.002065114855957031,3.307845959663047e-05,0.004537675799560548,9.650415315627658e-05
1744140034.8468304,0.6403199885986328,0.0029965095581054695,-0.0003436360420227061,0.002065114855957031,-0.0003504178248882328,0.005687807025146485,9.650415315627658e-05
1744140034.8568192,0.6407038425109863,0.0006957702697753913,0.00042335466430187124,0.0024484919311523433,3.307845959663047e-05,0.004153821887207032,-0.0006704809652328531
1744140034.8668656,0.6407038425109863,0.0018459014953613288,3.985837981700796e-05,0.0012981222869873042,-0.0003504178248882328,0.005687807025146485,-0.0010539772497177163
1744140034.876804,0.6395532344482422,0.0006957702697753913,-0.0003436360420227061,0.0024484919311523433,3.307845959663047e-05,0.00492105287475586,9.650415315627658e-05
1744140034.886877,0.6407038425109863,0.0014625244201660163,-0.0003436360420227061,0.0012981222869873042,3.307845959663047e-05,0.005304429949951173,-0.0006704809652328531
1744140034.8968692,0.6391698573730469,0.0006957702697753913,3.985837981700796e-05,0.0009145067932128902,3.307845959663047e-05,0.00492105287475586,0.00048000043764113987
1744140034.9068408,0.6410872195861816,0.0014625244201660163,0.0011901572434663762,0.0012981222869873042,0.0008000673032760586,0.006071660937500001,0.00048000043764113987
1744140034.9168358,0.6403199885986328,0.0018459014953613288,-0.0003436360420227061,0.0012981222869873042,3.307845959663047e-05,0.005304429949951173,-0.0002869846807479898
1744140034.9268582,0.6395532344482422,0.002613132482910157,-0.0003436360420227061,0.002065114855957031,-0.0007339141093730961,0.0037704448120117195,9.650415315627658e-05
1744140034.9368272,0.6403199885986328,0.0006957702697753913,0.0008068490861415853,0.0012981222869873042,0.0004161984897613491,0.005687807025146485,9.650415315627658e-05
1744140034.946852,0.6399366115234375,0.0018459014953613288,-0.0007271323265075694,0.002065114855957031,0.0004161984897613491,0.005304429949951173,-0.0002869846807479898
1744140034.9567983,0.6399366115234375,0.0010791473449707038,3.985837981700796e-05,0.0016814993621826167,-0.0003504178248882328,0.00492105287475586,-0.0010539772497177163
1744140034.9667883,0.6403199885986328,0.0006957702697753913,-0.0003436360420227061,0.002065114855957031,3.307845959663047e-05,0.0037704448120117195,-0.0002869846807479898
1744140034.9768226,0.6399366115234375,0.0018459014953613288,3.985837981700796e-05,0.0024484919311523433,-0.0003504178248882328,0.0030036906616210945,9.650415315627658e-05
1744140034.986879,0.6399366115234375,0.0010791473449707038,-0.0003436360420227061,0.0012981222869873042,-0.0007339141093730961,0.00492105287475586,-0.0006704809652328531
1744140034.9968214,0.6403199885986328,0.0022297554077148445,0.00042335466430187124,0.002065114855957031,0.0008000673032760586,0.00492105287475586,-0.0002869846807479898
1744140035.0068753,0.6403199885986328,0.0006957702697753913,-0.0003436360420227061,0.0016814993621826167,3.307845959663047e-05,0.00492105287475586,-0.0010539772497177163
1744140035.0168161,0.6395532344482422,0.002613132482910157,0.00042335466430187124,0.002065114855957031,-0.0003504178248882328,0.00492105287475586,9.650415315627658e-05
1744140035.0268328,0.6410872195861816,0.0010791473449707038,3.985837981700796e-05,0.002065114855957031,-0.0003504178248882328,0.0037704448120117195,0.00048000043764113987
1744140035.036848,0.6395532344482422,0.0010791473449707038,0.0008068490861415853,0.0009145067932128902,0.0008000673032760586,0.006071660937500001,-0.0006704809652328531
1744140035.0468357,0.6403199885986328,0.0006957702697753913,-0.0003436360420227061,0.002065114855957031,0.0004161984897613491,0.005687807025146485,9.650415315627658e-05
1744140035.05686,0.6387860034606934,0.0018459014953613288,3.985837981700796e-05,0.0024484919311523433,0.0004161984897613491,0.004153821887207032,-0.0010539772497177163
1744140035.0668204,0.6395532344482422,0.0018459014953613288,3.985837981700796e-05,0.0012981222869873042,3.307845959663047e-05,0.004537675799560548,0.00048000043764113987
1744140035.0768602,0.6399366115234375,0.0010791473449707038,-0.0007271323265075694,0.0016814993621826167,-0.0003504178248882328,0.004537675799560548,-0.0006704809652328531
1744140035.0868268,0.6387860034606934,0.0018459014953613288,0.00042335466430187124,0.0009145067932128902,3.307845959663047e-05,0.004537675799560548,0.0008634967221260031
1744140035.09683,0.6399366115234375,0.0022297554077148445,0.0008068490861415853,0.0012981222869873042,-0.0007339141093730961,0.004537675799560548,9.650415315627658e-05
1744140035.1068594,0.641470596661377,0.0010791473449707038,-0.0003436360420227061,0.0024484919311523433,3.307845959663047e-05,0.005304429949951173,0.00048000043764113987
1744140035.1168568,0.6418539737365723,0.0014625244201660163,0.00042335466430187124,0.0012981222869873042,3.307845959663047e-05,0.00492105287475586,0.00048000043764113987
1744140035.1268,0.6395532344482422,0.0006957702697753913,3.985837981700796e-05,0.0016814993621826167,0.0008000673032760586,0.004153821887207032,-0.0002869846807479898
1744140035.1368463,0.6403199885986328,0.0010791473449707038,-0.0003436360420227061,0.0024484919311523433,-0.0003504178248882328,0.00492105287475586,0.00048000043764113987
1744140035.1468244,0.6387860034606934,0.0014625244201660163,-0.0003436360420227061,0.0012981222869873042,0.0015670561469554867,0.006071660937500001,0.00048000043764113987
1744140035.1568289,0.6403199885986328,0.0018459014953613288,3.985837981700796e-05,0.0016814993621826167,0.0004161984897613491,0.004153821887207032,9.650415315627658e-05
1744140035.1668468,0.6391698573730469,0.0022297554077148445,0.0011901572434663762,0.002065114855957031,0.0004161984897613491,0.004153821887207032,-0.0002869846807479898
1744140035.1768649,0.6399366115234375,0.0003119163574218757,0.00042335466430187124,0.002065114855957031,3.307845959663047e-05,0.00492105287475586,-0.0002869846807479898
1744140035.1868284,0.6403199885986328,0.0022297554077148445,0.0008068490861415853,0.0009145067932128902,0.0008000673032760586,0.00492105287475586,-0.0006704809652328531
1744140035.196829,0.6395532344482422,0.0014625244201660163,-0.0003436360420227061,0.0016814993621826167,0.0008000673032760586,0.00492105287475586,-0.0002869846807479898
1744140035.206862,0.6403199885986328,0.0018459014953613288,0.00042335466430187124,0.002065114855957031,0.0008000673032760586,0.00492105287475586,0.00048000043764113987
1744140035.216868,0.6403199885986328,0.0018459014953613288,-0.0007271323265075694,0.0012981222869873042,3.307845959663047e-05,0.005304429949951173,-0.0006704809652328531
1744140035.22682,0.6399366115234375,0.0014625244201660163,0.0011901572434663762,0.0009145067932128902,0.0008000673032760586,0.005687807025146485,0.00048000043764113987
1744140035.236796,0.6395532344482422,0.0006957702697753913,0.00042335466430187124,0.0016814993621826167,-0.0003504178248882328,0.0037704448120117195,9.650415315627658e-05
1744140035.2468455,0.641470596661377,0.0006957702697753913,-0.0007271323265075694,0.002065114855957031,3.307845959663047e-05,0.005304429949951173,-0.0006704809652328531
1744140035.2568529,0.6399366115234375,0.0018459014953613288,3.985837981700796e-05,0.0012981222869873042,3.307845959663047e-05,0.005687807025146485,-0.0006704809652328531
1744140035.2668297,0.6399366115234375,0.0003119163574218757,-0.0003436360420227061,0.0016814993621826167,3.307845959663047e-05,0.00492105287475586,9.650415315627658e-05
1744140035.2768323,0.6403199885986328,0.002613132482910157,-0.0007271323265075694,0.0012981222869873042,3.307845959663047e-05,0.004537675799560548,-0.0010539772497177163
1744140035.2868822,0.6399366115234375,0.0010791473449707038,0.0011901572434663762,0.0016814993621826167,-0.0003504178248882328,0.004153821887207032,0.00048000043764113987
1744140035.2968528,0.6399366115234375,0.0018459014953613288,0.00042335466430187124,0.0012981222869873042,3.307845959663047e-05,0.00492105287475586,-0.0010539772497177163
1744140035.306853,0.6399366115234375,0.0010791473449707038,-0.0003436360420227061,0.0016814993621826167,3.307845959663047e-05,0.004153821887207032,0.0008634967221260031
1744140035.3168294,0.6395532344482422,0.0014625244201660163,0.0008068490861415853,0.0024484919311523433,0.0011835635877609219,0.005304429949951173,9.650415315627658e-05
1744140035.3268337,0.6410872195861816,0.0018459014953613288,0.00042335466430187124,0.0009145067932128902,-0.0003504178248882328,0.005687807025146485,-0.0002869846807479898
1744140035.3368504,0.6399366115234375,0.0018459014953613288,-0.0003436360420227061,0.0028321074249267573,0.0004161984897613491,0.00492105287475586,9.650415315627658e-05
1744140035.3468165,0.6399366115234375,0.0014625244201660163,0.0008068490861415853,0.0012981222869873042,-0.0003504178248882328,0.005304429949951173,-0.0002869846807479898
1744140035.356863,0.6407038425109863,0.0010791473449707038,-0.0007271323265075694,0.0012981222869873042,0.0004161984897613491,0.0037704448120117195,0.0008634967221260031
1744140035.3668501,0.6407038425109863,0.0010791473449707038,0.00042335466430187124,0.0016814993621826167,3.307845959663047e-05,0.004537675799560548,9.650415315627658e-05
1744140035.3768096,0.6399366115234375,0.0014625244201660163,3.985837981700796e-05,0.0012981222869873042,0.0004161984897613491,0.004537675799560548,9.650415315627658e-05
1744140035.3867917,0.6395532344482422,0.0018459014953613288,0.00042335466430187124,0.002065114855957031,3.307845959663047e-05,0.004153821887207032,0.00048000043764113987
1744140035.3968241,0.6395532344482422,0.0014625244201660163,0.0011901572434663762,0.002065114855957031,3.307845959663047e-05,0.00492105287475586,9.650415315627658e-05
1744140035.4068313,0.6407038425109863,0.0022297554077148445,-0.0007271323265075694,0.0005311297180175777,-0.0007339141093730961,0.005304429949951173,-0.0006704809652328531
1744140035.4168525,0.6403199885986328,0.0022297554077148445,0.0008068490861415853,0.0016814993621826167,3.307845959663047e-05,0.00492105287475586,-0.0010539772497177163
1744140035.426808,0.6407038425109863,0.0014625244201660163,-0.0003436360420227061,0.0012981222869873042,0.0004161984897613491,0.005687807025146485,-0.0002869846807479898
1744140035.4367974,0.6399366115234375,0.0022297554077148445,0.0008068490861415853,0.0012981222869873042,0.0004161984897613491,0.005687807025146485,-0.0006704809652328531
1744140035.4468775,0.6399366115234375,0.0014625244201660163,0.0008068490861415853,0.002065114855957031,0.0008000673032760586,0.005687807025146485,-0.0010539772497177163
1744140035.4568484,0.6395532344482422,0.0003119163574218757,-0.0011106267483472834,0.0024484919311523433,3.307845959663047e-05,0.004153821887207032,0.00048000043764113987
1744140035.466812,0.6410872195861816,0.0018459014953613288,-0.0007271323265075694,0.0016814993621826167,-0.0003504178248882328,0.004537675799560548,-0.0002869846807479898
1744140035.4768314,0.6403199885986328,0.0006957702697753913,3.985837981700796e-05,0.0005311297180175777,-0.0003504178248882328,0.005687807025146485,-0.0002869846807479898
1744140035.4867847,0.6399366115234375,0.0022297554077148445,-0.0003436360420227061,0.0016814993621826167,0.0008000673032760586,0.004153821887207032,-0.0002869846807479898
1744140035.496794,0.6395532344482422,0.0014625244201660163,0.0011901572434663762,0.002065114855957031,0.0008000673032760586,0.005687807025146485,-0.0002869846807479898
1744140035.5068197,0.6399366115234375,0.0010791473449707038,3.985837981700796e-05,0.0016814993621826167,3.307845959663047e-05,0.004537675799560548,-0.0006704809652328531
1744140035.5168214,0.6407038425109863,0.0022297554077148445,-0.0003436360420227061,0.0012981222869873042,0.0004161984897613491,0.004153821887207032,-0.0006704809652328531
1744140035.5268507,0.6395532344482422,0.0006957702697753913,0.00042335466430187124,0.0016814993621826167,3.307845959663047e-05,0.004537675799560548,9.650415315627658e-05
1744140035.536821,0.6403199885986328,0.0010791473449707038,0.0008068490861415853,0.002065114855957031,0.0008000673032760586,0.00492105287475586,-0.0006704809652328531
1744140035.546839,0.6399366115234375,0.0014625244201660163,0.0008068490861415853,0.0012981222869873042,0.0004161984897613491,0.004153821887207032,-0.0010539772497177163
1744140035.5568225,0.6403199885986328,0.0010791473449707038,3.985837981700796e-05,0.0012981222869873042,3.307845959663047e-05,0.004537675799560548,0.00048000043764113987
1744140035.5668101,0.6399366115234375,0.0006957702697753913,0.0019571479497909536,0.002065114855957031,-0.0003504178248882328,0.00492105287475586,9.650415315627658e-05
1744140035.5767972,0.6403199885986328,0.0018459014953613288,3.985837981700796e-05,0.002065114855957031,3.307845959663047e-05,0.005304429949951173,9.650415315627658e-05
1744140035.586815,0.6391698573730469,0.0022297554077148445,3.985837981700796e-05,0.0024484919311523433,0.0011835635877609219,0.00492105287475586,-0.0006704809652328531
1744140035.5968564,0.6403199885986328,0.0006957702697753913,0.00042335466430187124,0.0024484919311523433,0.0004161984897613491,0.005687807025146485,-0.0002869846807479898
1744140035.6068194,0.6399366115234375,0.0018459014953613288,0.0008068490861415853,0.0012981222869873042,0.0004161984897613491,0.004537675799560548,9.650415315627658e-05
1744140035.616856,0.6399366115234375,0.0018459014953613288,0.00042335466430187124,0.0016814993621826167,0.0004161984897613491,0.00492105287475586,9.650415315627658e-05
1744140035.6268346,0.6399366115234375,0.0018459014953613288,0.0008068490861415853,0.0016814993621826167,0.0008000673032760586,0.00492105287475586,-0.0002869846807479898
1744140035.6367943,0.6391698573730469,0.0018459014953613288,0.0008068490861415853,0.002065114855957031,0.0004161984897613491,0.005687807025146485,-0.0002869846807479898
1744140035.6468606,0.6391698573730469,0.0018459014953613288,0.00042335466430187124,0.0012981222869873042,3.307845959663047e-05,0.005687807025146485,9.650415315627658e-05
1744140035.6568651,0.6403199885986328,0.0018459014953613288,0.0008068490861415853,0.002065114855957031,-0.0007339141093730961,0.004153821887207032,9.650415315627658e-05
1744140035.6668332,0.6403199885986328,-7.14607177734368e-05,0.0008068490861415853,0.0012981222869873042,-0.0003504178248882328,0.004537675799560548,-0.0006704809652328531
1744140035.6767988,0.6403199885986328,0.0014625244201660163,0.00042335466430187124,0.00321548450012207,-0.0007339141093730961,0.006071660937500001,0.0008634967221260031
1744140035.6868405,0.6399366115234375,0.0003119163574218757,-0.0007271323265075694,0.0024484919311523433,-0.0003504178248882328,0.004537675799560548,9.650415315627658e-05
1744140035.6968155,0.6403199885986328,0.0018459014953613288,0.00042335466430187124,0.0016814993621826167,0.0011835635877609219,0.004153821887207032,0.00048000043764113987
1744140035.7067902,0.6395532344482422,0.0018459014953613288,0.00042335466430187124,0.002065114855957031,-0.0007339141093730961,0.006071660937500001,-0.0002869846807479898
1744140035.7167914,0.6399366115234375,0.0018459014953613288,3.985837981700796e-05,0.0016814993621826167,-0.0003504178248882328,0.006071660937500001,9.650415315627658e-05
1744140035.7268252,0.6407038425109863,0.0022297554077148445,3.985837981700796e-05,0.0012981222869873042,0.0004161984897613491,0.005687807025146485,9.650415315627658e-05
1744140035.7368393,0.6391698573730469,0.0022297554077148445,3.985837981700796e-05,0.0016814993621826167,3.307845959663047e-05,0.00492105287475586,-0.0002869846807479898
1744140035.746863,0.6403199885986328,0.0022297554077148445,-0.0003436360420227061,0.0016814993621826167,0.0011835635877609219,0.004153821887207032,9.650415315627658e-05
1744140035.7568417,0.6403199885986328,0.0010791473449707038,-0.0003436360420227061,0.0005311297180175777,3.307845959663047e-05,0.00492105287475586,-0.0002869846807479898
1744140035.7668502,0.6399366115234375,0.0010791473449707038,0.0008068490861415853,0.0009145067932128902,0.0004161984897613491,0.00492105287475586,-0.0006704809652328531
1744140035.776848,0.6395532344482422,0.0022297554077148445,0.00042335466430187124,0.0016814993621826167,0.0011835635877609219,0.00492105287475586,9.650415315627658e-05
1744140035.786806,0.6410872195861816,0.0018459014953613288,-0.0003436360420227061,0.0012981222869873042,3.307845959663047e-05,0.005304429949951173,0.00048000043764113987
1744140035.7968044,0.6387860034606934,0.0010791473449707038,0.00042335466430187124,0.0009145067932128902,-0.0003504178248882328,0.005304429949951173,-0.0006704809652328531
1744140035.8068411,0.6395532344482422,0.0018459014953613288,3.985837981700796e-05,0.0012981222869873042,-0.0007339141093730961,0.005304429949951173,0.00048000043764113987
1744140035.816804,0.6407038425109863,0.0006957702697753913,-0.0003436360420227061,0.0012981222869873042,-0.0003504178248882328,0.005304429949951173,9.650415315627658e-05
1744140035.8268428,0.6391698573730469,0.0022297554077148445,0.0008068490861415853,0.0005311297180175777,3.307845959663047e-05,0.00492105287475586,-0.0002869846807479898
1744140035.8368223,0.6399366115234375,0.0018459014953613288,-0.0003436360420227061,0.0009145067932128902,3.307845959663047e-05,0.005304429949951173,-0.0006704809652328531
1744140035.846825,0.6407038425109863,0.0014625244201660163,0.0008068490861415853,0.0009145067932128902,3.307845959663047e-05,0.005687807025146485,0.00048000043764113987
1744140035.856817,0.6403199885986328,0.0006957702697753913,3.985837981700796e-05,0.0012981222869873042,0.0008000673032760586,0.004153821887207032,-0.0010539772497177163
1744140035.866856,0.6399366115234375,0.0014625244201660163,-0.0003436360420227061,0.0012981222869873042,3.307845959663047e-05,0.0037704448120117195,-0.0006704809652328531
1744140035.876861,0.6399366115234375,0.0018459014953613288,0.0008068490861415853,0.0016814993621826167,0.0004161984897613491,0.005687807025146485,9.650415315627658e-05
1744140035.8868582,0.6407038425109863,0.0010791473449707038,0.00042335466430187124,0.0009145067932128902,-0.0007339141093730961,0.00492105287475586,9.650415315627658e-05
1744140035.8968327,0.6410872195861816,0.0010791473449707038,3.985837981700796e-05,0.0012981222869873042,-0.0003504178248882328,0.005687807025146485,-0.0006704809652328531
1744140035.9068496,0.6395532344482422,0.0014625244201660163,-0.0007271323265075694,0.0009145067932128902,-0.0003504178248882328,0.006071660937500001,-0.0006704809652328531
1744140035.9168265,0.6399366115234375,0.0018459014953613288,0.0008068490861415853,0.0016814993621826167,0.0004161984897613491,0.004537675799560548,-0.0002869846807479898
1744140035.9268558,0.6403199885986328,0.0010791473449707038,-0.0003436360420227061,0.002065114855957031,0.0011835635877609219,0.00492105287475586,-0.0006704809652328531
1744140035.9368489,0.6395532344482422,0.0010791473449707038,3.985837981700796e-05,0.0016814993621826167,3.307845959663047e-05,0.004153821887207032,9.650415315627658e-05
1744140035.9468517,0.6395532344482422,0.0014625244201660163,0.00042335466430187124,0.0016814993621826167,-0.0007339141093730961,0.006071660937500001,0.00048000043764113987
1744140035.9567976,0.6407038425109863,0.0006957702697753913,-0.0003436360420227061,0.0012981222869873042,-0.0007339141093730961,0.004537675799560548,-0.0010539772497177163
1744140035.9668539,0.6391698573730469,0.0014625244201660163,-0.0003436360420227061,0.0012981222869873042,0.0004161984897613491,0.004537675799560548,-0.0006704809652328531
1744140035.9768226,0.6395532344482422,0.0003119163574218757,0.0008068490861415853,0.0012981222869873042,3.307845959663047e-05,0.004537675799560548,-0.0002869846807479898
1744140035.9868433,0.6399366115234375,0.0018459014953613288,-0.0011106267483472834,0.002065114855957031,0.0004161984897613491,0.0037704448120117195,9.650415315627658e-05
1744140035.9968066,0.6387860034606934,0.0018459014953613288,0.00042335466430187124,0.002065114855957031,-0.0011177829228878056,0.004537675799560548,-0.0002869846807479898
1744140036.0068593,0.6403199885986328,0.0006957702697753913,-0.0003436360420227061,0.0016814993621826167,3.307845959663047e-05,0.00492105287475586,9.650415315627658e-05
1744140036.0168495,0.6403199885986328,0.0014625244201660163,3.985837981700796e-05,0.0012981222869873042,3.307845959663047e-05,0.006071660937500001,-0.0006704809652328531
1744140036.0268238,0.6399366115234375,0.002613132482910157,-0.0007271323265075694,0.0012981222869873042,3.307845959663047e-05,0.004537675799560548,-0.0006704809652328531
1744140036.0368266,0.6403199885986328,0.0010791473449707038,-0.0003436360420227061,0.0016814993621826167,0.0011835635877609219,0.00492105287475586,-0.0006704809652328531
1744140036.0468235,0.6399366115234375,0.0014625244201660163,0.00042335466430187124,0.002065114855957031,-0.0003504178248882328,0.00492105287475586,0.0008634967221260031
1744140036.056826,0.6403199885986328,0.0014625244201660163,0.00042335466430187124,0.0024484919311523433,0.0004161984897613491,0.00492105287475586,9.650415315627658e-05
1744140036.0668492,0.641470596661377,0.0018459014953613288,0.00042335466430187124,0.0024484919311523433,-0.0003504178248882328,0.005304429949951173,9.650415315627658e-05
1744140036.0768263,0.6399366115234375,0.0006957702697753913,3.985837981700796e-05,0.0016814993621826167,3.307845959663047e-05,0.0037704448120117195,-0.0006704809652328531
1744140036.0868607,0.6403199885986328,0.0018459014953613288,0.00042335466430187124,0.0009145067932128902,3.307845959663047e-05,0.004153821887207032,-0.0002869846807479898
1744140036.0968597,0.6395532344482422,0.0014625244201660163,-0.0003436360420227061,0.0012981222869873042,0.0004161984897613491,0.00492105287475586,-0.0002869846807479898
1744140036.1067972,0.6395532344482422,0.0010791473449707038,0.0011901572434663762,0.002065114855957031,3.307845959663047e-05,0.006071660937500001,0.002013985575580593
1744140036.1168494,0.6399366115234375,0.0010791473449707038,-0.0007271323265075694,0.0028321074249267573,-0.0011177829228878056,0.006071660937500001,-0.0002869846807479898
1744140036.1268592,0.6407038425109863,0.0006957702697753913,-0.0003436360420227061,0.0016814993621826167,0.0008000673032760586,0.00492105287475586,-0.0006704809652328531
1744140036.1368346,0.6395532344482422,0.0010791473449707038,3.985837981700796e-05,0.0024484919311523433,0.0008000673032760586,0.005304429949951173,9.650415315627658e-05
1744140036.146879,0.6399366115234375,0.0014625244201660163,-0.0003436360420227061,0.0024484919311523433,-0.0003504178248882328,0.005304429949951173,0.00048000043764113987
1744140036.15686,0.6407038425109863,0.0014625244201660163,3.985837981700796e-05,0.0016814993621826167,-0.0003504178248882328,0.004537675799560548,9.650415315627658e-05
1744140036.1668494,0.6395532344482422,0.0018459014953613288,0.0008068490861415853,0.002065114855957031,3.307845959663047e-05,0.005687807025146485,-0.0006704809652328531
1744140036.1767952,0.6395532344482422,0.0010791473449707038,0.0008068490861415853,0.0016814993621826167,3.307845959663047e-05,0.005687807025146485,9.650415315627658e-05
1744140036.186864,0.6399366115234375,0.0014625244201660163,0.00042335466430187124,0.002065114855957031,3.307845959663047e-05,0.004537675799560548,-0.0002869846807479898
1744140036.196814,0.6399366115234375,0.0003119163574218757,0.0011901572434663762,0.002065114855957031,3.307845959663047e-05,0.005687807025146485,-0.0006704809652328531
1744140036.2068298,0.6395532344482422,0.0018459014953613288,-0.0003436360420227061,0.0016814993621826167,0.0008000673032760586,0.00492105287475586,-0.0006704809652328531
1744140036.2168307,0.6403199885986328,0.0010791473449707038,3.985837981700796e-05,0.0028321074249267573,0.0004161984897613491,0.004537675799560548,0.0008634967221260031
1744140036.2268524,0.6395532344482422,0.0018459014953613288,0.0008068490861415853,0.0012981222869873042,-0.0007339141093730961,0.00492105287475586,9.650415315627658e-05
1744140036.2368083,0.6407038425109863,0.0010791473449707038,0.00042335466430187124,0.0001475142242431636,3.307845959663047e-05,0.00492105287475586,0.00048000043764113987
1744140036.2468317,0.6387860034606934,0.0006957702697753913,0.0008068490861415853,0.0012981222869873042,-0.0003504178248882328,0.00492105287475586,0.002013985575580593
1744140036.2567978,0.6399366115234375,0.0014625244201660163,0.00042335466430187124,0.0012981222869873042,3.307845959663047e-05,0.006455038012695313,9.650415315627658e-05
1744140036.266844,0.6399366115234375,0.0014625244201660163,0.00042335466430187124,0.0012981222869873042,-0.0007339141093730961,0.004537675799560548,9.650415315627658e-05
1744140036.2768295,0.6399366115234375,-7.14607177734368e-05,-0.0003436360420227061,0.0012981222869873042,0.0008000673032760586,0.004537675799560548,0.0008634967221260031
1744140036.286871,0.6395532344482422,0.0018459014953613288,0.00042335466430187124,0.0024484919311523433,3.307845959663047e-05,0.00492105287475586,-0.0002869846807479898
1744140036.2968166,0.641470596661377,0.0010791473449707038,-0.0007271323265075694,0.0016814993621826167,3.307845959663047e-05,0.005687807025146485,-0.0006704809652328531
1744140036.306811,0.6407038425109863,0.0006957702697753913,-0.0003436360420227061,0.002065114855957031,0.0008000673032760586,0.0037704448120117195,-0.0002869846807479898
1744140036.3167915,0.6399366115234375,0.0010791473449707038,0.0011901572434663762,0.0012981222869873042,-0.0003504178248882328,0.00492105287475586,-0.0006704809652328531
1744140036.3267949,0.6399366115234375,0.0022297554077148445,0.00042335466430187124,0.002065114855957031,-0.0003504178248882328,0.006455038012695313,-0.0002869846807479898
1744140036.3368263,0.6410872195861816,0.0014625244201660163,-0.0003436360420227061,0.002065114855957031,3.307845959663047e-05,0.00492105287475586,-0.0014374735342025796
1744140036.3468745,0.6399366115234375,0.0010791473449707038,3.985837981700796e-05,0.0016814993621826167,0.0004161984897613491,0.004537675799560548,0.00048000043764113987
1744140036.356821,0.6399366115234375,0.0014625244201660163,0.0008068490861415853,0.0024484919311523433,3.307845959663047e-05,0.005304429949951173,-0.0002869846807479898
1744140036.3667998,0.6395532344482422,0.0014625244201660163,3.985837981700796e-05,0.002065114855957031,-0.0003504178248882328,0.004537675799560548,-0.0006704809652328531
1744140036.3768198,0.6403199885986328,0.0014625244201660163,3.985837981700796e-05,0.002065114855957031,3.307845959663047e-05,0.004153821887207032,0.0016304892910957297
1744140036.3867998,0.6410872195861816,0.0010791473449707038,3.985837981700796e-05,0.0012981222869873042,-0.0003504178248882328,0.004537675799560548,-0.0002869846807479898
1744140036.3968449,0.6403199885986328,0.0018459014953613288,0.0008068490861415853,0.0016814993621826167,-0.0003504178248882328,0.005304429949951173,-0.0002869846807479898
1744140036.406795,0.6410872195861816,0.002613132482910157,0.00042335466430187124,0.002065114855957031,-0.0003504178248882328,0.00492105287475586,-0.0006704809652328531
1744140036.4168282,0.6395532344482422,0.0003119163574218757,3.985837981700796e-05,0.0016814993621826167,-0.0011177829228878056,0.00492105287475586,-0.0014374735342025796
1744140036.4267976,0.6395532344482422,0.0003119163574218757,-0.0003436360420227061,0.002065114855957031,-0.0003504178248882328,0.004537675799560548,9.650415315627658e-05
1744140036.4368193,0.6399366115234375,0.0018459014953613288,0.0011901572434663762,0.002065114855957031,0.0004161984897613491,0.004153821887207032,-0.0002869846807479898
1744140036.44679,0.6407038425109863,0.0014625244201660163,3.985837981700796e-05,0.0012981222869873042,3.307845959663047e-05,0.006838415087890626,-0.0010539772497177163
1744140036.4567945,0.6399366115234375,0.0022297554077148445,3.985837981700796e-05,0.002065114855957031,0.0008000673032760586,0.00492105287475586,-0.0010539772497177163
1744140036.4668212,0.6403199885986328,-7.14607177734368e-05,-0.0003436360420227061,0.0016814993621826167,0.0008000673032760586,0.004537675799560548,0.00048000043764113987
1744140036.4768348,0.641470596661377,0.0022297554077148445,3.985837981700796e-05,0.0016814993621826167,-0.0003504178248882328,0.005687807025146485,-0.0006704809652328531
1744140036.4868197,0.6391698573730469,0.0010791473449707038,0.0008068490861415853,0.0012981222869873042,3.307845959663047e-05,0.00492105287475586,0.00048000043764113987
1744140036.4968052,0.6391698573730469,0.0010791473449707038,3.985837981700796e-05,0.0016814993621826167,0.0004161984897613491,0.004153821887207032,9.650415315627658e-05
1744140036.5067906,0.6403199885986328,0.0006957702697753913,3.985837981700796e-05,0.0012981222869873042,3.307845959663047e-05,0.004537675799560548,-0.0010539772497177163
1744140036.5168867,0.6403199885986328,0.0018459014953613288,0.00042335466430187124,0.002065114855957031,0.0004161984897613491,0.006071660937500001,9.650415315627658e-05
1744140036.526888,0.6403199885986328,0.0014625244201660163,-0.0007271323265075694,0.002065114855957031,0.0004161984897613491,0.004537675799560548,0.00048000043764113987
1744140036.536793,0.6395532344482422,0.0018459014953613288,0.0008068490861415853,0.0016814993621826167,3.307845959663047e-05,0.006071660937500001,9.650415315627658e-05
1744140036.5468512,0.6395532344482422,0.0022297554077148445,0.00042335466430187124,0.0016814993621826167,0.0004161984897613491,0.005687807025146485,9.650415315627658e-05
1744140036.5568445,0.6403199885986328,0.0014625244201660163,0.00042335466430187124,0.0012981222869873042,-0.0007339141093730961,0.00492105287475586,-0.0006704809652328531
1744140036.5668273,0.6395532344482422,0.0014625244201660163,3.985837981700796e-05,0.0009145067932128902,0.0004161984897613491,0.00492105287475586,0.00048000043764113987
1744140036.5768466,0.6403199885986328,0.0003119163574218757,3.985837981700796e-05,0.0016814993621826167,0.0011835635877609219,0.00492105287475586,9.650415315627658e-05
1744140036.5868607,0.6395532344482422,0.0010791473449707038,0.00042335466430187124,0.0012981222869873042,0.0004161984897613491,0.00492105287475586,0.00048000043764113987
1744140036.5967999,0.6410872195861816,0.0014625244201660163,3.985837981700796e-05,0.0012981222869873042,-0.0003504178248882328,0.00492105287475586,-0.0010539772497177163
1744140036.6068816,0.6395532344482422,0.0022297554077148445,3.985837981700796e-05,0.0016814993621826167,0.0008000673032760586,0.006455038012695313,0.00048000043764113987
1744140036.616854,0.6395532344482422,0.0010791473449707038,3.985837981700796e-05,0.002065114855957031,0.0004161984897613491,0.005687807025146485,-0.0002869846807479898
1744140036.6268094,0.6399366115234375,0.0003119163574218757,0.0008068490861415853,0.0012981222869873042,0.0004161984897613491,0.005687807025146485,-0.0006704809652328531
1744140036.6368556,0.6399366115234375,0.0018459014953613288,0.0008068490861415853,0.0012981222869873042,0.0004161984897613491,0.005304429949951173,0.00048000043764113987
1744140036.6468408,0.6403199885986328,0.0010791473449707038,0.0008068490861415853,0.002065114855957031,-0.0003504178248882328,0.005304429949951173,9.650415315627658e-05
1744140036.6568015,0.6391698573730469,0.0018459014953613288,-0.0007271323265075694,0.0024484919311523433,0.0004161984897613491,0.004537675799560548,0.00048000043764113987
1744140036.6668468,0.6395532344482422,0.0022297554077148445,-0.0011106267483472834,0.0016814993621826167,0.0004161984897613491,0.005304429949951173,0.00048000043764113987
1744140036.6767995,0.6407038425109863,0.0003119163574218757,-0.0003436360420227061,0.0012981222869873042,0.0008000673032760586,0.005304429949951173,9.650415315627658e-05
1744140036.6868453,0.6391698573730469,0.0006957702697753913,-0.0007271323265075694,0.002065114855957031,0.0004161984897613491,0.005304429949951173,-0.0002869846807479898
1744140036.696879,0.6407038425109863,0.0014625244201660163,0.0008068490861415853,0.0012981222869873042,0.0004161984897613491,0.005304429949951173,-0.0002869846807479898
1744140036.7068567,0.6407038425109863,0.0006957702697753913,-0.0003436360420227061,0.0012981222869873042,-0.0007339141093730961,0.005687807025146485,-0.0006704809652328531
1744140036.716847,0.6407038425109863,-7.14607177734368e-05,0.0011901572434663762,0.0012981222869873042,-0.0003504178248882328,0.005304429949951173,9.650415315627658e-05
1744140036.726823,0.6395532344482422,0.0014625244201660163,0.00042335466430187124,0.0012981222869873042,0.0004161984897613491,0.005304429949951173,-0.0002869846807479898
1744140036.7367983,0.6403199885986328,0.0010791473449707038,3.985837981700796e-05,0.0009145067932128902,0.0011835635877609219,0.005687807025146485,-0.0002869846807479898
1744140036.7468297,0.6407038425109863,0.0010791473449707038,0.00042335466430187124,0.0012981222869873042,0.0011835635877609219,0.00492105287475586,-0.0006704809652328531
1744140036.7567925,0.6407038425109863,0.0014625244201660163,3.985837981700796e-05,0.002065114855957031,3.307845959663047e-05,0.006838415087890626,-0.0014374735342025796
1744140036.7668076,0.641470596661377,0.0018459014953613288,0.00042335466430187124,0.0016814993621826167,-0.0003504178248882328,0.004537675799560548,-0.0002869846807479898
1744140036.7768168,0.6399366115234375,0.0022297554077148445,-0.0003436360420227061,0.002065114855957031,0.0004161984897613491,0.004537675799560548,-0.0010539772497177163
1744140036.7868226,0.6399366115234375,0.0003119163574218757,0.00042335466430187124,0.0024484919311523433,0.0008000673032760586,0.004153821887207032,-0.0006704809652328531
1744140036.7968347,0.6407038425109863,0.0018459014953613288,-0.0003436360420227061,0.002065114855957031,0.0004161984897613491,0.003387067736816407,9.650415315627658e-05
1744140036.8068092,0.6395532344482422,0.0010791473449707038,-0.0003436360420227061,0.002065114855957031,0.0011835635877609219,0.005687807025146485,0.0008634967221260031
1744140036.8168318,0.6399366115234375,0.0018459014953613288,0.0008068490861415853,0.0012981222869873042,0.0011835635877609219,0.005304429949951173,-0.0002869846807479898
1744140036.8268123,0.6395532344482422,0.0014625244201660163,-0.0003436360420227061,0.002065114855957031,3.307845959663047e-05,0.00492105287475586,9.650415315627658e-05
1744140036.8367984,0.6399366115234375,0.0010791473449707038,-0.0003436360420227061,0.0024484919311523433,-0.0007339141093730961,0.006071660937500001,0.00048000043764113987
1744140036.8467963,0.6395532344482422,0.0014625244201660163,-0.0003436360420227061,0.0012981222869873042,-0.0003504178248882328,0.00492105287475586,0.0008634967221260031
1744140036.8568294,0.6395532344482422,0.0018459014953613288,-0.0007271323265075694,0.0012981222869873042,0.0008000673032760586,0.005687807025146485,-0.0006704809652328531
1744140036.8668199,0.6403199885986328,0.0010791473449707038,0.00042335466430187124,0.0016814993621826167,3.307845959663047e-05,0.004153821887207032,-0.0002869846807479898
1744140036.8767934,0.6407038425109863,0.0018459014953613288,-0.0007271323265075694,0.0012981222869873042,0.0004161984897613491,0.00492105287475586,-0.0010539772497177163
1744140036.8868155,0.6399366115234375,0.0006957702697753913,0.0008068490861415853,0.0009145067932128902,-0.0003504178248882328,0.004537675799560548,-0.0002869846807479898
1744140036.8968449,0.6395532344482422,0.0022297554077148445,0.0011901572434663762,0.0024484919311523433,0.0004161984897613491,0.003387067736816407,9.650415315627658e-05
1744140036.906824,0.6410872195861816,0.0010791473449707038,3.985837981700796e-05,0.0012981222869873042,0.0004161984897613491,0.00492105287475586,0.00048000043764113987
1744140036.9168236,0.6391698573730469,0.0014625244201660163,0.00042335466430187124,0.0016814993621826167,0.0004161984897613491,0.004153821887207032,0.00048000043764113987
1744140036.9268048,0.6403199885986328,0.0006957702697753913,0.00042335466430187124,0.002065114855957031,-0.0007339141093730961,0.004153821887207032,0.00048000043764113987
1744140036.9368126,0.6403199885986328,0.0010791473449707038,3.985837981700796e-05,0.0016814993621826167,0.0004161984897613491,0.005304429949951173,-0.0002869846807479898
1744140036.946844,0.6407038425109863,0.0010791473449707038,3.985837981700796e-05,0.0016814993621826167,0.0004161984897613491,0.005304429949951173,-0.0002869846807479898
1744140036.9568694,0.6399366115234375,0.0014625244201660163,0.00042335466430187124,0.0009145067932128902,0.0008000673032760586,0.005304429949951173,0.0012469930066108664
1744140036.9668453,0.6395532344482422,0.0003119163574218757,0.00042335466430187124,0.0016814993621826167,3.307845959663047e-05,0.004153821887207032,9.650415315627658e-05
1744140036.9768372,0.6399366115234375,0.0003119163574218757,-0.0007271323265075694,0.0009145067932128902,0.0004161984897613491,0.005304429949951173,-0.0006704809652328531
1744140036.9868486,0.6399366115234375,0.0022297554077148445,3.985837981700796e-05,0.0024484919311523433,0.0004161984897613491,0.004537675799560548,-0.0006704809652328531
1744140036.996851,0.6391698573730469,0.0010791473449707038,0.00042335466430187124,0.0016814993621826167,-0.0003504178248882328,0.0037704448120117195,-0.0006704809652328531
1744140037.0068307,0.6399366115234375,0.002613132482910157,-0.0011106267483472834,0.0012981222869873042,0.0004161984897613491,0.004537675799560548,-0.0002869846807479898
1744140037.0168502,0.6407038425109863,0.0006957702697753913,0.00042335466430187124,0.0012981222869873042,-0.0003504178248882328,0.004537675799560548,0.0008634967221260031
1744140037.0268123,0.6399366115234375,0.0010791473449707038,-0.0003436360420227061,0.0016814993621826167,-0.0003504178248882328,0.00492105287475586,-0.0002869846807479898
1744140037.0368416,0.6407038425109863,0.0006957702697753913,0.0011901572434663762,0.0012981222869873042,3.307845959663047e-05,0.006071660937500001,0.00048000043764113987
1744140037.046825,0.6391698573730469,0.0014625244201660163,-0.0003436360420227061,0.002065114855957031,-0.0007339141093730961,0.005687807025146485,-0.0002869846807479898
1744140037.0568469,0.6395532344482422,0.0018459014953613288,-0.0003436360420227061,0.0012981222869873042,0.0004161984897613491,0.005304429949951173,-0.0006704809652328531
1744140037.0668225,0.6399366115234375,0.0014625244201660163,-0.0007271323265075694,0.002065114855957031,0.0004161984897613491,0.00492105287475586,9.650415315627658e-05
1744140037.0768592,0.6403199885986328,0.0022297554077148445,-0.0003436360420227061,0.0016814993621826167,-0.0003504178248882328,0.005304429949951173,-0.0006704809652328531
1744140037.086838,0.6395532344482422,0.0014625244201660163,0.0008068490861415853,0.002065114855957031,0.0004161984897613491,0.004537675799560548,-0.0006704809652328531
1744140037.096839,0.6391698573730469,0.0022297554077148445,0.0011901572434663762,0.0016814993621826167,3.307845959663047e-05,0.004537675799560548,-0.0002869846807479898
1744140037.1068835,0.6399366115234375,0.0010791473449707038,-0.0003436360420227061,0.002065114855957031,-0.0003504178248882328,0.00492105287475586,-0.0006704809652328531
1744140037.1168203,0.6410872195861816,0.0014625244201660163,3.985837981700796e-05,0.0016814993621826167,-0.0003504178248882328,0.004537675799560548,9.650415315627658e-05
1744140037.1268256,0.6403199885986328,-0.0004548377929687493,3.985837981700796e-05,0.0012981222869873042,3.307845959663047e-05,0.004537675799560548,-0.0010539772497177163
1744140037.1368234,0.6399366115234375,-0.0004548377929687493,3.985837981700796e-05,0.002065114855957031,0.0011835635877609219,0.004153821887207032,9.650415315627658e-05
1744140037.1468651,0.641470596661377,0.0022297554077148445,-0.0003436360420227061,0.0024484919311523433,-0.0007339141093730961,0.00492105287475586,-0.0002869846807479898
1744140037.15682,0.6399366115234375,0.0010791473449707038,3.985837981700796e-05,0.0009145067932128902,3.307845959663047e-05,0.00492105287475586,-0.0006704809652328531
1744140037.1668005,0.6399366115234375,0.0018459014953613288,-0.0003436360420227061,0.002065114855957031,3.307845959663047e-05,0.00492105287475586,-0.0002869846807479898
1744140037.1768482,0.6395532344482422,0.0014625244201660163,-0.0007271323265075694,0.0016814993621826167,3.307845959663047e-05,0.004153821887207032,-0.0002869846807479898
1744140037.1868327,0.6403199885986328,0.0010791473449707038,3.985837981700796e-05,0.0016814993621826167,0.0004161984897613491,0.00492105287475586,-0.0014374735342025796
1744140037.1968448,0.6395532344482422,0.0006957702697753913,0.00042335466430187124,0.002065114855957031,-0.0003504178248882328,0.004537675799560548,-0.0002869846807479898
1744140037.2068703,0.6387860034606934,0.0014625244201660163,-0.0011106267483472834,0.0016814993621826167,3.307845959663047e-05,0.004537675799560548,0.00048000043764113987
1744140037.2168393,0.6395532344482422,0.0018459014953613288,0.00042335466430187124,0.002065114855957031,0.0008000673032760586,0.0037704448120117195,-0.001820969818687443
1744140037.2268293,0.6399366115234375,0.0010791473449707038,3.985837981700796e-05,0.0012981222869873042,3.307845959663047e-05,0.00492105287475586,9.650415315627658e-05
1744140037.2368207,0.6395532344482422,0.0014625244201660163,-0.0003436360420227061,0.0012981222869873042,0.0008000673032760586,0.00492105287475586,-0.0002869846807479898
1744140037.2468414,0.6387860034606934,0.0022297554077148445,0.0008068490861415853,0.0016814993621826167,0.0004161984897613491,0.00492105287475586,0.0012469930066108664
1744140037.2568817,0.6391698573730469,0.0014625244201660163,0.0011901572434663762,0.0009145067932128902,3.307845959663047e-05,0.00492105287475586,-0.0002869846807479898
1744140037.2667935,0.6395532344482422,0.0018459014953613288,0.00042335466430187124,0.0009145067932128902,0.0008000673032760586,0.00492105287475586,-0.0006704809652328531
1744140037.2767982,0.6399366115234375,0.0018459014953613288,0.0008068490861415853,0.0012981222869873042,0.0004161984897613491,0.00492105287475586,0.00048000043764113987
1744140037.286824,0.6395532344482422,0.0010791473449707038,0.00042335466430187124,0.0016814993621826167,0.0004161984897613491,0.00492105287475586,9.650415315627658e-05
1744140037.296822,0.6399366115234375,0.0003119163574218757,0.0008068490861415853,0.0016814993621826167,-0.0007339141093730961,0.00492105287475586,-0.0002869846807479898
1744140037.3068027,0.6407038425109863,0.0022297554077148445,3.985837981700796e-05,0.0009145067932128902,3.307845959663047e-05,0.004537675799560548,-0.0002869846807479898
1744140037.3168375,0.6403199885986328,0.0003119163574218757,0.00042335466430187124,0.0016814993621826167,-0.0003504178248882328,0.005304429949951173,-0.0002869846807479898
1744140037.326793,0.6391698573730469,0.0006957702697753913,0.00042335466430187124,0.002065114855957031,0.0015670561469554867,0.005304429949951173,-0.0006704809652328531
1744140037.3368716,0.6395532344482422,0.0006957702697753913,0.00042335466430187124,0.0016814993621826167,0.0004161984897613491,0.005304429949951173,-0.0002869846807479898
1744140037.3468595,0.6399366115234375,0.0018459014953613288,3.985837981700796e-05,0.0009145067932128902,0.0008000673032760586,0.00492105287475586,9.650415315627658e-05
1744140037.3568275,0.6410872195861816,0.0018459014953613288,-0.0003436360420227061,0.0012981222869873042,0.0008000673032760586,0.006071660937500001,-0.0002869846807479898
1744140037.3668256,0.6395532344482422,0.0010791473449707038,-0.0007271323265075694,0.002065114855957031,0.0004161984897613491,0.005304429949951173,-0.0002869846807479898
1744140037.3768544,0.6391698573730469,0.0014625244201660163,3.985837981700796e-05,0.0016814993621826167,3.307845959663047e-05,0.00492105287475586,-0.0010539772497177163
1744140037.3868215,0.6391698573730469,0.0006957702697753913,-0.0003436360420227061,0.0012981222869873042,0.0004161984897613491,0.00492105287475586,0.00048000043764113987
1744140037.3968675,0.6403199885986328,0.0018459014953613288,0.0008068490861415853,0.002065114855957031,0.0008000673032760586,0.004537675799560548,-0.0002869846807479898
1744140037.406828,0.6410872195861816,0.0014625244201660163,3.985837981700796e-05,0.0012981222869873042,0.0011835635877609219,0.005687807025146485,-0.0002869846807479898
1744140037.4168193,0.6395532344482422,0.0006957702697753913,0.0011901572434663762,0.0012981222869873042,0.0004161984897613491,0.004537675799560548,-0.0010539772497177163
1744140037.4268866,0.6407038425109863,0.0003119163574218757,0.00042335466430187124,0.0012981222869873042,0.0015670561469554867,0.003387067736816407,9.650415315627658e-05
1744140037.4368079,0.6410872195861816,0.0018459014953613288,0.00042335466430187124,0.0016814993621826167,0.0004161984897613491,0.004153821887207032,-0.0002869846807479898
1744140037.4468343,0.6403199885986328,0.0006957702697753913,0.00042335466430187124,0.0024484919311523433,0.0011835635877609219,0.004537675799560548,-0.0006704809652328531
1744140037.4568248,0.6403199885986328,0.0014625244201660163,-0.0003436360420227061,0.0016814993621826167,3.307845959663047e-05,0.005687807025146485,0.00048000043764113987
1744140037.4668226,0.6399366115234375,0.0010791473449707038,-0.0003436360420227061,0.0024484919311523433,3.307845959663047e-05,0.005687807025146485,0.00048000043764113987
1744140037.4767938,0.6395532344482422,0.0018459014953613288,3.985837981700796e-05,0.003599099993896484,0.0011835635877609219,0.005687807025146485,-0.0002869846807479898
1744140037.4868267,0.6410872195861816,0.0006957702697753913,3.985837981700796e-05,0.0009145067932128902,0.0008000673032760586,0.00492105287475586,-0.0002869846807479898
1744140037.4967961,0.6403199885986328,0.0018459014953613288,0.00042335466430187124,0.0016814993621826167,0.0004161984897613491,0.005687807025146485,9.650415315627658e-05
1744140037.5068266,0.6407038425109863,0.0018459014953613288,0.00042335466430187124,0.002065114855957031,3.307845959663047e-05,0.00492105287475586,-0.0002869846807479898
1744140037.516838,0.6399366115234375,0.0022297554077148445,0.0015736516653060903,0.0016814993621826167,0.0008000673032760586,0.005304429949951173,0.00048000043764113987
1744140037.5268369,0.6407038425109863,0.0006957702697753913,3.985837981700796e-05,0.002065114855957031,0.0004161984897613491,0.005687807025146485,9.650415315627658e-05
1744140037.536812,0.6418539737365723,0.0014625244201660163,0.00042335466430187124,0.0016814993621826167,0.0008000673032760586,0.005304429949951173,9.650415315627658e-05
1744140037.5468125,0.6403199885986328,0.0014625244201660163,0.0008068490861415853,0.0016814993621826167,0.0004161984897613491,0.004537675799560548,-0.0002869846807479898
1744140037.5568373,0.6407038425109863,0.0010791473449707038,3.985837981700796e-05,0.0012981222869873042,0.0004161984897613491,0.00492105287475586,0.00048000043764113987
1744140037.5668213,0.6403199885986328,0.0018459014953613288,0.0008068490861415853,0.0012981222869873042,0.0015670561469554867,0.00492105287475586,9.650415315627658e-05
1744140037.576831,0.6407038425109863,0.0014625244201660163,0.0008068490861415853,0.002065114855957031,0.0008000673032760586,0.005304429949951173,-0.0002869846807479898
1744140037.5868487,0.6399366115234375,-7.14607177734368e-05,0.00042335466430187124,0.0024484919311523433,0.0011835635877609219,0.005304429949951173,-0.0006704809652328531
1744140037.5967891,0.6407038425109863,0.0014625244201660163,-0.0003436360420227061,0.002065114855957031,0.0008000673032760586,0.00492105287475586,-0.0002869846807479898
1744140037.6068122,0.6395532344482422,0.0010791473449707038,-0.0003436360420227061,0.0024484919311523433,0.0008000673032760586,0.005304429949951173,9.650415315627658e-05
1744140037.6168387,0.6399366115234375,0.002613132482910157,3.985837981700796e-05,0.0012981222869873042,0.0008000673032760586,0.005687807025146485,0.0012469930066108664
1744140037.6268167,0.6407038425109863,0.0006957702697753913,-0.0003436360420227061,0.0016814993621826167,0.0004161984897613491,0.005687807025146485,9.650415315627658e-05
1744140037.6368227,0.641470596661377,0.0010791473449707038,-0.0011106267483472834,0.002065114855957031,0.0004161984897613491,0.005687807025146485,-0.0002869846807479898
1744140037.6468387,0.6407038425109863,0.0018459014953613288,-0.0003436360420227061,0.0012981222869873042,0.0011835635877609219,0.005304429949951173,9.650415315627658e-05
1744140037.6568599,0.6407038425109863,0.0010791473449707038,0.00042335466430187124,0.002065114855957031,0.0015670561469554867,0.005304429949951173,-0.0006704809652328531
1744140037.666864,0.641470596661377,0.0003119163574218757,0.00042335466430187124,0.002065114855957031,0.0008000673032760586,0.00492105287475586,-0.0010539772497177163
1744140037.6768384,0.6399366115234375,0.0014625244201660163,3.985837981700796e-05,0.0012981222869873042,0.0011835635877609219,0.005304429949951173,-0.0006704809652328531
1744140037.6868525,0.641470596661377,0.0010791473449707038,0.0011901572434663762,0.0016814993621826167,0.0011835635877609219,0.00492105287475586,-0.0006704809652328531
1744140037.696848,0.6403199885986328,0.0010791473449707038,0.00042335466430187124,0.0009145067932128902,0.0011835635877609219,0.005304429949951173,-0.0006704809652328531
1744140037.7068172,0.6399366115234375,0.0014625244201660163,0.0008068490861415853,0.002065114855957031,0.0019501799024105038,0.004537675799560548,9.650415315627658e-05
1744140037.716798,0.6399366115234375,0.0014625244201660163,3.985837981700796e-05,0.0009145067932128902,3.307845959663047e-05,0.004537675799560548,-0.0006704809652328531
1744140037.7268143,0.6407038425109863,0.0010791473449707038,0.00042335466430187124,0.0009145067932128902,0.0004161984897613491,0.006455038012695313,0.0008634967221260031
1744140037.7368069,0.6399366115234375,0.0003119163574218757,-0.0007271323265075694,0.0012981222869873042,0.0015670561469554867,0.004537675799560548,9.650415315627658e-05
1744140037.7468,0.6391698573730469,0.0014625244201660163,0.00042335466430187124,0.002065114855957031,0.0008000673032760586,0.005687807025146485,-0.0002869846807479898
1744140037.7568562,0.6410872195861816,0.0010791473449707038,-0.0003436360420227061,0.002065114855957031,0.0011835635877609219,0.005304429949951173,9.650415315627658e-05
1744140037.7668514,0.638402626385498,0.0014625244201660163,-0.0018776174546718608,0.0024484919311523433,0.0015670561469554867,0.006071660937500001,-0.0002869846807479898
1744140037.776832,0.6399366115234375,0.0010791473449707038,-0.0003436360420227061,0.0016814993621826167,0.0008000673032760586,0.005304429949951173,-0.0002869846807479898
1744140037.786853,0.6395532344482422,0.0010791473449707038,-0.0007271323265075694,0.0016814993621826167,0.0008000673032760586,0.004537675799560548,0.00048000043764113987
1744140037.7968433,0.6399366115234375,0.0006957702697753913,-0.0018776174546718608,0.0016814993621826167,0.0011835635877609219,0.005687807025146485,-0.0002869846807479898
1744140037.8068333,0.6403199885986328,0.0022297554077148445,-0.0003436360420227061,0.0012981222869873042,0.0019501799024105038,0.005304429949951173,-0.0002869846807479898
1744140037.8168378,0.6410872195861816,0.0014625244201660163,-0.002261111876511575,0.0016814993621826167,0.0015670561469554867,0.004537675799560548,-0.0006704809652328531
1744140037.8268101,0.6407038425109863,0.0018459014953613288,-0.002644794425511361,0.002065114855957031,0.0011835635877609219,0.005304429949951173,-0.0002869846807479898
1744140037.8368344,0.6410872195861816,0.0006957702697753913,-0.002644794425511361,0.0016814993621826167,0.0008000673032760586,0.006455038012695313,-0.0002869846807479898
1744140037.8468626,0.6410872195861816,0.0018459014953613288,-0.0030282907099962245,0.0024484919311523433,0.0004161984897613491,0.007221792163085938,9.650415315627658e-05
1744140037.8568532,0.6410872195861816,0.0003119163574218757,-0.0030282907099962245,0.0043660925628662105,0.0015670561469554867,0.008755777301025391,-0.0006704809652328531
1744140037.8668516,0.6407038425109863,0.0010791473449707038,-0.004178775838160516,0.0043660925628662105,0.0004161984897613491,0.00952300828857422,9.650415315627658e-05
1744140037.8768573,0.6410872195861816,0.0006957702697753913,-0.004178775838160516,0.004749469638061523,0.0011835635877609219,0.008755777301025391,9.650415315627658e-05
1744140037.8867927,0.6410872195861816,0.0014625244201660163,-0.005329260966324807,0.005900077700805664,0.0015670561469554867,0.01067361635131836,9.650415315627658e-05
1744140037.8968456,0.6426212047241211,0.0006957702697753913,-0.005329260966324807,0.007050447344970703,0.0011835635877609219,0.011440370501708985,-0.0002869846807479898
1744140037.906832,0.6430045817993164,0.0006957702697753913,-0.0060962516726493846,0.008201055407714843,0.0004161984897613491,0.011056993426513673,0.00048000043764113987
1744140037.9168468,0.6422378276489258,0.0018459014953613288,-0.007246736800813676,0.00896804797668457,0.0019501799024105038,0.011823747576904298,9.650415315627658e-05
1744140037.9267952,0.6449219440124512,0.0018459014953613288,-0.008397223791623117,0.009351425051879882,0.0008000673032760586,0.014124963702392579,0.00048000043764113987
1744140037.9368308,0.6430045817993164,0.0014625244201660163,-0.008397223791623117,0.010885410189819335,0.0008000673032760586,0.01335773271484375,-0.0014374735342025796
1744140037.9468324,0.6441551898620606,0.0018459014953613288,-0.00878071821346283,0.012035779833984375,0.0004161984897613491,0.014891717852783204,0.0008634967221260031
1744140037.9568398,0.6445385669372559,0.003379886633300782,-0.010698005920791627,0.012802772402954101,3.307845959663047e-05,0.015658948840332032,-0.0006704809652328531
1744140037.9668312,0.6445385669372559,0.0022297554077148445,-0.01108150220527649,0.015487365603637695,0.0008000673032760586,0.017576311053466798,-0.0006704809652328531
1744140037.9768271,0.6449219440124512,0.0010791473449707038,-0.012615483617925645,0.014720373034667968,3.307845959663047e-05,0.016809556903076173,-0.0002869846807479898
1744140037.9868302,0.645689175,0.0006957702697753913,-0.012998979902410508,0.01625435817260742,0.0019501799024105038,0.017576311053466798,9.650415315627658e-05
1744140037.9968164,0.6460725520751953,0.0010791473449707038,-0.014533147579574586,0.01740472781677246,0.0004161984897613491,0.01987752717895508,0.002013985575580593
1744140038.0068316,0.6460725520751953,0.0022297554077148445,-0.015300136423254014,0.019322328448486328,0.0015670561469554867,0.021027658404541016,-0.0002869846807479898
1744140038.0168288,0.6472231601379395,0.0014625244201660163,-0.016450621551418305,0.020089321017456054,0.0008000673032760586,0.021794889392089845,9.650415315627658e-05
1744140038.026802,0.6476065372131348,0.0006957702697753913,-0.016450621551418305,0.02085631358642578,0.0015670561469554867,0.022178266467285157,-0.0002869846807479898
1744140038.0368276,0.6495238994262695,0.0014625244201660163,-0.018751591807746888,0.021623306155395507,0.0011835635877609219,0.02447948259277344,-0.0002869846807479898
1744140038.046799,0.6487571452758789,0.0014625244201660163,-0.018751591807746888,0.023540668368530273,0.0011835635877609219,0.026396844805908204,-0.0010539772497177163
1744140038.0568237,0.6491405223510742,0.0018459014953613288,-0.02028538695588112,0.0243076609375,0.0004161984897613491,0.025246236743164063,-0.0010539772497177163
1744140038.0667996,0.6495238994262695,0.0018459014953613288,-0.022202864653015138,0.0243076609375,0.0008000673032760586,0.028697584094238282,0.00048000043764113987
1744140038.0768743,0.6502911304138184,0.0014625244201660163,-0.022969853496694566,0.027375631213378906,0.0004161984897613491,0.02831420701904297,-0.0006704809652328531
1744140038.0867918,0.6506745074890137,0.0018459014953613288,-0.024887517458343507,0.028526239276123046,0.0011835635877609219,0.03061542314453125,-0.0006704809652328531
1744140038.096824,0.6506745074890137,0.0022297554077148445,-0.02527101374282837,0.029676608920288085,0.0008000673032760586,0.03291616243286133,-0.0006704809652328531
1744140038.1068227,0.6518251155517578,0.0018459014953613288,-0.027571983999156953,0.03121059405822754,0.0011835635877609219,0.03368339342041016,-0.0006704809652328531
1744140038.1168287,0.6533591006896973,0.0022297554077148445,-0.029489457971000672,0.033895187258911136,0.0008000673032760586,0.03521737855834961,-0.0006704809652328531
1744140038.1268852,0.6533591006896973,0.0010791473449707038,-0.030639946824455262,0.035045556903076175,-0.0003504178248882328,0.03675088685913086,-0.0002869846807479898
1744140038.1368191,0.6537424777648926,0.0010791473449707038,-0.03179024196281433,0.03696315753479004,0.0011835635877609219,0.039818857135009766,-0.0002869846807479898
1744140038.1468203,0.6545097087524414,0.0014625244201660163,-0.03447470850362778,0.039647512316894534,0.0008000673032760586,0.040586088122558595,-0.0006704809652328531
1744140038.156832,0.6556598399780273,0.0014625244201660163,-0.036008876180791856,0.04041450488586426,0.0019501799024105038,0.04250345033569336,9.650415315627658e-05
1744140038.1668465,0.6568104480407715,0.0018459014953613288,-0.036008876180791856,0.04271548259277344,0.0011835635877609219,0.04327068132324219,9.650415315627658e-05
1744140038.1768432,0.6568104480407715,0.0014625244201660163,-0.039076839006090165,0.04463308322448731,0.0015670561469554867,0.045188043536376954,-0.0002869846807479898
1744140038.1868305,0.6571938251159668,0.0010791473449707038,-0.041377622997903825,0.04693406093139649,0.0011835635877609219,0.04710540574951172,-0.0006704809652328531
1744140038.196822,0.6583444331787109,0.0018459014953613288,-0.04291160441055298,0.04923503863830567,0.0015670561469554867,0.049022767962646485,9.650415315627658e-05
1744140038.2068355,0.6591116641662598,0.0010791473449707038,-0.04597975350036621,0.05115240085144043,0.0011835635877609219,0.05170736116333008,0.00048000043764113987
1744140038.2168431,0.6598784183166504,0.0010791473449707038,-0.0471302423538208,0.0530700014831543,0.0004161984897613491,0.0551587085144043,0.00048000043764113987
1744140038.226838,0.6591116641662598,0.0010791473449707038,-0.04981451517953873,0.05537074077148438,0.0011835635877609219,0.057076547564697266,-0.0010539772497177163
1744140038.2367938,0.6637136195800781,0.0018459014953613288,-0.05134850031747818,0.05805533397216797,0.0019501799024105038,0.05784330171508789,-0.0002869846807479898
1744140038.2468154,0.6629463885925293,0.0014625244201660163,-0.05441646314277649,0.05997269618530274,0.0011835635877609219,0.060527894915771485,0.00048000043764113987
1744140038.2568152,0.6644803737304688,0.0014625244201660163,-0.055950440830135346,0.06265728938598633,0.0004161984897613491,0.06436261934204102,9.650415315627658e-05
1744140038.2667997,0.6648637508056641,0.0010791473449707038,-0.05825159735097885,0.06534164416809082,0.0015670561469554867,0.06628045839233399,-0.0002869846807479898
1744140038.2768226,0.6660143588684082,0.0018459014953613288,-0.06016907877340317,0.06649225223083496,0.0004161984897613491,0.06858119768066406,9.650415315627658e-05
1744140038.286834,0.6663977359436035,0.0010791473449707038,-0.06362053043260574,0.07071059215087891,0.0008000673032760586,0.06934842866821289,-0.0006704809652328531
1744140038.2968237,0.6675483440063477,0.0018459014953613288,-0.06515451557054519,0.07224457728881836,0.0011835635877609219,0.07433376115722656,9.650415315627658e-05
1744140038.3068752,0.6686989520690918,0.0006957702697753913,-0.06822228468074798,0.076079540133667,0.0011835635877609219,0.07510051530761719,-0.0002869846807479898
1744140038.3168526,0.6706163142822266,-7.14607177734368e-05,-0.07052326238765716,0.07761352527160645,0.0008000673032760586,0.07893571657104492,-0.0010539772497177163
1744140038.3268192,0.6717669223449707,0.0014625244201660163,-0.07282423264398574,0.0818321036102295,0.0015670561469554867,0.081236455859375,-0.0002869846807479898
1744140038.336852,0.6733009074829102,0.0014625244201660163,-0.07627568430318832,0.08336608874816895,0.0015670561469554867,0.08430442613525391,-0.0010539772497177163
1744140038.3468816,0.6733009074829102,0.0010791473449707038,-0.07934383339300155,0.08681743609924317,0.0015670561469554867,0.0869890193359375,0.0008634967221260031
1744140038.3567903,0.6744510387084961,-7.14607177734368e-05,-0.08126131481542587,0.08950202929992676,0.0008000673032760586,0.09082374376220703,-0.0010539772497177163
1744140038.3668387,0.6752182696960449,0.0006957702697753913,-0.08432927764072418,0.09410398471374512,0.0004161984897613491,0.0927415828125,-0.0002869846807479898
1744140038.3768458,0.6779028628967285,0.0010791473449707038,-0.08701374418153762,0.09870570170898438,0.0015670561469554867,0.09580955308837891,-0.0006704809652328531
1744140038.3868434,0.6786696170471191,0.0018459014953613288,-0.091232002145195,0.10139029490966797,0.0008000673032760586,0.09887752336425781,-0.0006704809652328531
1744140038.3968403,0.6798202251098633,0.0018459014953613288,-0.09353297240152358,0.10369127261657715,0.0004161984897613491,0.10271224779052734,-0.0006704809652328531
1744140038.4068294,0.6821209643981934,0.0022297554077148445,-0.09621743894233703,0.10637562739868164,0.0008000673032760586,0.10539684099121094,-0.0002869846807479898
1744140038.4168372,0.6821209643981934,0.0014625244201660163,-0.10005238688602447,0.10944359767456055,0.0019501799024105038,0.10808143419189453,-0.0002869846807479898
1744140038.4268608,0.6844221805236816,0.0014625244201660163,-0.10235355085744857,0.11327856051940918,0.0019501799024105038,0.11191615861816406,-0.0010539772497177163
1744140038.4368088,0.6859561656616211,0.0010791473449707038,-0.10657200253620147,0.11749713885803223,0.0004161984897613491,0.11613473695678711,-0.0006704809652328531
1744140038.4468634,0.6878735278747559,0.0018459014953613288,-0.11002345419540405,0.12094848620910645,0.0004161984897613491,0.11958608430786133,9.650415315627658e-05
1744140038.456861,0.6890241359375,0.0010791473449707038,-0.1123242381872177,0.12478344905395508,0.0015670561469554867,0.1215034465209961,0.00048000043764113987
1744140038.4668307,0.6905581210754395,0.0022297554077148445,-0.11654268241539001,0.1282350348236084,0.0015670561469554867,0.12687263292236328,-0.0010539772497177163
1744140038.4768243,0.6913248752258301,0.0022297554077148445,-0.12037763035907745,0.13168638217468262,0.0019501799024105038,0.1303239802734375,-0.0006704809652328531
1744140038.4868114,0.6924754832885742,0.0003119163574218757,-0.12344577944889068,0.13513796794433594,0.0004161984897613491,0.13377532762451172,-0.0002869846807479898
1744140038.4968297,0.694392845501709,0.0018459014953613288,-0.1265137497247696,0.13897269237060547,0.0019501799024105038,0.13607654375,9.650415315627658e-05
1744140038.5068297,0.696310684552002,0.0006957702697753913,-0.1307321939529419,0.14395826327819825,0.0004161984897613491,0.1418286303894043,-0.0010539772497177163
1744140038.5168009,0.6982280467651367,0.0010791473449707038,-0.13495045936717986,0.1485602186920166,0.0011835635877609219,0.14412984651489258,0.00048000043764113987
1744140038.5268357,0.6993786548278809,0.0006957702697753913,-0.13840191102638244,0.15239518153686524,0.0008000673032760586,0.14911517900390625,-0.0006704809652328531
1744140038.536834,0.7005287860534668,0.0010791473449707038,-0.14185336268558502,0.15584652888793946,0.0004161984897613491,0.1533337573425293,-0.0006704809652328531
1744140038.546842,0.7032133792541504,0.0010791473449707038,-0.14607200062885284,0.1600651072265625,0.0011835635877609219,0.1564017276184082,9.650415315627658e-05
1744140038.5568163,0.7051307414672852,0.0018459014953613288,-0.14913997090473174,0.16390007007141114,0.0004161984897613491,0.16100368303222656,-0.0002869846807479898
1744140038.566806,0.7062813495300293,0.0014625244201660163,-0.15297472513332366,0.1688854025604248,0.0008000673032760586,0.16407165330810547,9.650415315627658e-05
1744140038.576797,0.7093493198059082,0.0010791473449707038,-0.1579601619304657,0.17348735797424317,3.307845959663047e-05,0.16944036287231445,0.00048000043764113987
1744140038.586831,0.7116500590942383,0.0006957702697753913,-0.1621786210597992,0.17847292888183594,3.307845959663047e-05,0.17442569536132813,-0.0006704809652328531
1744140038.5967953,0.7124172900817871,0.0006957702697753913,-0.16678074038639068,0.1830746458770752,0.0011835635877609219,0.17902765077514649,-0.0006704809652328531
1744140038.6068223,0.7131840442321777,0.0010791473449707038,-0.17099918461456298,0.18690960872192383,-0.0003504178248882328,0.18286285203857422,-0.0006704809652328531
1744140038.6167972,0.7158686374328613,0.0014625244201660163,-0.1748339537443161,0.19112818706054688,0.0004161984897613491,0.18669757646484375,-0.0006704809652328531
1744140038.6268265,0.7181698535583496,0.0003119163574218757,-0.17866890168800353,0.19534652698059082,0.0011835635877609219,0.1912995318786621,-0.0002869846807479898
1744140038.6367998,0.7200872157714844,0.0022297554077148445,-0.1832708571018219,0.20148246753234864,0.0019501799024105038,0.19551811021728516,-0.0006704809652328531
1744140038.6468189,0.7212378238342285,0.0010791473449707038,-0.1874893013299942,0.20531743037719727,3.307845959663047e-05,0.20127067369384766,0.00048000043764113987
1744140038.6568177,0.7223879550598145,0.0010791473449707038,-0.19170793927326202,0.21260397899169922,0.0011835635877609219,0.2051053981201172,-0.0002869846807479898
1744140038.6667998,0.7258397792480469,0.0014625244201660163,-0.19669318235530853,0.21643894183654785,0.0011835635877609219,0.21009073060913086,0.0008634967221260031
1744140038.6768045,0.7269899104736328,0.0010791473449707038,-0.20091162658348083,0.22104089725036621,0.0015670561469554867,0.21584329408569336,-0.0006704809652328531
1744140038.6868,0.7300578807495117,0.0014625244201660163,-0.20628055966510772,0.22487562167663575,0.0008000673032760586,0.22044524949951172,-0.0010539772497177163
1744140038.696831,0.7300578807495117,0.0014625244201660163,-0.2108826938928604,0.22986119258422852,0.0008000673032760586,0.22428045076293945,-0.0002869846807479898
1744140038.7067943,0.7335097049377441,0.0003119163574218757,-0.21471764183654785,0.23638051021118164,0.0008000673032760586,0.23079976838989258,-0.0006704809652328531
1744140038.7168503,0.7354270671508789,0.0014625244201660163,-0.2212368700565338,0.24136608111877442,3.307845959663047e-05,0.2342511157409668,-0.0002869846807479898
1744140038.7268548,0.737727806439209,0.0018459014953613288,-0.22583882547035217,0.2463514136077881,0.0011835635877609219,0.24077043336791992,-0.0006704809652328531
1744140038.7368217,0.7407957767150879,0.0003119163574218757,-0.23005725479736328,0.25210397708435056,0.0011835635877609219,0.2457562426940918,-0.0006704809652328531
1744140038.7468429,0.741946384777832,0.0003119163574218757,-0.23504288530960082,0.2563223170043945,0.0015670561469554867,0.25035772127075195,-0.0014374735342025796
1744140038.756838,0.7434803699157715,0.0006957702697753913,-0.24002812839164733,0.26360886561889646,0.0004161984897613491,0.25534353059692383,9.650415315627658e-05
1744140038.766818,0.7450143550537109,0.0003119163574218757,-0.24578057265892028,0.2682105826141357,-0.0003504178248882328,0.2603288630859375,9.650415315627658e-05
1744140038.7769127,0.7476989482543945,0.0003119163574218757,-0.2507659945549011,0.27242916095275876,0.0019501799024105038,0.2656975726501465,0.00048000043764113987
1744140038.7868254,0.7499996875427246,0.0006957702697753913,-0.2553681287826538,0.2793320940734863,0.0008000673032760586,0.27336749833984375,-0.0002869846807479898
1744140038.7968225,0.7526842807434082,0.0010791473449707038,-0.2607368681491852,0.28623502719421384,0.0023340487159252132,0.2772026996032715,-0.0010539772497177163
1744140038.8068297,0.754601642956543,0.0006957702697753913,-0.26610581613197326,0.29160397517700193,0.0011835635877609219,0.28448924821777344,-0.0010539772497177163
1744140038.8168302,0.7580529903076172,0.0003119163574218757,-0.27147473431243896,0.2973563002349853,3.307845959663047e-05,0.2887073497192383,0.00048000043764113987
1744140038.8268595,0.7611209605834961,0.0003119163574218757,-0.27799434996261596,0.3027252482177734,0.0004161984897613491,0.2944599131958008,-0.0002869846807479898
1744140038.8368306,0.7615048144958496,0.002613132482910157,-0.2818291041912079,0.30732720363159177,0.0004161984897613491,0.3005958537475586,-0.0006704809652328531
1744140038.8468418,0.7645727847717285,0.0018459014953613288,-0.2879650447429657,0.31499712932128904,0.0011835635877609219,0.30558118623657227,-0.0002869846807479898
1744140038.8568122,0.766106769909668,0.0006957702697753913,-0.2929504666389465,0.3199824618103027,0.0015670561469554867,0.3117171267883301,-0.0006704809652328531
1744140038.8668258,0.7691747401855469,0.0022297554077148445,-0.2979360971511841,0.32650201785583494,0.0011835635877609219,0.3174696902648926,-0.0006704809652328531
1744140038.8768215,0.7722427104614258,0.0010791473449707038,-0.30522231794013976,0.33302133548278806,0.0011835635877609219,0.32283839982910156,-0.0002869846807479898
1744140038.8868425,0.7726260875366211,0.0010791473449707038,-0.310207769638443,0.33877389895935056,0.0004161984897613491,0.32859096330566406,0.00048000043764113987
1744140038.8968606,0.7764608119628906,0.0010791473449707038,-0.31596039271965026,0.3452932165863037,0.0015670561469554867,0.3351102809326172,-0.0006704809652328531
1744140038.9068992,0.7787620280883789,-7.14607177734368e-05,-0.32132931090011596,0.35066216456909177,0.0004161984897613491,0.34009561342163086,0.00048000043764113987
1744140038.9168317,0.7806793903015137,0.0006957702697753913,-0.32746504283561706,0.3567981051208496,0.0011835635877609219,0.3492995242492676,9.650415315627658e-05
1744140038.9268985,0.7841307376525879,0.0022297554077148445,-0.33283399081840515,0.36408441531677244,0.0004161984897613491,0.35428533357543945,-0.0002869846807479898
1744140038.9368274,0.7856647227905273,0.0018459014953613288,-0.33935357666625976,0.3713709639312744,0.0015670561469554867,0.35965404313964844,-0.0002869846807479898
1744140038.9468231,0.7894999240539551,0.0014625244201660163,-0.3447223458351135,0.3771232889892578,0.0004161984897613491,0.36540660661621094,-0.0002869846807479898
1744140038.9568405,0.7921845172546387,-7.14607177734368e-05,-0.3512417528690338,0.38364284503479,0.0004161984897613491,0.37154254716796875,-0.0014374735342025796
1744140038.9667976,0.7929512714050293,0.0018459014953613288,-0.3566106710494995,0.3897787855865478,0.0008000673032760586,0.37767848771972656,9.650415315627658e-05
1744140038.9768057,0.7967859958312988,0.0022297554077148445,-0.36159630156173705,0.39629810321350095,0.0008000673032760586,0.3841978053466797,-0.0014374735342025796
1744140038.9868023,0.8002378200195313,0.0006957702697753913,-0.3684990260662079,0.4028174208404541,0.0004161984897613491,0.39186773103637695,-0.0006704809652328531
1744140038.9968514,0.8013879512451172,0.0010791473449707038,-0.3746349666179657,0.4089533613922119,0.0011835635877609219,0.39723644060058594,-0.0002869846807479898
1744140039.0068297,0.8040725444458008,0.0018459014953613288,-0.381154373651886,0.41623991000671384,0.0008000673032760586,0.4045229892150879,-0.0002869846807479898
1744140039.016845,0.8082911227844238,0.0010791473449707038,-0.38767381048812866,0.4235262202026367,0.0015670561469554867,0.41180953782958984,-0.0006704809652328531
1744140039.0268772,0.8105918620727539,0.0006957702697753913,-0.3934262249530792,0.4288951681854248,0.0008000673032760586,0.4167948703186035,-0.0002869846807479898
1744140039.036834,0.8125097011230469,0.0003119163574218757,-0.3991786394180298,0.43694847095031736,0.0015670561469554867,0.42331418794555664,0.0008634967221260031
1744140039.046879,0.8163444255493164,0.0010791473449707038,-0.4064652476371765,0.4434680269958496,0.0015670561469554867,0.42983350557250977,-0.0002869846807479898
1744140039.0568285,0.8178784106872559,0.0014625244201660163,-0.41221748328819274,0.45152132976074216,0.0019501799024105038,0.4371200541870117,-0.0002869846807479898
1744140039.0668643,0.8209463809631348,0.0010791473449707038,-0.4191204164089203,0.45727389323730466,0.0011835635877609219,0.44363937181396484,-0.0002869846807479898
1744140039.0768259,0.823247597088623,0.0006957702697753913,-0.42602331972732543,0.46571081149597165,0.0015670561469554867,0.4516931514160156,0.00048000043764113987
1744140039.0868115,0.8266989444396973,0.0014625244201660163,-0.43139223790779113,0.4722301291229248,0.0019501799024105038,0.4566784839050293,0.00048000043764113987
1744140039.0968106,0.8293835376403809,0.0003119163574218757,-0.4379116747440338,0.4783660696746826,0.0015670561469554867,0.46434840959472656,9.650415315627658e-05
1744140039.1067934,0.8309175227783203,0.0018459014953613288,-0.4451980743469238,0.48603599536437986,0.0004161984897613491,0.47010049623413086,0.0008634967221260031
1744140039.1168277,0.8362862323425293,0.0022297554077148445,-0.4517174813808441,0.49217193591613767,-0.0007339141093730961,0.4773870448486328,-0.0002869846807479898
1744140039.1268353,0.8378202174804688,0.0006957702697753913,-0.4578534219326019,0.4990748690368652,0.0004161984897613491,0.48467359346313477,-0.0002869846807479898
1744140039.1368191,0.8408881877563477,0.0006957702697753913,-0.4643728289665222,0.5067447947265625,0.0004161984897613491,0.49234351915283203,9.650415315627658e-05
1744140039.1468205,0.8435727809570313,0.0003119163574218757,-0.4716592583717346,0.5159487055541992,0.0008000673032760586,0.49924621385498047,0.00048000043764113987
1744140039.1568341,0.8470241283081055,0.0018459014953613288,-0.47894565797462463,0.5224680231811524,0.0004161984897613491,0.5065327624694824,-0.0010539772497177163
1744140039.166811,0.8500920985839844,0.0006957702697753913,-0.4846980724395752,0.5286039637329102,0.0004161984897613491,0.5130520800964355,-0.0002869846807479898
1744140039.1768076,0.8520094607971191,0.0010791473449707038,-0.49160118437423705,0.5362738894226075,0.0011835635877609219,0.5211053828613281,9.650415315627658e-05
1744140039.1868248,0.8566114162109375,0.0010791473449707038,-0.49888743496551513,0.5424098299743653,0.0015670561469554867,0.5268579463378906,0.00048000043764113987
1744140039.1968322,0.8577620242736816,0.0003119163574218757,-0.5046398196281433,0.5508467482330323,0.0015670561469554867,0.5349112491027832,-0.0002869846807479898
1744140039.206868,0.8619806026123047,0.0018459014953613288,-0.511159256464386,0.5589000509979248,0.0015670561469554867,0.5418144206420898,-0.0006704809652328531
1744140039.2167983,0.8635145877502441,0.002613132482910157,-0.5188291821540832,0.566953472972107,0.0008000673032760586,0.5479503611938477,-0.0002869846807479898
1744140039.2268078,0.8673493121765137,0.0006957702697753913,-0.5261155519546509,0.5742399023773194,0.0023340487159252132,0.5556202868835449,9.650415315627658e-05
1744140039.2368152,0.8692666743896484,0.0006957702697753913,-0.5330186638893127,0.5811428354980469,0.0004161984897613491,0.5632902125732422,9.650415315627658e-05
1744140039.2468204,0.8734852527282715,0.0010791473449707038,-0.5391544256271362,0.5891961382629395,0.0023340487159252132,0.5713435153381348,0.00048000043764113987
1744140039.2568526,0.8754026149414063,-7.14607177734368e-05,-0.5456738028587341,0.5953320788146973,0.0008000673032760586,0.5793968181030273,0.00048000043764113987
1744140039.2668526,0.8784705852172852,0.0003119163574218757,-0.5537272248329163,0.6041524933578492,0.0011835635877609219,0.5839987735168457,0.00048000043764113987
1744140039.2768352,0.8807718013427734,0.0006957702697753913,-0.5606301579536438,0.6122059153320313,0.0008000673032760586,0.5932026843444824,9.650415315627658e-05
1744140039.2868278,0.8838397716186523,0.0014625244201660163,-0.5667660389007568,0.6202593373062134,3.307845959663047e-05,0.6008726100341797,-0.0006704809652328531
1744140039.2968333,0.8872911189697266,0.0006957702697753913,-0.574819460874939,0.6279291437866211,0.0015670561469554867,0.6093092898742676,0.0008634967221260031
1744140039.3068593,0.8903590892456055,0.0010791473449707038,-0.5817225728096008,0.6348320769073487,0.0011835635877609219,0.6146784762756348,-0.0002869846807479898
1744140039.316794,0.8934270595214844,0.0006957702697753913,-0.5886252675117493,0.6428854988815308,0.0008000673032760586,0.6227317790405273,-0.0006704809652328531
1744140039.3268573,0.8976456378601074,0.0003119163574218757,-0.5962951932014465,0.6494049357177735,3.307845959663047e-05,0.6311684588806152,-0.0002869846807479898
1744140039.336866,0.9003297542236328,-7.14607177734368e-05,-0.6028146300376892,0.6582253502609253,0.0019501799024105038,0.6376882533447266,9.650415315627658e-05
1744140039.3467991,0.9049317096374512,0.0006957702697753913,-0.6108679924072266,0.6651282833816529,0.0008000673032760586,0.6449743251220703,-0.0002869846807479898
1744140039.3568008,0.9060823177001953,-0.0008382148681640618,-0.6177709255279541,0.6731815861465454,0.0011835635877609219,0.6534114817993164,9.650415315627658e-05
1744140039.3668334,0.9087669109008789,0.0006957702697753913,-0.6250575337471008,0.6816185044052124,0.0015670561469554867,0.6603141765014648,0.00048000043764113987
1744140039.376864,0.9122182582519531,0.0006957702697753913,-0.6308097395957947,0.6900554226638794,0.0008000673032760586,0.6679841021911621,-0.0006704809652328531
1744140039.3868546,0.9164368365905762,-7.14607177734368e-05,-0.6392466578544617,0.6961913632156372,0.0011835635877609219,0.6752706508056641,-0.0010539772497177163
1744140039.3968005,0.9187375758789063,0.0006957702697753913,-0.6457660946907043,0.7046282814743042,0.0011835635877609219,0.683707330645752,0.0008634967221260031
1744140039.406838,0.9210387920043945,0.0003119163574218757,-0.653052464491272,0.7138320730926514,0.0015670561469554867,0.6917611102478027,-0.0006704809652328531
1744140039.4168515,0.9252568935058594,0.0006957702697753913,-0.6618730578483581,0.7207350062133789,0.0004161984897613491,0.6982804278747559,0.0008634967221260031
1744140039.4268472,0.9287087176940918,0.0003119163574218757,-0.668008998400116,0.7303224133255005,0.0011835635877609219,0.7067171077148438,0.00048000043764113987
1744140039.4367964,0.9310094569824219,0.0010791473449707038,-0.6752951893867493,0.7376088427307129,0.0015670561469554867,0.7132369021789551,9.650415315627658e-05
1744140039.4468374,0.9348446582458496,0.0003119163574218757,-0.6825816187919617,0.7437447832824707,0.0015670561469554867,0.7228241900817871,9.650415315627658e-05
1744140039.4568007,0.9379126285217285,0.0006957702697753913,-0.690634981161499,0.7525651978256226,0.0004161984897613491,0.7293435077087402,-0.0010539772497177163
1744140039.4667926,0.9413639758728027,0.0014625244201660163,-0.6983049068511963,0.7606185005905152,0.0019501799024105038,0.7370134333984375,0.00048000043764113987
