marzuk-umich/fetch_joint_controls/test/Velocity Decay Logs/commanded_all_joints.csv
Time,Joint_0,Joint_1,Joint_2,Joint_3,Joint_4,Joint_5,Joint_6
1744140050.7007113,-0.785391618420803,0.010006544674705358,-1.2279559591377165e-09,-1.1636751446317664e-07,0.0,0.050006542604706467,0.0
1744140050.7107112,-0.7853719835094575,0.010026178378674065,-2.0592658587685396e-10,-1.1194700068059657e-07,0.0,0.05001975257185632,0.0
1744140050.7207112,-0.7853392586820019,0.010058900791758751,7.771985932949177e-09,3.6678459851985023e-07,0.0,0.05003321205448001,0.0
1744140050.7307112,-0.7852934439384364,0.010104711913959421,2.270578159734037e-08,1.3198272831381638e-06,0.0,0.05004692105257755,0.0
1744140050.7407112,-0.7852345392787607,0.010163611745276073,4.4595460407296737e-08,2.7471810531743443e-06,0.0,0.05006087956614893,0.0
1744140050.7507112,-0.7851625447029751,0.010235600285708706,7.344102236281827e-08,4.648845908628391e-06,0.0,0.05007508759519415,0.0
1744140050.7607112,-0.7850774602110794,0.010320677535257321,1.0924246746390497e-07,7.024821849500305e-06,0.0,0.05008954513971321,0.0
1744140050.7707112,-0.7849792858030736,0.01041884349392192,1.5199979571055684e-07,9.875108875790085e-06,0.0,0.05010425219970612,0.0
1744140050.7807112,-0.7848680214789578,0.010530098161702499,2.0171300710277387e-07,1.3199706987497732e-05,0.0,0.05011920877517287,0.0
1744140050.7907112,-0.7847436672387321,0.01065444153859906,2.583821016405561e-07,1.6998616184623246e-05,0.0,0.05013441486611346,0.0
1744140050.8007112,-0.7846062230823964,0.010791873624611604,3.220070793239035e-07,2.1271836467166626e-05,0.0,0.0501498704725279,0.0
1744140050.8107111,-0.7844556890099506,0.01094239441974013,3.9258794015281606e-07,2.6019367835127872e-05,0.0,0.05016557559441617,0.0
1744140050.8207114,-0.7842920650213947,0.011106003923984637,4.701246841272938e-07,3.1241210288506987e-05,0.0,0.05018153023177829,0.0
1744140050.8307114,-0.7841153511167288,0.011282702137345127,5.546173112473367e-07,3.6937363827303966e-05,0.0,0.05019773438461426,0.0
1744140050.8407114,-0.7839255472959529,0.0114724890598216,6.460658215129447e-07,4.310782845151881e-05,0.0,0.05021418805292406,0.0
1744140050.8507113,-0.7837226535590669,0.011675364691414053,7.444702149241179e-07,4.975260416115153e-05,0.0,0.05023089123670771,0.0
1744140050.8607113,-0.7835066699060709,0.01189132903212249,8.498304914808563e-07,5.687169095620211e-05,0.0,0.0502478439359652,0.0
1744140050.8707113,-0.7832775963369648,0.012120382081946908,9.621466511831599e-07,6.446508883667056e-05,0.0,0.05026504615069653,0.0
1744140050.8807113,-0.7830354328517487,0.012362523840887308,1.0814186940310285e-06,7.253279780255689e-05,0.0,0.05028249788090171,0.0
1744140050.8907113,-0.7827801794504226,0.01261775430894369,1.2076466200244623e-06,8.107481785386108e-05,0.0,0.05030019912658073,0.0
1744140050.9007113,-0.7825118361329864,0.012886073486116055,1.3408304291634612e-06,9.009114899058314e-05,0.0,0.05031814988773359,0.0
1744140050.9107113,-0.7822304028994401,0.0131674813724044,1.4809701214480252e-06,9.958179121272306e-05,0.0,0.05033635016436029,0.0
1744140050.9207113,-0.7819358797497838,0.013461977967808729,1.6280656968781544e-06,0.00010954674452028085,0.0,0.05035479995646084,0.0
1744140050.9307113,-0.7816282666840175,0.01376956327232904,1.7821171554538489e-06,0.0001199860089132565,0.0,0.050373499264035226,0.0
1744140050.9407113,-0.7813075637021412,0.014090237285965333,1.9431244971751087e-06,0.00013089958439165003,0.0,0.05039244808708346,0.0
1744140050.9507113,-0.7809737708041548,0.014424000008717608,2.1110877220419338e-06,0.00014228747095546143,0.0,0.050411646425605534,0.0
1744140050.9607112,-0.7806268879900583,0.014770851440585864,2.286006830054324e-06,0.00015414966860469067,0.0,0.05043109427960145,0.0
1744140050.9707112,-0.7802669152598518,0.015130791581570104,2.4678818212122793e-06,0.0001664861773393378,0.0,0.05045079164907121,0.0
1744140050.9807112,-0.7798938526135353,0.015503820431670324,2.6567126955157998e-06,0.00017929699715940278,0.0,0.05047073853401481,0.0
1744140050.9907112,-0.7795077000511087,0.015889937990886525,2.8524994529648856e-06,0.00019258212806488563,0.0,0.050490934934432255,0.0
1744140051.0007112,-0.7791084575725721,0.01628914425921871,3.0552420935595365e-06,0.00020634157005578634,0.0,0.05051138085032354,0.0
1744140051.0107112,-0.7786961251779254,0.01670143923666688,3.2649406172997524e-06,0.00022057532313210493,0.0,0.050532076281688675,0.0
1744140051.0207112,-0.7782707028671687,0.017126822923231026,3.4815950241855337e-06,0.00023528338729384137,0.0,0.050553021228527645,0.0
1744140051.0307112,-0.777832190640302,0.017565295318911156,3.70520531421688e-06,0.00025046576254099563,0.0,0.05057421569084046,0.0
1744140051.0407112,-0.7773805884973252,0.01801685642370727,3.935771487393792e-06,0.0002661224488735678,0.0,0.05059565966862712,0.0
1744140051.0507112,-0.7769158964382383,0.018481506237619363,4.173293543716268e-06,0.0002822534462915578,0.0,0.05061735316188762,0.0
1744140051.0607111,-0.7764381144630416,0.01895924476064744,4.4177714831843104e-06,0.00029885875479496567,0.0,0.05063929617062196,0.0
1744140051.0707114,-0.7759472425717348,0.0194500719927915,4.669205305797918e-06,0.0003159383743837914,0.0,0.05066148869483015,0.0
1744140051.0807114,-0.7754432807643179,0.019953987934051544,4.92759501155709e-06,0.00033349230505803505,0.0,0.050683930734512175,0.0
1744140051.0907114,-0.774926229040791,0.020470992584427566,5.1929406004618275e-06,0.00035152054681769656,0.0,0.050706622289668046,0.0
1744140051.1007113,-0.7743960874011541,0.02100108594391957,5.4652420725121305e-06,0.0003700230996627759,0.0,0.05072956336029776,0.0
1744140051.1107113,-0.7738528558454071,0.021544268012527557,5.744499427707998e-06,0.0003889999635932731,0.0,0.050752753946401316,0.0
1744140051.1207113,-0.7732965343735501,0.022100538790251527,6.030712666049431e-06,0.0004084511386091882,0.0,0.050776194047978715,0.0
1744140051.1307113,-0.772727122985583,0.02266989827709148,6.323881787536429e-06,0.00042837662471052117,0.0,0.05079988366502996,0.0
1744140051.1407113,-0.7721446216815059,0.023252346473047414,6.624006792168993e-06,0.00044877642189727196,0.0,0.05082382279755504,0.0
1744140051.1507113,-0.7715490304613187,0.023847883378119328,6.931087679947121e-06,0.00046965053016944063,0.0,0.05084801144555397,0.0
1744140051.1607113,-0.7709403493250215,0.024456508992307224,7.245124450870815e-06,0.0004909989495270272,0.0,0.05087244960902674,0.0
1744140051.1707113,-0.7703185782726143,0.025078223315611103,7.566117104940074e-06,0.0005128216799700317,0.0,0.05089713728797335,0.0
1744140051.1807113,-0.769683717304097,0.025713026348030965,7.894065642154899e-06,0.000535118721498454,0.0,0.0509220744823938,0.0
1744140051.1907113,-0.7690357664194697,0.02636091808956681,8.228970062515289e-06,0.0005578900741122942,0.0,0.0509472611922881,0.0
1744140051.209783,-0.7690357664194697,0.02636091808956681,8.228970062515289e-06,0.0005578900741122942,0.0,0.0509472611922881,0.0
1744140051.219783,-0.768380076932681,0.027008811377843184,8.53321201606012e-06,0.0005807188544160332,0.0,0.050966047840038595,0.0
1744140051.229783,-0.7677220001576794,0.02764361905048464,8.769173152828274e-06,0.0006031881790141518,0.0,0.05097178484802764,0.0
1744140051.239783,-0.7670615360944651,0.028265341107491175,8.936853472819751e-06,0.00062529804790665,0.0,0.05096447221625524,0.0
1744140051.249783,-0.7663986847430381,0.028873977548862794,9.03625297603455e-06,0.0006470484610935279,0.0,0.05094410994472139,0.0
1744140051.259783,-0.7657334461033982,0.029469528374599496,9.06737166247267e-06,0.0006684394185747856,0.0,0.05091069803342609,0.0
1744140051.269783,-0.7650658201755456,0.03005199358470128,9.030209532134112e-06,0.0006894709203504228,0.0,0.050864236482369346,0.0
1744140051.279783,-0.7643958069594802,0.030621373179168142,8.924766585018877e-06,0.0007101429664204396,0.0,0.05080472529155115,0.0
1744140051.289783,-0.763723406455202,0.031177667158000088,8.751042821126963e-06,0.0007304555567848362,0.0,0.050732164460971514,0.0
1744140051.299783,-0.763048618662711,0.03172087552119712,8.509038240458371e-06,0.0007504086914436124,0.0,0.05064655399063042,0.0
1744140051.309783,-0.7623714435820073,0.03225099826875923,8.198752843013102e-06,0.0007700023703967682,0.0,0.05054789388052788,0.0
1744140051.319783,-0.7616918812130907,0.03276803540068643,7.820186628791154e-06,0.0007892365936443037,0.0,0.0504361841306639,0.0
1744140051.3297832,-0.7610099315559614,0.033271986916978705,7.3733395977925295e-06,0.0008081113611862188,0.0,0.05031142474103847,0.0
1744140051.3397832,-0.7603255946106193,0.033762852817636066,6.858211750017226e-06,0.0008266266730225135,0.0,0.05017361571165158,0.0
1744140051.3497832,-0.7596388703770645,0.034240633102658506,6.274803085465246e-06,0.0008447825291531879,0.0,0.05002275704250325,0.0
1744140051.3597832,-0.7589497588552968,0.034705327772046025,5.623113604136588e-06,0.000862578929578242,0.0,0.049858848733593475,0.0
1744140051.3697832,-0.7582582600453164,0.03515693682579863,4.903143306031251e-06,0.0008800158742976758,0.0,0.04968189078492225,0.0
1744140051.3797832,-0.7575643739471233,0.035595460263916315,4.1148921911492365e-06,0.0008970933633114891,0.0,0.04949188319648958,0.0
1744140051.3897831,-0.7568681005607174,0.036020898086399085,3.2583602594905434e-06,0.0009138113966196821,0.0,0.04928882596829546,0.0
1744140051.3997831,-0.7561694398860987,0.036433250293246934,2.3335475110551726e-06,0.0009301699742222548,0.0,0.04907271910033989,0.0
1744140051.4097831,-0.7554683919232673,0.03683251688445986,1.3404539458431237e-06,0.0009461690961192072,0.0,0.048843562592622874,0.0
1744140051.419783,-0.7547649566722231,0.037218697860037876,2.7907956385439677e-07,0.0009618087623105392,0.0,0.04860135644514441,0.0
1744140051.429783,-0.7540591341329661,0.03759179321998097,-8.505756349110083e-07,0.0009770889727962508,0.0,0.0483461006579045,0.0
1744140051.439783,-0.7533509243054963,0.03795180296428915,-2.048511650453091e-06,0.000992009727576342,0.0,0.048077795230903136,0.0
1744140051.449783,-0.7526403271898138,0.038298727092962406,-3.314728482771852e-06,0.0010065710266508128,0.0,0.04779644016414033,0.0
1744140051.459783,-0.7519273427859184,0.03863256560600074,-4.64922613186729e-06,0.0010207728700196634,0.0,0.047502035457616075,0.0
1744140051.469783,-0.7512119710938103,0.038953318503404166,-6.052004597739407e-06,0.0010346152576828935,0.0,0.04719458111133037,0.0
1744140051.479783,-0.7504942121134894,0.03926098578517267,-7.5230638803882006e-06,0.0010480981896405033,0.0,0.046874077125283214,0.0
1744140051.489783,-0.7497740658449558,0.039555567451306256,-9.062403979813674e-06,0.0010612216658924928,0.0,0.046540523499474615,0.0
1744140051.499783,-0.7490515322882093,0.03983706350180492,-1.0670024896015824e-05,0.0010739856864388619,0.0,0.04619392023390457,0.0
1744140051.509783,-0.7483266114432501,0.04010547393666867,-1.2345926628994653e-05,0.0010863902512796106,0.0,0.045834267328573076,0.0
1744140051.519783,-0.7475993033100781,0.0403607987558975,-1.409010917875016e-05,0.001098435360414739,0.0,0.04546156478348013,0.0
1744140051.529783,-0.7468696078886933,0.04060303795949141,-1.5902572545282345e-05,0.001110121013844247,0.0,0.04507581259862574,0.0
1744140051.539783,-0.7461375251790957,0.04083219154745041,-1.7783316728591205e-05,0.0011214472115681348,0.0,0.0446770107740099,0.0
1744140051.549783,-0.7454030551812854,0.041048259519774484,-1.9732341728676745e-05,0.0011324139535864022,0.0,0.044265159309632617,0.0
1744140051.559783,-0.7446661978952622,0.04125124187646364,-2.1749647545538964e-05,0.0011430212398990491,0.0,0.04384025820549388,0.0
1744140051.569783,-0.7439269533210263,0.04144113861751788,-2.3835234179177858e-05,0.0011532690705060758,0.0,0.043402307461593695,0.0
1744140051.5797832,-0.7431853214585776,0.0416179497429372,-2.598910162959343e-05,0.0011631574454074821,0.0,0.042951307077932065,0.0
1744140051.5897832,-0.7424413023079162,0.041781675252721605,-2.8211249896785683e-05,0.001172686364603268,0.0,0.04248725705450899,0.0
1744140051.5997832,-0.7416948958690419,0.04193231514687109,-3.0501678980754614e-05,0.0011818558280934336,0.0,0.04201015739132446,0.0
1744140051.6097832,-0.7409461021419549,0.04206986942538565,-3.2860388881500224e-05,0.0011906658358779789,0.0,0.04152000808837848,0.0
1744140051.6197832,-0.7401949211266551,0.0421943380882653,-3.5287379599022506e-05,0.0011991163879569039,0.0,0.04101680914567106,0.0
1744140051.6297832,-0.7394413528231425,0.04230572113551003,-3.778265113332147e-05,0.0012072074843302084,0.0,0.04050056056320219,0.0
1744140051.6397831,-0.7386853972314171,0.042404018567119846,-4.034620348439711e-05,0.0012149391249978926,0.0,0.039971262340971876,0.0
1744140051.6497831,-0.737927054351479,0.04248923038309474,-4.2978036652249426e-05,0.0012223113099599566,0.0,0.03942891447898011,0.0
1744140051.6597831,-0.7371663241833281,0.04256135658343471,-4.5678150636878424e-05,0.0012293240392164,0.0,0.038873516977226893,0.0
1744140051.669783,-0.7364032067269644,0.04262039716813977,-4.84465454382841e-05,0.0012359773127672232,0.0,0.03830506983571223,0.0
1744140051.679783,-0.7356377019823879,0.04266635213720991,-5.128322105646645e-05,0.0012422711306124261,0.0,0.037723573054436126,0.0
1744140051.689783,-0.7348698099495986,0.04269922149064513,-5.418817749142548e-05,0.0012482054927520085,0.0,0.037129026633398565,0.0
1744140051.699783,-0.7340995306285966,0.042719005228445434,-5.7161414743161185e-05,0.0012537803991859706,0.0,0.03652143057259956,0.0
1744140051.7296278,-0.7321708482158255,0.04275210755340254,-6.46798588934713e-05,0.0012672683456388507,0.0,0.03498612837090024,0.0
1744140051.7396278,-0.7320944723922796,0.04275341840547084,-6.497758928182359e-05,0.0012678024683183847,0.0,0.03492533040371294,0.0
1744140051.7496278,-0.7320952438652447,0.042753405164540854,-6.497458190416346e-05,0.0012677970731398034,0.0,0.03492594452459362,0.0
1744140051.7596278,-0.7320960153382098,0.04275339192361087,-6.497157452650334e-05,0.0012677916779612222,0.0,0.034926558645474295,0.0
1744140051.7696278,-0.7320967868111748,0.042753378682680886,-6.496856714884322e-05,0.001267786282782641,0.0,0.03492717276635497,0.0
1744140051.7796278,-0.7320975582841399,0.0427533654417509,-6.49655597711831e-05,0.0012677808876040597,0.0,0.03492778688723565,0.0
1744140051.7896278,-0.732098329757105,0.04275335220082092,-6.496255239352298e-05,0.0012677754924254785,0.0,0.034928401008116325,0.0
1744140051.7996278,-0.73209910123007,0.04275333895989093,-6.495954501586286e-05,0.0012677700972468973,0.0,0.034929015128997,0.0
1744140051.8096278,-0.7320998727030351,0.04275332571896095,-6.495653763820274e-05,0.001267764702068316,0.0,0.03492962924987768,0.0
1744140051.8196278,-0.7321006441760002,0.042753312478030964,-6.495353026054261e-05,0.0012677593068897348,0.0,0.034930243370758354,0.0
1744140051.8296278,-0.7321014156489652,0.04275329923710098,-6.495052288288249e-05,0.0012677539117111536,0.0,0.03493085749163903,0.0
1744140051.8396277,-0.7321021871219303,0.042753285996170995,-6.494751550522237e-05,0.0012677485165325723,0.0,0.03493147161251971,0.0
1744140051.849628,-0.7321029585948954,0.04275327275524101,-6.494450812756225e-05,0.001267743121353991,0.0,0.034932085733400384,0.0
1744140051.859628,-0.7321037300678604,0.042753259514311026,-6.494150074990213e-05,0.0012677377261754099,0.0,0.03493269985428106,0.0
1744140051.869628,-0.7321045015408255,0.04275324627338104,-6.493849337224201e-05,0.0012677323309968286,0.0,0.03493331397516174,0.0
1744140051.879628,-0.7321052730137906,0.04275323303245106,-6.493548599458189e-05,0.0012677269358182474,0.0,0.03493392809604241,0.0
1744140051.889628,-0.7321060444867556,0.04275321979152107,-6.493247861692176e-05,0.0012677215406396661,0.0,0.03493454221692309,0.0
1744140051.899628,-0.7321068159597207,0.04275320655059109,-6.492947123926164e-05,0.001267716145461085,0.0,0.034935156337803766,0.0
1744140051.909628,-0.7321075874326858,0.042753193309661104,-6.492646386160152e-05,0.0012677107502825037,0.0,0.03493577045868444,0.0
1744140051.919628,-0.7321083589056508,0.04275318006873112,-6.49234564839414e-05,0.0012677053551039224,0.0,0.03493638457956512,0.0
1744140051.929628,-0.7321091303786159,0.042753166827801135,-6.492044910628128e-05,0.0012676999599253412,0.0,0.034936998700445795,0.0
1744140051.939628,-0.732109901851581,0.04275315358687115,-6.491744172862116e-05,0.00126769456474676,0.0,0.03493761282132647,0.0
1744140051.9496279,-0.732110673324546,0.04275314034594117,-6.491443435096104e-05,0.0012676891695681787,0.0,0.03493822694220715,0.0
1744140051.9596279,-0.7321114447975111,0.04275312710501118,-6.491142697330092e-05,0.0012676837743895975,0.0,0.034938841063087825,0.0
1744140051.9696279,-0.7321122162704762,0.0427531138640812,-6.49084195956408e-05,0.0012676783792110163,0.0,0.0349394551839685,0.0
1744140051.9796278,-0.7321129877434412,0.04275310062315121,-6.490541221798067e-05,0.001267672984032435,0.0,0.03494006930484918,0.0
1744140051.9896278,-0.7321137592164063,0.04275308738222123,-6.490240484032055e-05,0.0012676675888538538,0.0,0.034940683425729854,0.0
1744140051.9996278,-0.7321145306893714,0.042753074141291245,-6.489939746266043e-05,0.0012676621936752726,0.0,0.03494129754661053,0.0
1744140052.0096278,-0.7321153021623364,0.04275306090036126,-6.489639008500031e-05,0.0012676567984966913,0.0,0.03494191166749121,0.0
1744140052.0196278,-0.7321160736353015,0.042753047659431276,-6.489338270734019e-05,0.00126765140331811,0.0,0.034942525788371884,0.0
1744140052.0296278,-0.7321168451082666,0.04275303441850129,-6.489037532968007e-05,0.0012676460081395289,0.0,0.03494313990925256,0.0
1744140052.0396278,-0.7321176165812316,0.04275302117757131,-6.488736795201994e-05,0.0012676406129609476,0.0,0.03494375403013324,0.0
1744140052.0496278,-0.7321183880541967,0.04275300793664132,-6.488436057435982e-05,0.0012676352177823664,0.0,0.03494436815101391,0.0
1744140052.0596278,-0.7321191595271618,0.04275299469571134,-6.48813531966997e-05,0.0012676298226037852,0.0,0.03494498227189459,0.0
1744140052.0696278,-0.7321199310001268,0.042752981454781354,-6.487834581903958e-05,0.001267624427425204,0.0,0.034945596392775266,0.0
1744140052.0796278,-0.7321207024730919,0.04275296821385137,-6.487533844137946e-05,0.0012676190322466227,0.0,0.03494621051365594,0.0
1744140052.0896277,-0.732121473946057,0.042752954972921385,-6.487233106371934e-05,0.0012676136370680414,0.0,0.03494682463453662,0.0
1744140052.099628,-0.732122245419022,0.0427529417319914,-6.486932368605922e-05,0.0012676082418894602,0.0,0.034947438755417295,0.0
1744140052.109628,-0.7321230168919871,0.042752928491061416,-6.48663163083991e-05,0.001267602846710879,0.0,0.03494805287629797,0.0
1744140052.119628,-0.7321237883649522,0.04275291525013143,-6.486330893073897e-05,0.0012675974515322977,0.0,0.03494866699717865,0.0
1744140052.129628,-0.7321245598379172,0.04275290200920145,-6.486030155307885e-05,0.0012675920563537165,0.0,0.034949281118059325,0.0
1744140052.139628,-0.7321253313108823,0.04275288876827146,-6.485729417541873e-05,0.0012675866611751353,0.0,0.03494989523894,0.0
1744140052.149628,-0.7321261027838474,0.04275287552734148,-6.485428679775861e-05,0.001267581265996554,0.0,0.03495050935982068,0.0
1744140052.159628,-0.7321268742568124,0.042752862286411494,-6.485127942009849e-05,0.0012675758708179728,0.0,0.034951123480701354,0.0
1744140052.169628,-0.7321276457297775,0.04275284904548151,-6.484827204243837e-05,0.0012675704756393916,0.0,0.03495173760158203,0.0
1744140052.179628,-0.7321284172027426,0.042752835804551526,-6.484526466477825e-05,0.0012675650804608103,0.0,0.03495235172246271,0.0
1744140052.189628,-0.7321291886757076,0.04275282256362154,-6.484225728711812e-05,0.001267559685282229,0.0,0.034952965843343384,0.0
1744140052.1996279,-0.7321299601486727,0.04275280932269156,-6.4839249909458e-05,0.0012675542901036479,0.0,0.03495357996422406,0.0
1744140052.2096279,-0.7321307316216378,0.04275279608176157,-6.483624253179788e-05,0.0012675488949250666,0.0,0.03495419408510474,0.0
1744140052.2196279,-0.7321315030946028,0.04275278284083159,-6.483323515413776e-05,0.0012675434997464854,0.0,0.03495480820598541,0.0
1744140052.2496753,-0.7321708482158255,0.04275210755340254,-6.46798588934713e-05,0.0012672683456388507,0.0,0.03498612837090024,0.0
1744140052.2596753,-0.7320933725452193,0.04274688666673912,-6.484045378795111e-05,0.0012679330188620605,0.0,0.034918298047232274,0.0
1744140052.2696753,-0.7320152401264227,0.0427285758207523,-6.472076293936574e-05,0.0012688480028154594,0.0,0.03483763125236432,0.0
1744140052.2796752,-0.7319364509594356,0.04269717501544207,-6.43207863477152e-05,0.0012700132974990473,0.0,0.03474412798629638,0.0
1744140052.2896752,-0.731857005044258,0.04265268425080843,-6.364052401299948e-05,0.0012714289029128244,0.0,0.034637788249028446,0.0
1744140052.2996752,-0.7317769023808898,0.04259510352685139,-6.267997593521857e-05,0.0012730948190567905,0.0,0.034518612040560524,0.0
1744140052.3096752,-0.731696142969331,0.04252443284357094,-6.14391421143725e-05,0.0012750110459309458,0.0,0.03438659936089261,0.0
1744140052.3196752,-0.7316147268095818,0.04244067220096709,-5.9918022550461245e-05,0.0012771775835352902,0.0,0.03424175021002471,0.0
1744140052.3296752,-0.7315326539016421,0.04234382159903983,-5.8116617243484816e-05,0.0012795944318698235,0.0,0.03408406458795682,0.0
1744140052.3396752,-0.7314499242455118,0.04223388103778916,-5.603492619344321e-05,0.0012822615909345461,0.0,0.03391354249468894,0.0
1744140052.3496752,-0.731366537841191,0.04211085051721509,-5.367294940033642e-05,0.0012851790607294577,0.0,0.03373018393022107,0.0
1744140052.3596752,-0.7312824946886797,0.04197473003731761,-5.1030686864164454e-05,0.0012883468412545583,0.0,0.03353398889455321,0.0
1744140052.3696754,-0.7311977947879779,0.04182551959809672,-4.810813858492731e-05,0.0012917649325098481,0.0,0.033324957387685365,0.0
1744140052.3796754,-0.7311124381390856,0.04166321919955243,-4.490530456262498e-05,0.001295433334495327,0.0,0.03310308940961753,0.0
1744140052.3896754,-0.7310264247420026,0.04148782884168473,-4.1422184797257484e-05,0.0012993520472109948,0.0,0.0328683849603497,0.0
1744140052.3996754,-0.7309397545967292,0.04129934852449363,-3.7658779288824806e-05,0.0013035210706568519,0.0,0.032620844039881886,0.0
1744140052.4096754,-0.7308524277032653,0.04109777824797912,-3.361508803732695e-05,0.001307940404832898,0.0,0.032360466648214084,0.0
1744140052.4196754,-0.7307644440616109,0.0408831180121412,-2.929111104276391e-05,0.001312610049739133,0.0,0.03208725278534629,0.0
1744140052.4296753,-0.7306758036717659,0.04065536781697988,-2.468684830513569e-05,0.0013175300053755573,0.0,0.03180120245127851,0.0
1744140052.4396753,-0.7305865065337304,0.04041452766249515,-1.9802299824442293e-05,0.0013227002717421707,0.0,0.031502315646010734,0.0
1744140052.4496753,-0.7304965526475043,0.04016059754868701,-1.4637465600683717e-05,0.001328120848838973,0.0,0.03119059236954297,0.0
1744140052.4596753,-0.7304059420130878,0.03989357747555547,-9.192345633859962e-06,0.0013337917366659645,0.0,0.030866032621875213,0.0
1744140052.4696753,-0.7303146746304808,0.03961346744310052,-3.4669399239710296e-06,0.001339712935223145,0.0,0.03052863640300747,0.0
1744140052.4796753,-0.7302227504996832,0.039320267451322166,2.5387515289830813e-06,0.0013458844445105149,0.0,0.030178403712939735,0.0
1744140052.4896753,-0.7301301696206951,0.039013977500220405,8.824728725002371e-06,0.0013523062645280737,0.0,0.029815334551672013,0.0
1744140052.4996753,-0.7300369319935165,0.03869459758979524,1.539099166408684e-05,0.0013589783952758215,0.0,0.0294394289192043,0.0
1744140052.5096753,-0.7299430376181474,0.038362127720046664,2.2237540346236485e-05,0.0013659008367537585,0.0,0.0290506868155366,0.0
1744140052.5196753,-0.7298484864945877,0.038016567890974684,2.936437477145131e-05,0.0013730735889618845,0.0,0.028649108240668908,0.0
1744140052.5296752,-0.7297532786228375,0.0376579181025793,3.6771494939731314e-05,0.0013804966519001996,0.0,0.02823469319460123,0.0
1744140052.5396752,-0.7296574140028967,0.037286178354860505,4.4458900851076495e-05,0.0013881700255687038,0.0,0.02780744167733356,0.0
1744140052.5496752,-0.7295608926347655,0.036901348647818306,5.242659250548685e-05,0.001396093709967397,0.0,0.027367353688865902,0.0
1744140052.5596752,-0.7294637145184438,0.0365034289814527,6.067456990296239e-05,0.0014042677050962794,0.0,0.026914429229198254,0.0
1744140052.5696752,-0.7293658796539315,0.03609241935576369,6.920283304350311e-05,0.0014126920109553509,0.0,0.026448668298330615,0.0
1744140052.5796752,-0.7292673880412287,0.03566831977075127,7.801138192710901e-05,0.0014213666275446114,0.0,0.02597007089626299,0.0
1744140052.5896752,-0.7291682396803354,0.03523113022641545,8.710021655378009e-05,0.001430291554864061,0.0,0.02547863702299537,0.0
1744140052.5996752,-0.7290684345712516,0.03478085072275622,9.646933692351635e-05,0.0014394667929136997,0.0,0.024974366678527767,0.0
1744140052.6096752,-0.7289679727139772,0.03431748125977358,0.00010611874303631778,0.0014488923416935274,0.0,0.02445725986286017,0.0
1744140052.6196754,-0.7288668541085123,0.03384102183746754,0.0001160484348921844,0.0014585682012035444,0.0,0.023927316575992588,0.0
1744140052.6296754,-0.7287650787548569,0.03335147245583809,0.00012625841249111618,0.0014684943714437504,0.0,0.023384536817925013,0.0
1744140052.6396754,-0.728662646653011,0.032848833114885234,0.00013674867583311315,0.0014786708524141454,0.0,0.02282892058865745,0.0
1744140052.6496754,-0.7285595578029745,0.03233310381460897,0.0001475192249181753,0.0014890976441147296,0.0,0.0222604678881899,0.0
1744140052.6596754,-0.7284558122047475,0.031804284555009305,0.00015857005974630263,0.0014997747465455029,0.0,0.02167917871652236,0.0
1744140052.6696754,-0.72835140985833,0.03126237533608623,0.00016990118031749512,0.0015107021597064651,0.0,0.021085053073654828,0.0
1744140052.6796753,-0.728246350763722,0.03070737615783975,0.0001815125866317528,0.0015218798835976166,0.0,0.02047809095958731,0.0
1744140052.6896753,-0.7281406349209235,0.030139287020269863,0.00019340427868907566,0.001533307918218957,0.0,0.0198582923743198,0.0
1744140052.6996753,-0.7280342623299344,0.02955810792337657,0.00020557625648946369,0.0015449862635704865,0.0,0.0192256573178523,0.0
1744140052.7096753,-0.7279272329907548,0.02896383886715987,0.0002180285200329169,0.0015569149196522053,0.0,0.018580185790184812,0.0
1744140052.7196753,-0.7278195469033847,0.028356479851619765,0.0002307610693194353,0.001569093886464113,0.0,0.017921877791317334,0.0
1744140052.7296753,-0.7277112040678241,0.027736030876756253,0.00024377390434901885,0.0015815231640062097,0.0,0.017250733321249868,0.0
1744140052.7396753,-0.7276022044840729,0.027102491942569334,0.0002570670251216676,0.0015942027522784956,0.0,0.01656675237998241,0.0
1744140052.754923,-0.7276022044840729,0.027102491942569334,0.0002570670251216676,0.0015942027522784956,0.0,0.01656675237998241,0.0
1744140052.764923,-0.727492292748836,0.02645586517992506,0.0002701853142603946,0.0016066989214824376,0.0,0.015882752121594644,0.0
1744140052.774923,-0.7273812134588182,0.02579615271968948,0.000282673654388213,0.0016185779418195025,0.0,0.015211549700166237,0.0
1744140052.784923,-0.7272689666140197,0.0251233545618626,0.0002945320455051228,0.0016298398132896907,0.0,0.014553145115697193,0.0
1744140052.794923,-0.7271555522144404,0.02443747070644441,0.000305760487611124,0.0016404845358930018,0.0,0.01390753836818751,0.0
1744140052.804923,-0.7270409702600802,0.023738501153434916,0.0003163589807062166,0.001650512109629436,0.0,0.01327472945763719,0.0
1744140052.814923,-0.7269252207509391,0.02302644590283412,0.00032632752479040054,0.0016599225344989931,0.0,0.012654718384046231,0.0
1744140052.824923,-0.7268083036870172,0.022301304954642016,0.00033566611986367593,0.0016687158105016732,0.0,0.012047505147414634,0.0
1744140052.834923,-0.7266902190683144,0.021563078308858608,0.00034437476592604274,0.0016768919376374766,0.0,0.0114530897477424,0.0
1744140052.844923,-0.7265709668948308,0.020811765965483897,0.0003524534629775009,0.001684450915906403,0.0,0.010871472185029528,0.0
1744140052.854923,-0.7264505471665664,0.02004736792451788,0.0003599022110180505,0.0016913927453084522,0.0,0.010302652459276017,0.0
1744140052.864923,-0.7263289598835212,0.019269884185960557,0.0003667210100476915,0.0016977174258436245,0.0,0.00974663057048187,0.0
1744140052.8749232,-0.7262062050456951,0.01847931474981193,0.0003729098600664239,0.0017034249575119198,0.0,0.009203406518647083,0.0
1744140052.8849232,-0.7260822826530882,0.017675659616072,0.00037846876107424765,0.0017085153403133384,0.0,0.00867298030377166,0.0
1744140052.8949232,-0.7259571927057004,0.016858918784740762,0.00038339771307116283,0.0017129885742478799,0.0,0.008155351925855597,0.0
1744140052.9049232,-0.7258309352035317,0.016029092255818223,0.0003876967160571694,0.0017168446593155444,0.0,0.007650521384898897,0.0
1744140052.9149232,-0.7257035101465822,0.015186180029304379,0.00039136577003226735,0.0017200835955163318,0.0,0.007158488680901558,0.0
1744140052.9249232,-0.7255749175348519,0.01433018210519923,0.0003944048749964567,0.0017227053828502426,0.0,0.006679253813863582,0.0
1744140052.9349232,-0.7254451573683408,0.013461098483502777,0.00039681403094973746,0.0017247100213172762,0.0,0.006212816783784968,0.0
1744140052.9449232,-0.7253142296470488,0.01257892916421502,0.0003985932378921096,0.001726097510917433,0.0,0.005759177590665716,0.0
1744140052.9549232,-0.725182134370976,0.011683674147335956,0.00039974249582357314,0.0017268678516507126,0.0,0.005318336234505826,0.0
1744140052.9649231,-0.7250488715401223,0.010775333432865589,0.00040026180474412806,0.0017270210435171153,0.0,0.004890292715305299,0.0
1744140052.9749231,-0.7249144411544878,0.009853907020803916,0.0004001511646537744,0.0017265570865166412,0.0,0.004475047033064132,0.0
1744140052.9849231,-0.7247788432140724,0.008919394911150938,0.0003994105755525121,0.00172547598064929,0.0,0.004072599187782328,0.0
1744140052.994923,-0.7246420777188762,0.007971797103906657,0.00039804003744034125,0.001723777725915062,0.0,0.003682949179459887,0.0
1744140053.004923,-0.7245041446688992,0.007011113599071069,0.00039603955031726175,0.0017214623223139568,0.0,0.0033060970080968075,0.0
1744140053.014923,-0.7243650440641414,0.006037344396644177,0.0003934091141832737,0.0017185297698459748,0.0,0.00294204267369309,0.0
1744140053.024923,-0.7242247759046027,0.00505048949662598,0.00039014872903837697,0.001714980068511116,0.0,0.002590786176248735,0.0
1744140053.034923,-0.7240833401902831,0.004050548899016478,0.0003862583948825717,0.00171081321830938,0.0,0.0022523275157637418,0.0
1744140053.044923,-0.7239407369211827,0.0030375226038156715,0.00038173811171585777,0.001706029219240767,0.0,0.0019266666922381106,0.0
1744140053.054923,-0.7237969660973014,0.0020114106110235602,0.00037658787953823527,0.001700628071305277,0.0,0.0016138037056718415,0.0
1744140053.064923,-0.7236520277186392,0.0009722129206401444,0.0003708076983497042,0.0016946097745029103,0.0,0.0013137385560649344,0.0
1744140053.074923,-0.7235059217851963,-8.007046733457624e-05,0.0003643975681502645,0.0016879743288336665,0.0,0.0010264712434173893,0.0
1744140053.084923,-0.7233586482969726,-0.0011454395529006017,0.0003573574889399162,0.0016807217342975458,0.0,0.0007520017677292061,0.0
1744140053.094923,-0.723210207253968,-0.0022238943360579316,0.0003496874607186593,0.001672851990894548,0.0,0.0004903301290003851,0.0
1744140053.104923,-0.7230605986561826,-0.0033154348168065663,0.0003413874834864938,0.0016643650986246734,0.0,0.00024145632723092606,0.0
1744140053.114923,-0.7229098225036162,-0.004420060995146506,0.0003324575572434197,0.0016552610574879219,0.0,5.380362420829047e-06,0.0
1744140053.1249232,-0.7227578787962691,-0.0055377728710777506,0.000322897681989437,0.0016455398674842933,0.0,-0.0002178977654299059,0.0
1744140053.1349232,-0.722604767534141,-0.0066685704446003006,0.00031270785772454564,0.0016352015286137877,0.0,-0.0004283780563212788,0.0
1744140053.1449232,-0.7224504887172323,-0.007812453715714155,0.00030188808444874573,0.001624246040876405,0.0,-0.0006260605102532897,0.0
1744140053.1549232,-0.7222950423455426,-0.008969422684419312,0.0002904383621620372,0.0016126734042721457,0.0,-0.0008109451272259385,0.0
1744140053.1649232,-0.7221384284190722,-0.010139477350715775,0.00027835869086442007,0.0016004836188010093,0.0,-0.0009830319072392252,0.0
1744140053.1749232,-0.7219806469378208,-0.011322617714603543,0.0002656490705558943,0.001587676684462996,0.0,-0.00114232085029315,0.0
1744140053.1849232,-0.7218216979017886,-0.012518843776082615,0.00025230950123646,0.0015742526012581055,0.0,-0.0012888119563877127,0.0
1744140053.1949232,-0.7216615813109756,-0.013728155535152992,0.00023833998290611708,0.0015602113691863383,0.0,-0.0014225052255229134,0.0
1744140053.2049232,-0.7215002971653817,-0.014950552991814674,0.00022374051556486556,0.0015455529882476941,0.0,-0.001543400657698752,0.0
1744140053.2149231,-0.721337845465007,-0.016186036146067662,0.00020851109921270544,0.001530277458442173,0.0,-0.0016514982529152284,0.0
1744140053.2249231,-0.7211742262098515,-0.017434604997911957,0.00019265173384963672,0.0015143847797697747,0.0,-0.001746798011172343,0.0
1744140053.2349231,-0.7210094393999151,-0.018696259547347556,0.0001761624194756594,0.0014978749522304995,0.0,-0.0018292999324700954,0.0
1744140053.244923,-0.7208434850351979,-0.01997099979437446,0.00015904315609077346,0.0014807479758243475,0.0,-0.001899004016808486,0.0
1744140053.2598112,-0.7208434850351979,-0.01997099979437446,0.00015904315609077346,0.0014807479758243475,0.0,-0.001899004016808486,0.0
1744140053.2698112,-0.7206727483173253,-0.021258827874329065,0.0001419191282924264,0.0014637210239050872,0.0,-0.0019559868516857023,0.0
1744140053.2798111,-0.7204936144479229,-0.022559745922547773,0.0001254155206780658,0.0014475112698264876,0.0,-0.0020003250245999326,0.0
1744140053.2898111,-0.7203060834269908,-0.023873753939030583,0.00010953233324769162,0.001432118713588549,0.0,-0.002032018535551177,0.0
1744140053.2998111,-0.7201101552545288,-0.025200851923777495,9.426956600130385e-05,0.001417543355191271,0.0,-0.0020510673845394356,0.0
1744140053.309811,-0.7199058299305371,-0.026541039876788512,7.962721893890252e-05,0.001403785194634654,0.0,-0.0020574715715647083,0.0
1744140053.319811,-0.7196931074550156,-0.02789431779806363,6.560529206048762e-05,0.0013908442319186976,0.0,-0.0020512310966269947,0.0
1744140053.329811,-0.7194719878279643,-0.02926068568760285,5.2203785366059134e-05,0.0013787204670434022,0.0,-0.002032345959726295,0.0
1744140053.339811,-0.7192424710493832,-0.030640143545406177,3.942269885561708e-05,0.0013674139000087674,0.0,-0.0020008161608626096,0.0
1744140053.349811,-0.7190045571192724,-0.032032691371473604,2.7262032529161454e-05,0.0013569245308147936,0.0,-0.001956641700035938,0.0
1744140053.359811,-0.7187582460376317,-0.033438329165805136,1.572178638669225e-05,0.0013472523594614805,0.0,-0.0018998225772462805,0.0
1744140053.369811,-0.7185035378044613,-0.03485705692840077,4.801960428209471e-06,0.0013383973859488283,0.0,-0.001830358792493637,0.0
1744140053.3798113,-0.718240432419761,-0.036288874659260506,-5.497445346286882e-06,0.0013303596102768368,0.0,-0.0017482503457780074,0.0
1744140053.3898113,-0.7179689298835309,-0.03773378235838434,-1.5176430936796808e-05,0.0013231390324455062,0.0,-0.0016534972370993919,0.0
1744140053.3998113,-0.717689030195771,-0.03919178002577228,-2.423499634332031e-05,0.0013167356524548363,0.0,-0.0015460994664577904,0.0
1744140053.4098113,-0.7174007333564814,-0.04066286766142433,-3.267314156585738e-05,0.0013111494703048274,0.0,-0.001426057033853203,0.0
1744140053.4198112,-0.7171040393656619,-0.04214704526534048,-4.0490866604408026e-05,0.001306380485995479,0.0,-0.0012933699392856295,0.0
1744140053.4298112,-0.7167989482233127,-0.04364431283752073,-4.7688171458972245e-05,0.0013024286995267917,0.0,-0.00114803818275507,0.0
1744140053.4398112,-0.7164854599294337,-0.045154670377965084,-5.426505612955004e-05,0.0012992941108987653,0.0,-0.0009900617642615247,0.0
1744140053.4498112,-0.7161635744840249,-0.04667811788667354,-6.022152061614141e-05,0.0012969767201113996,0.0,-0.0008194406838049934,0.0
1744140053.4598112,-0.7158332918870863,-0.048214655363646094,-6.555756491874635e-05,0.0012954765271646948,0.0,-0.0006361749413854761,0.0
1744140053.4698112,-0.715494612138618,-0.04976428280888276,-7.027318903736487e-05,0.0012947935320586506,0.0,-0.0004402645370029728,0.0
1744140053.4798112,-0.7151475352386198,-0.051327000222383526,-7.436839297199697e-05,0.0012949277347932674,0.0,-0.00023170947065748355,0.0
1744140053.4898112,-0.7147920611870919,-0.052902807604148394,-7.784317672264264e-05,0.001295879135368545,0.0,-1.0509742349008307e-05,0.0
1744140053.4998112,-0.7144281899840342,-0.054491704954177364,-8.069754028930188e-05,0.0012976477337844833,0.0,0.00022333464792245289,0.0
1744140053.5098112,-0.7140559216294468,-0.056093692272470436,-8.29314836719747e-05,0.0013002335300410825,0.0,0.0004698237001569001,0.0
1744140053.5198112,-0.7136752561233295,-0.05770876955902761,-8.454500687066109e-05,0.0013036365241383425,0.0,0.0007289574143543332,0.0
1744140053.5298111,-0.7132861934656824,-0.059336936813848884,-8.553810988536106e-05,0.0013078567160762632,0.0,0.0010007357905147524,0.0
1744140053.5398111,-0.7128887336565055,-0.06097819403693427,-8.59107927160746e-05,0.0013128941058548449,0.0,0.0012851588286381577,0.0
1744140053.5498111,-0.7124828766957988,-0.06263254122828375,-8.566305536280171e-05,0.0013187486934740872,0.0,0.001582226528724549,0.0
1744140053.559811,-0.7120686225835623,-0.06429997838789733,-8.47948978255424e-05,0.0013254204789339905,0.0,0.001891938890773926,0.0
1744140053.569811,-0.711645971319796,-0.06598050551577503,-8.330632010429667e-05,0.0013329094622345544,0.0,0.0022142959147862895,0.0
1744140053.579811,-0.7112149229045,-0.06767412261191683,-8.119732219906451e-05,0.0013412156433757793,0.0,0.0025492976007616386,0.0
1744140053.589811,-0.7107754773376741,-0.06938082967632273,-7.846790410984593e-05,0.0013503390223576649,0.0,0.002896943948699974,0.0
1744140053.599811,-0.7103276346193185,-0.07110062670899273,-7.511806583664092e-05,0.0013602795991802114,0.0,0.003257234958601295,0.0
1744140053.609811,-0.7098713947494331,-0.07283351370992683,-7.114780737944949e-05,0.0013710373738434185,0.0,0.0036301706304656023,0.0
1744140053.619811,-0.7094067577280179,-0.07457949067912503,-6.655712873827162e-05,0.0013826123463472866,0.0,0.004015750964292895,0.0
1744140053.6298113,-0.7089337235550729,-0.07633855761658734,-6.134602991310734e-05,0.0013950045166918155,0.0,0.004413975960083174,0.0
1744140053.6398113,-0.7084522922305981,-0.07811071452231375,-5.551451090395663e-05,0.0014082138848770052,0.0,0.004824845617836439,0.0
1744140053.6498113,-0.7079624637545936,-0.07989596139630425,-4.906257171081949e-05,0.0014222404509028556,0.0,0.005248359937552689,0.0
1744140053.6598113,-0.7074642381270593,-0.08169429823855887,-4.199021233369593e-05,0.001437084214769367,0.0,0.005684518919231926,0.0
1744140053.6698112,-0.7069576153479952,-0.08350572504907758,-3.429743277258594e-05,0.001452745176476539,0.0,0.006133322562874149,0.0
1744140053.6798112,-0.7064425954174013,-0.08533024182786039,-2.5984233027489534e-05,0.001469223336024372,0.0,0.0065947708684793585,0.0
1744140053.6898112,-0.7059191783352776,-0.08716784857490731,-1.70506130984067e-05,0.0014865186934128656,0.0,0.007068863836047553,0.0
1744140053.6998112,-0.7053873641016241,-0.08901854529021834,-7.496572985337441e-06,0.0015046312486420201,0.0,0.007555601465578734,0.0
1744140053.7098112,-0.7048471527164407,-0.09088233197379347,2.6778873117182446e-06,0.0015235610017118354,0.0,0.0080549837570729,0.0
1744140053.7198112,-0.7042985441797276,-0.09275920862563271,1.3472767792760357e-05,0.0015433079526223116,0.0,0.008567010710530055,0.0
1744140053.7298112,-0.7037415384914847,-0.09464917524573604,2.4888068457788896e-05,0.0015638721013734485,0.0,0.009091682325950194,0.0
1744140053.7398112,-0.703176135651712,-0.09655223183410348,3.692378930680386e-05,0.0015852534479652463,0.0,0.00962899860333332,0.0
1744140053.7498112,-0.7026023356604095,-0.09846837839073502,4.9579930339805256e-05,0.0016074519923977048,0.0,0.010178959542679432,0.0
1744140053.7646275,-0.7026023356604095,-0.09846837839073502,4.9579930339805256e-05,0.0016074519923977048,0.0,0.010178959542679432,0.0
1744140053.7746274,-0.7020177928341517,-0.10039054643172667,6.220933605863861e-05,0.0016294568086495612,0.0,0.010729078233913579,0.0
1744140053.7846274,-0.7014201614895127,-0.1023116674731744,7.416485096514946e-05,0.0016502569706995523,0.0,0.011266867766960814,0.0
1744140053.7946274,-0.7008094416264926,-0.10423174151507823,8.544647505933782e-05,0.0016698524785476784,0.0,0.011792328141821136,0.0
1744140053.8046274,-0.7001856332450914,-0.10615076855743816,9.605420834120368e-05,0.001688243332193939,0.0,0.012305459358494546,0.0
1744140053.8146274,-0.6995487363453091,-0.10806874860025419,0.00010598805081074704,0.0017054295316383348,0.0,0.012806261416981043,0.0
1744140053.8246274,-0.6988987509271457,-0.1099856816435263,0.0001152480024679679,0.0017214110768808651,0.0,0.013294734317280628,0.0
1744140053.8346274,-0.6982356769906012,-0.11190156768725451,0.00012383406331286628,0.0017361879679215304,0.0,0.0137708780593933,0.0
1744140053.8446274,-0.6975595145356756,-0.11381640673143882,0.00013174623334544217,0.0017497602047603304,0.0,0.01423469264331906,0.0
1744140053.8546274,-0.6968702635623687,-0.11573019877607922,0.00013898451256569554,0.0017621277873972653,0.0,0.014686178069057906,0.0
1744140053.8646274,-0.6961679240706807,-0.11764294382117571,0.00014554890097362644,0.0017732907158323349,0.0,0.015125334336609841,0.0
1744140053.8746274,-0.6954524960606117,-0.1195546418667283,0.00015143939856923484,0.0017832489900655394,0.0,0.015552161445974863,0.0
1744140053.8846276,-0.6947239795321615,-0.12146529291273699,0.00015665600535252073,0.0017920026100968786,0.0,0.01596665939715297,0.0
1744140053.8946276,-0.6939823744853302,-0.12337489695920177,0.0001611987213234841,0.0017995515759263528,0.0,0.01636882819014417,0.0
1744140053.9046276,-0.6932276809201178,-0.12528345400612265,0.000165067546482125,0.0018058958875539616,0.0,0.016758667824948455,0.0
1744140053.9146276,-0.6924598988365243,-0.1271909640534996,0.0001682624808284434,0.0018110355449797051,0.0,0.017136178301565826,0.0
1744140053.9246275,-0.6916790282345496,-0.12909742710133268,0.0001707835243624393,0.0018149705482035836,0.0,0.017501359619996285,0.0
1744140053.9346275,-0.6908850691141939,-0.13100284314962185,0.00017263067708411271,0.0018177008972255968,0.0,0.017854211780239833,0.0
1744140053.9446275,-0.690078021475457,-0.1329072121983671,0.00017380393899346362,0.0018192265920457449,0.0,0.018194734782296468,0.0
1744140053.9546275,-0.6892578853183391,-0.13481053424756845,0.00017430331009049202,0.0018195476326640276,0.0,0.01852292862616619,0.0
1744140053.9646275,-0.68842466064284,-0.1367128092972259,0.00017412879037519794,0.0018186640190804453,0.0,0.018838793311848998,0.0
1744140053.9746275,-0.6875783474489598,-0.13861403734733943,0.00017328037984758136,0.0018165757512949977,0.0,0.019142328839344896,0.0
1744140053.9846275,-0.6867189457366986,-0.14051421839790906,0.00017175807850764227,0.001813282829307685,0.0,0.01943353520865388,0.0
1744140053.9946275,-0.685846455506056,-0.1424133524489348,0.0001695618863553807,0.001808785253118507,0.0,0.019712412419775952,0.0
1744140054.0046275,-0.6849608767570324,-0.1443114395004166,0.00016669180339079663,0.001803083022727464,0.0,0.01997896047271111,0.0
1744140054.0146275,-0.6840622094896277,-0.14620847955235453,0.00016314782961389005,0.0017961761381345557,0.0,0.02023317936745936,0.0
1744140054.0246274,-0.6831504537038419,-0.14810447260474854,0.000158929965024661,0.0017880645993397822,0.0,0.020475069104020693,0.0
1744140054.0346274,-0.6822256093996749,-0.14999941865759864,0.00015403820962310943,0.0017787484063431435,0.0,0.020704629682395115,0.0
1744140054.0446274,-0.6812876765771269,-0.15189331771090483,0.00014847256340923536,0.0017682275591446397,0.0,0.020921861102582623,0.0
1744140054.0546274,-0.6803366552361977,-0.15378616976466714,0.0001422330263830388,0.0017565020577442706,0.0,0.021126763364583218,0.0
1744140054.0646274,-0.6793725453768874,-0.15567797481888554,0.00013531959854451976,0.0017435719021420364,0.0,0.021319336468396902,0.0
1744140054.0746274,-0.678395346999196,-0.15756873287356002,0.0001277322798936782,0.001729437092337937,0.0,0.021499580414023674,0.0
1744140054.0846274,-0.6774050601031235,-0.1594584439286906,0.00011947107043051413,0.001714097628331972,0.0,0.021667495201463532,0.0
1744140054.0946274,-0.6764016846886699,-0.1613471079842773,0.00011053597015502757,0.0016975535101241422,0.0,0.021823080830716476,0.0
1744140054.1046274,-0.6753852207558352,-0.16323472504032005,0.00010092697906721851,0.001679804737714447,0.0,0.02196633730178251,0.0
1744140054.1146274,-0.6743556683046193,-0.16512129509681892,9.064409716708695e-05,0.0016608513111028868,0.0,0.022097264614661632,0.0
1744140054.1246274,-0.6733130273350223,-0.16700681815377388,7.968732445463289e-05,0.0016406932302894613,0.0,0.02221586276935384,0.0
1744140054.1346276,-0.6722572978470441,-0.16889129421118493,6.805666092985634e-05,0.0016193304952741706,0.0,0.022322131765859135,0.0
1744140054.1446276,-0.6711884798406849,-0.17077472326905208,5.575210659275729e-05,0.0015967631060570147,0.0,0.02241607160417752,0.0
1744140054.1546276,-0.6701065733159445,-0.17265710532737533,4.2773661443335744e-05,0.0015729910626379937,0.0,0.02249768228430899,0.0
1744140054.1646276,-0.669011578272823,-0.17453844038615465,2.9121325481591695e-05,0.0015480143650171074,0.0,0.02256696380625355,0.0
1744140054.1746275,-0.6679034947113204,-0.17641872844539008,1.4795098707525152e-05,0.001521833013194356,0.0,0.022623916170011193,0.0
1744140054.1846275,-0.6667823226314367,-0.17829796950508162,-2.050188788638904e-07,0.0014944470071697393,0.0,0.022668539375581928,0.0
1744140054.1946275,-0.6656480620331718,-0.18017616356522925,-1.5879027277575433e-05,0.0014658563469432575,0.0,0.02270083342296575,0.0
1744140054.2046275,-0.6645007129165259,-0.18205331062583296,-3.222692648860947e-05,0.0014360610325149104,0.0,0.022720798312162657,0.0
1744140054.2146275,-0.6633402752814989,-0.18392941068689278,-4.9248716511966004e-05,0.0014050610638846983,0.0,0.02272843404317265,0.0
1744140054.2246275,-0.6621667491280907,-0.1858044637484087,-6.694439734764505e-05,0.0013728564410526208,0.0,0.022723740615995736,0.0
1744140054.2346275,-0.6609801344563014,-0.1876784698103807,-8.53139689956466e-05,0.0013394471640186783,0.0,0.022706718030631907,0.0
1744140054.2446275,-0.6597804312661311,-0.1895514288728088,-0.00010435743145597063,0.0013048332327828705,0.0,0.022677366287081165,0.0
1744140054.2546275,-0.6585676395575795,-0.191423340935693,-0.00012407478472861716,0.0012690146473451976,0.0,0.02263568538534351,0.0
1744140054.2698238,-0.6585676395575795,-0.191423340935693,-0.00012407478472861716,0.0012690146473451976,0.0,0.02263568538534351,0.0
1744140054.2798238,-0.6573417586057052,-0.19328818451690835,-0.00014359075376702154,0.0012334158383889146,0.0,0.022581781574051017,0.0
1744140054.2898238,-0.6561027876855668,-0.19513993813432998,-0.00016203006352461915,0.0011994612365972767,0.0,0.022515761101835757,0.0
1744140054.2998238,-0.6548507267971644,-0.19697860178795784,-0.00017939271400140998,0.0011671508419702841,0.0,0.022437623968697733,0.0
1744140054.3098238,-0.6535855759404978,-0.19880417547779194,-0.00019567870519739402,0.0011364846545079367,0.0,0.022347370174636942,0.0
1744140054.3198237,-0.6523073351155672,-0.2006166592038323,-0.0002108880371125713,0.0011074626742102345,0.0,0.022244999719653387,0.0
1744140054.3298237,-0.6510160043223724,-0.20241605296607887,-0.00022502070974694178,0.0010800849010771775,0.0,0.022130512603747064,0.0
1744140054.3398237,-0.6497115835609135,-0.20420235676453172,-0.0002380767231005055,0.0010543513351087656,0.0,0.022003908826917974,0.0
1744140054.3498237,-0.6483940728311905,-0.2059755705991908,-0.00025005607717326243,0.001030261976304999,0.0,0.02186518838916612,0.0
1744140054.3598237,-0.6470634721332035,-0.20773569447005613,-0.0002609587719652126,0.0010078168246658776,0.0,0.0217143512904915,0.0
1744140054.3698237,-0.6457197814669523,-0.2094827283771277,-0.000270784807476356,0.0009870158801914015,0.0,0.021551397530894113,0.0
1744140054.3798237,-0.644363000832437,-0.21121667232040553,-0.0002795341837066926,0.0009678591428815705,0.0,0.02137632711037396,0.0
1744140054.389824,-0.6429931302296577,-0.2129375262998896,-0.00028720690065622243,0.0009503466127363847,0.0,0.021189140028931044,0.0
1744140054.399824,-0.6416101696586142,-0.2146452903155799,-0.0002938029583249455,0.000934478289755844,0.0,0.02098983628656536,0.0
1744140054.409824,-0.6402141191193066,-0.21633996436747646,-0.0002993223567128618,0.0009202541739399485,0.0,0.02077841588327691,0.0
1744140054.419824,-0.6388049786117349,-0.21802154845557928,-0.0003037650958199713,0.0009076742652886983,0.0,0.020554878819065696,0.0
1744140054.4298239,-0.6373827481358991,-0.21969004257988833,-0.00030713117564627404,0.0008967385638020932,0.0,0.020319225093931716,0.0
1744140054.4398239,-0.6359474276917992,-0.22134544674040363,-0.00030942059619176997,0.0008874470694801333,0.0,0.02007145470787497,0.0
1744140054.4498239,-0.6344990172794353,-0.22298776093712516,-0.0003106333574564591,0.0008797997823228186,0.0,0.01981156766089546,0.0
1744140054.4598238,-0.6330375168988072,-0.22461698517005294,-0.0003107694594403415,0.0008737967023301492,0.0,0.01953956395299318,0.0
1744140054.4698238,-0.631562926549915,-0.22623311943918697,-0.00030982890214341705,0.0008694378295021249,0.0,0.019255443584168138,0.0
1744140054.4798238,-0.6300752462327587,-0.22783616374452725,-0.0003078116855656859,0.0008667231638387458,0.0,0.01895920655442033,0.0
1744140054.4898238,-0.6285744759473383,-0.22942611808607377,-0.00030471780970714793,0.0008656527053400118,0.0,0.018650852863749755,0.0
1744140054.4998238,-0.6270606156936538,-0.23100298246382653,-0.0003005472745678032,0.0008662264540059231,0.0,0.018330382512156414,0.0
1744140054.5098238,-0.6255336654717052,-0.23256675687778555,-0.00029530008014765167,0.0008684444098364796,0.0,0.01799779549964031,0.0
1744140054.5198238,-0.6239936252814925,-0.23411744132795081,-0.00028897622644669335,0.0008723065728316813,0.0,0.017653091826201436,0.0
1744140054.5298238,-0.6224404951230157,-0.23565503581432232,-0.00028157571346492825,0.0008778129429915281,0.0,0.0172962714918398,0.0
1744140054.5398238,-0.6208742749962748,-0.23717954033690006,-0.00027309854120235636,0.0008849635203160202,0.0,0.016927334496555396,0.0
1744140054.5498238,-0.6192949649012698,-0.23869095489568407,-0.00026354470965897774,0.0008937583048051575,0.0,0.01654628084034823,0.0
1744140054.5598238,-0.6177025648380007,-0.2401892794906743,-0.0002529142188347923,0.00090419729645894,0.0,0.016153110523218293,0.0
1744140054.5698237,-0.6160970748064675,-0.2416745141218708,-0.0002412070687298001,0.0009162804952773676,0.0,0.015747823545165594,0.0
1744140054.5798237,-0.6144784948066702,-0.24314665878927352,-0.00022842325934400109,0.0009300079012604405,0.0,0.015330419906190128,0.0
1744140054.5898237,-0.6128468248386088,-0.2446057134928825,-0.00021456279067739528,0.0009453795144081585,0.0,0.014900899606291896,0.0
1744140054.5998237,-0.6112020649022832,-0.24605167823269772,-0.00019962566272998272,0.0009623953347205218,0.0,0.014459262645470898,0.0
1744140054.6098237,-0.6095442149976936,-0.2474845530087192,-0.00018361187550176337,0.0009810553621975302,0.0,0.014005509023727134,0.0
1744140054.6198237,-0.6078732751248399,-0.2489043378209469,-0.00016652142899273724,0.0010013595968391838,0.0,0.013539638741060605,0.0
1744140054.6298237,-0.6061892452837221,-0.2503110326693808,-0.00014835432320290434,0.0010233080386454825,0.0,0.01306165179747131,0.0
1744140054.639824,-0.6044921254743402,-0.251704637554021,-0.00012911055813226465,0.0010469006876164266,0.0,0.01257154819295925,0.0
1744140054.649824,-0.6027819156966941,-0.2530851524748674,-0.00010879013378081819,0.0010721375437520158,0.0,0.012069327927524423,0.0
1744140054.659824,-0.601058615950784,-0.25445257743192007,-8.739305014856494e-05,0.0010990186070522503,0.0,0.011554991001166831,0.0
1744140054.669824,-0.5993222262366098,-0.255806912425179,-6.491930723550492e-05,0.0011275438775171299,0.0,0.011028537413886473,0.0
1744140054.6798239,-0.5975727465541715,-0.25714815745464414,-4.136890504163812e-05,0.0011577133551466546,0.0,0.01048996716568335,0.0
1744140054.6898239,-0.595810176903469,-0.25847631252031555,-1.6741843566964533e-05,0.0011895270399408246,0.0,0.009939280256557461,0.0
1744140054.6998239,-0.5940345172845025,-0.2597913776221932,8.961877188515832e-06,0.0012229849318996398,0.0,0.009376476686508806,0.0
1744140054.7098238,-0.5922457676972719,-0.26109335276027706,3.574225722480297e-05,0.0012580870310231,0.0,0.008801556455537386,0.0
1744140054.7198238,-0.5904439281417772,-0.2623822379345672,6.35992965418969e-05,0.0012948333373112057,0.0,0.0082145195636432,0.0
1744140054.7298238,-0.5886289986180183,-0.2636580331450636,9.253299513979762e-05,0.0013332238507639564,0.0,0.007615366010826248,0.0
1744140054.7398238,-0.5868009791259954,-0.2649207383917662,0.0001225433530185051,0.0013732585713813524,0.0,0.007004095797086531,0.0
1744140054.7498238,-0.5849598696657083,-0.2661703536746751,0.00015363037017801937,0.0014149374991633936,0.0,0.006380708922424047,0.0
1744140054.7598238,-0.5831056702371572,-0.26740687899379023,0.00018579404661834043,0.0014582606341100798,0.0,0.005745205386838799,0.0
1744140054.7748528,-0.5784538092054493,-0.2704818298368359,0.00026754906182015155,0.0015686237304326023,0.0,0.00414130072172222,0.0
1744140054.7848527,-0.5782695955085937,-0.27060359789022054,0.0002707865604221433,0.0015729941090469742,0.0,0.004077786096983603,0.0
1744140054.7948527,-0.5782714562530064,-0.27060236790988335,0.00027075385841606256,0.0015729499638084453,0.0,0.00407842765884965,0.0
1744140054.8048527,-0.578273316997419,-0.27060113792954615,0.00027072115640998183,0.0015729058185699164,0.0,0.004079069220715697,0.0
1744140054.8148527,-0.5782751777418317,-0.27059990794920896,0.0002706884544039011,0.0015728616733313874,0.0,0.004079710782581744,0.0
1744140054.8248527,-0.5782770384862443,-0.27059867796887177,0.0002706557523978204,0.0015728175280928585,0.0,0.00408035234444779,0.0
1744140054.8348527,-0.578278899230657,-0.2705974479885346,0.00027062305039173966,0.0015727733828543296,0.0,0.004080993906313837,0.0
1744140054.8448527,-0.5782807599750697,-0.2705962180081974,0.00027059034838565894,0.0015727292376158007,0.0,0.004081635468179884,0.0
1744140054.8548527,-0.5782826207194823,-0.2705949880278602,0.0002705576463795782,0.0015726850923772717,0.0,0.004082277030045931,0.0
1744140054.8648527,-0.578284481463895,-0.270593758047523,0.0002705249443734975,0.0015726409471387428,0.0,0.004082918591911977,0.0
1744140054.8748527,-0.5782863422083077,-0.2705925280671858,0.00027049224236741677,0.0015725968019002139,0.0,0.004083560153778024,0.0
1744140054.8848526,-0.5782882029527203,-0.2705912980868486,0.00027045954036133605,0.001572552656661685,0.0,0.004084201715644071,0.0
1744140054.8948529,-0.578290063697133,-0.2705900681065114,0.0002704268383552553,0.001572508511423156,0.0,0.004084843277510118,0.0
1744140054.9048529,-0.5782919244415456,-0.27058883812617424,0.0002703941363491746,0.001572464366184627,0.0,0.004085484839376164,0.0
1744140054.9148529,-0.5782937851859583,-0.27058760814583704,0.0002703614343430939,0.0015724202209460982,0.0,0.004086126401242211,0.0
1744140054.9248528,-0.578295645930371,-0.27058637816549985,0.00027032873233701315,0.0015723760757075692,0.0,0.004086767963108258,0.0
1744140054.9348528,-0.5782975066747836,-0.27058514818516266,0.00027029603033093243,0.0015723319304690403,0.0,0.004087409524974305,0.0
1744140054.9448528,-0.5782993674191963,-0.27058391820482547,0.0002702633283248517,0.0015722877852305114,0.0,0.004088051086840351,0.0
1744140054.9548528,-0.578301228163609,-0.2705826882244883,0.000270230626318771,0.0015722436399919824,0.0,0.004088692648706398,0.0
1744140054.9648528,-0.5783030889080216,-0.2705814582441511,0.00027019792431269026,0.0015721994947534535,0.0,0.004089334210572445,0.0
1744140054.9748528,-0.5783049496524343,-0.2705802282638139,0.00027016522230660954,0.0015721553495149246,0.0,0.004089975772438492,0.0
1744140054.9848528,-0.578306810396847,-0.2705789982834767,0.0002701325203005288,0.0015721112042763957,0.0,0.004090617334304538,0.0
1744140054.9948528,-0.5783086711412596,-0.2705777683031395,0.0002700998182944481,0.0015720670590378667,0.0,0.004091258896170585,0.0
1744140055.0048528,-0.5783105318856723,-0.2705765383228023,0.00027006711628836736,0.0015720229137993378,0.0,0.004091900458036632,0.0
1744140055.0148528,-0.5783123926300849,-0.2705753083424651,0.00027003441428228664,0.0015719787685608089,0.0,0.004092542019902679,0.0
1744140055.0248528,-0.5783142533744976,-0.27057407836212793,0.0002700017122762059,0.00157193462332228,0.0,0.0040931835817687254,0.0
1744140055.0348527,-0.5783161141189103,-0.27057284838179074,0.0002699690102701252,0.001571890478083751,0.0,0.004093825143634772,0.0
1744140055.0448527,-0.5783179748633229,-0.27057161840145355,0.00026993630826404447,0.001571846332845222,0.0,0.004094466705500819,0.0
1744140055.0548527,-0.5783198356077356,-0.27057038842111636,0.00026990360625796375,0.0015718021876066932,0.0,0.004095108267366866,0.0
1744140055.0648527,-0.5783216963521483,-0.27056915844077917,0.000269870904251883,0.0015717580423681642,0.0,0.0040957498292329125,0.0
1744140055.0748527,-0.5783235570965609,-0.270567928460442,0.0002698382022458023,0.0015717138971296353,0.0,0.004096391391098959,0.0
1744140055.0848527,-0.5783254178409736,-0.2705666984801048,0.0002698055002397216,0.0015716697518911064,0.0,0.004097032952965006,0.0
1744140055.0948527,-0.5783272785853862,-0.2705654684997676,0.00026977279823364085,0.0015716256066525775,0.0,0.004097674514831053,0.0
1744140055.1048527,-0.5783291393297989,-0.2705642385194304,0.00026974009622756013,0.0015715814614140485,0.0,0.0040983160766970995,0.0
1744140055.1148527,-0.5783310000742116,-0.2705630085390932,0.0002697073942214794,0.0015715373161755196,0.0,0.004098957638563146,0.0
1744140055.1248527,-0.5783328608186242,-0.270561778558756,0.0002696746922153987,0.0015714931709369907,0.0,0.004099599200429193,0.0
1744140055.1348526,-0.5783347215630369,-0.2705605485784188,0.00026964199020931796,0.0015714490256984617,0.0,0.00410024076229524,0.0
1744140055.1448529,-0.5783365823074496,-0.27055931859808163,0.00026960928820323724,0.0015714048804599328,0.0,0.0041008823241612865,0.0
1744140055.1548529,-0.5783384430518622,-0.27055808861774444,0.0002695765861971565,0.0015713607352214039,0.0,0.004101523886027333,0.0
1744140055.1648529,-0.5783403037962749,-0.27055685863740725,0.0002695438841910758,0.001571316589982875,0.0,0.00410216544789338,0.0
1744140055.1748528,-0.5783421645406875,-0.27055562865707006,0.00026951118218499507,0.001571272444744346,0.0,0.004102807009759427,0.0
1744140055.1848528,-0.5783440252851002,-0.27055439867673287,0.00026947848017891434,0.001571228299505817,0.0,0.0041034485716254735,0.0
1744140055.1948528,-0.5783458860295129,-0.2705531686963957,0.0002694457781728336,0.0015711841542672882,0.0,0.00410409013349152,0.0
1744140055.2048528,-0.5783477467739255,-0.2705519387160585,0.0002694130761667529,0.0015711400090287592,0.0,0.004104731695357567,0.0
1744140055.2148528,-0.5783496075183382,-0.2705507087357213,0.00026938037416067217,0.0015710958637902303,0.0,0.004105373257223614,0.0
1744140055.2248528,-0.5783514682627509,-0.2705494787553841,0.00026934767215459145,0.0015710517185517014,0.0,0.0041060148190896605,0.0
1744140055.2348528,-0.5783533290071635,-0.2705482487750469,0.0002693149701485107,0.0015710075733131725,0.0,0.004106656380955707,0.0
1744140055.2448528,-0.5783551897515762,-0.2705470187947097,0.00026928226814243,0.0015709634280746435,0.0,0.004107297942821754,0.0
1744140055.2548528,-0.5783570504959888,-0.2705457888143725,0.0002692495661363493,0.0015709192828361146,0.0,0.004107939504687801,0.0
1744140055.2648528,-0.5783589112404015,-0.27054455883403533,0.00026921686413026855,0.0015708751375975857,0.0,0.0041085810665538475,0.0
1744140055.279817,-0.5784538092054493,-0.2704818298368359,0.00026754906182015155,0.0015686237304326023,0.0,0.00414130072172222,0.0
1744140055.289817,-0.5782611899685487,-0.27060506085319325,0.0002703957123812436,0.001572644411240045,0.0,0.004081233082198312,0.0
1744140055.299817,-0.5780554811403833,-0.2707287578348216,0.0002723952628483749,0.0015758774059565714,0.0,0.004029342536835914,0.0
1744140055.309817,-0.5778366827209532,-0.2708529207817209,0.0002735477132215454,0.0015783227145821815,0.0,0.003985629085635027,0.0
1744140055.319817,-0.5776047947102584,-0.27097754969389126,0.00027385306350075517,0.0015799803371168751,0.0,0.0039500927285956505,0.0
1744140055.329817,-0.5773598171082989,-0.2711026445713326,0.0002733113136860042,0.0015808502735606524,0.0,0.003922733465717784,0.0
1744140055.339817,-0.5771017499150746,-0.2712282054140449,0.0002719224637772924,0.0015809325239135132,0.0,0.0039035512970014286,0.0
1744140055.349817,-0.5768305931305856,-0.2713542322220282,0.0002696865137746199,0.0015802270881754576,0.0,0.0038925462224465835,0.0
1744140055.359817,-0.5765463467548319,-0.27148072499528253,0.0002666034636779866,0.0015787339663464856,0.0,0.003889718242053249,0.0
1744140055.369817,-0.5762490107878134,-0.27160768373380784,0.00026267331348739256,0.0015764531584265972,0.0,0.0038950673558214247,0.0
1744140055.379817,-0.5759385852295302,-0.2717351084376041,0.00025789606320283774,0.0015733846644157925,0.0,0.003908593563751111,0.0
1744140055.389817,-0.5756150700799824,-0.27186299910667144,0.0002522717128243222,0.0015695284843140714,0.0,0.003930296865842307,0.0
1744140055.3998172,-0.5752784653391697,-0.27199135574100974,0.0002458002623518458,0.001564884618121434,0.0,0.003960177262095015,0.0
1744140055.4098172,-0.5749287710070924,-0.272120178340619,0.00023848171178540877,0.00155945306583788,0.0,0.003998234752509232,0.0
1744140055.4198172,-0.5745659870837503,-0.27224946690549934,0.00023031606112501095,0.0015532338274634096,0.0,0.00404446933708496,0.0
1744140055.4298172,-0.5741901135691435,-0.27237922143565063,0.00022130331037065236,0.0015462269029980229,0.0,0.004098881015822198,0.0
1744140055.4398172,-0.573801150463272,-0.2725094419310729,0.00021144345952233301,0.0015384322924417197,0.0,0.004161469788720947,0.0
1744140055.4498172,-0.5733990977661357,-0.2726401283917662,0.0002007365085800529,0.0015298499957945,0.0,0.004232235655781206,0.0
1744140055.4598172,-0.5729839554777347,-0.2727712808177305,0.00018918245754381203,0.0015204800130563642,0.0,0.004311178617002976,0.0
1744140055.4698172,-0.572555723598069,-0.27290289920896577,0.0001767813064136104,0.001510322344227312,0.0,0.004398298672386256,0.0
1744140055.4798172,-0.5721144021271386,-0.273034983565472,0.000163533055189448,0.0014993769893073433,0.0,0.004493595821931047,0.0
1744140055.4898171,-0.5716599910649435,-0.2731675338872493,0.00014943770387132484,0.0014876439482964582,0.0,0.004597070065637348,0.0
1744140055.4998171,-0.5711924904114836,-0.27330055017429755,0.00013449525245924092,0.0014751232211946566,0.0,0.00470872140350516,0.0
1744140055.5098171,-0.570711900166759,-0.2734340324266168,0.00011870570095319623,0.0014618148080019387,0.0,0.004828549835534482,0.0
1744140055.519817,-0.5702182203307696,-0.27356798064420706,0.00010206904935319077,0.0014477187087183043,0.0,0.004956555361725314,0.0
1744140055.529817,-0.5697114509035156,-0.2737023948270683,8.458529765922454e-05,0.0014328349233437537,0.0,0.005092737982077657,0.0
1744140055.539817,-0.5691915918849968,-0.27383727497520055,6.625444587129756e-05,0.0014171634518782867,0.0,0.005237097696591511,0.0
1744140055.549817,-0.5686586432752133,-0.2739726210886038,4.707649398940981e-05,0.0014007042943219032,0.0,0.005389634505266874,0.0
1744140055.559817,-0.5681126050741651,-0.27410843316727806,2.70514420135613e-05,0.0013834574506746034,0.0,0.005550348408103749,0.0
1744140055.569817,-0.5675534772818521,-0.2742447112112233,6.179289943752028e-06,0.001365422920936387,0.0,0.005719239405102134,0.0
1744140055.579817,-0.5669812598982744,-0.2743814552204395,-1.5539962220018007e-05,0.0013466007051072544,0.0,0.00589630749626203,0.0
1744140055.589817,-0.566395952923432,-0.27451866519492674,-3.8106314477748805e-05,0.0013269908031872052,0.0,0.006081552681583436,0.0
1744140055.599817,-0.5657975563573249,-0.27465634113468496,-6.151976682944036e-05,0.0013065932151762399,0.0,0.006274974961066352,0.0
1744140055.609817,-0.565186070199953,-0.27479448303971415,-8.578031927509269e-05,0.0012854079410743581,0.0,0.00647657433471078,0.0
1744140055.619817,-0.5645614944513164,-0.2749330909100144,-0.00011088797181470579,0.00126343498088156,0.0,0.006686350802516717,0.0
1744140055.629817,-0.5639238291114151,-0.2750721647455856,-0.00013684272444827963,0.0012406743345978453,0.0,0.006904304364484165,0.0
1744140055.639817,-0.5632730741802491,-0.2752117045464278,-0.00016364457717581423,0.0012171260022232142,0.0,0.007130435020613123,0.0
1744140055.6498172,-0.5626092296578183,-0.275351710312541,-0.0001912935299973096,0.0011927899837576668,0.0,0.007364742770903592,0.0
1744140055.6598172,-0.5619322955441228,-0.2754921820439252,-0.0002197895829127657,0.0011676662792012029,0.0,0.0076072276153555714,0.0
1744140055.6698172,-0.5612422718391626,-0.2756331197405804,-0.0002491327359221826,0.0011417548885538228,0.0,0.007857889553969061,0.0
1744140055.6798172,-0.5605391585429377,-0.2757745234025066,-0.0002793229890255603,0.0011150558118155263,0.0,0.008116728586744061,0.0
1744140055.6898172,-0.559822955655448,-0.2759163930297038,-0.00031036034222289876,0.0010875690489863133,0.0,0.008383744713680572,0.0
1744140055.6998172,-0.5590936631766936,-0.27605872862217196,-0.000342244795514198,0.001059294600066184,0.0,0.008658937934778593,0.0
1744140055.7098172,-0.5583512811066745,-0.2762015301799111,-0.00037497634889945795,0.0010302324650551381,0.0,0.008942308250038125,0.0
1744140055.7198172,-0.5575958094453908,-0.2763447977029213,-0.0004085550023786787,0.001000382643953176,0.0,0.009233855659459167,0.0
1744140055.7298172,-0.5568272481928422,-0.2764885311912025,-0.0004429807559518602,0.0009697451367602973,0.0,0.009533580163041719,0.0
1744140055.7398171,-0.556045597349029,-0.27663273064475463,-0.00047825360961900246,0.0009383199434765022,0.0,0.009841481760785782,0.0
1744140055.7498171,-0.555250856913951,-0.2767773960635778,-0.0005143735633801054,0.0009061070641017907,0.0,0.010157560452691356,0.0
1744140055.7598171,-0.5544430268876084,-0.276922527447672,-0.0005513406172351691,0.0008731064986361629,0.0,0.01048181623875844,0.0
1744140055.769817,-0.5536221072700009,-0.27706812479703713,-0.0005891547711841936,0.0008393182470796186,0.0,0.010814249118987034,0.0
1744140055.784709,-0.5536221072700009,-0.27706812479703713,-0.0005891547711841936,0.0008393182470796186,0.0,0.010814249118987034,0.0
1744140055.794709,-0.5527880978748643,-0.2772146160538841,-0.0006265411273239749,0.0008059179632269384,0.0,0.011144331905791309,0.0
1744140055.804709,-0.5519409985159338,-0.27736242916042364,-0.0006622247877513091,0.0007740813008729025,0.0,0.011461537411585431,0.0
1744140055.814709,-0.5510808091932096,-0.2775115641166558,-0.0006962057524661961,0.000743808260017511,0.0,0.011765865636369404,0.0
1744140055.824709,-0.5502075299066915,-0.2776620209225806,-0.000728484021468636,0.0007150988406607638,0.0,0.012057316580143225,0.0
1744140055.834709,-0.5493211606563798,-0.27781379957819796,-0.0007590595947586286,0.000687953042802661,0.0,0.012335890242906896,0.0
1744140055.844709,-0.5484217014422743,-0.27796690008350794,-0.0007879324723361741,0.0006623708664432025,0.0,0.012601586624660417,0.0
1744140055.854709,-0.547509152264375,-0.27812132243851057,-0.0008151026542012724,0.0006383523115823884,0.0,0.012854405725403787,0.0
1744140055.864709,-0.546583513122682,-0.2782770666432058,-0.0008405701403539236,0.0006158973782202186,0.0,0.013094347545137004,0.0
1744140055.874709,-0.5456447840171953,-0.2784341326975936,-0.0008643349307941276,0.0005950060663566932,0.0,0.013321412083860071,0.0
1744140055.884709,-0.5446929649479147,-0.27859252060167405,-0.0008863970255218843,0.0005756783759918122,0.0,0.013535599341572987,0.0
1744140055.8947089,-0.5437280559148405,-0.2787522303554471,-0.000906756424537194,0.0005579143071255755,0.0,0.013736909318275753,0.0
1744140055.904709,-0.5427500569179725,-0.2789132619589128,-0.0009254131278400565,0.0005417138597579831,0.0,0.013925342013968368,0.0
1744140055.914709,-0.5417589679573107,-0.2790756154120711,-0.0009423671354304718,0.0005270770338890351,0.0,0.014100897428650833,0.0
1744140055.924709,-0.5407547890328552,-0.279239290714922,-0.00095761844730844,0.0005140038295187314,0.0,0.014263575562323145,0.0
1744140055.934709,-0.539737520144606,-0.2794042878674655,-0.000971167063473961,0.0005024942466470722,0.0,0.014413376414985307,0.0
1744140055.944709,-0.5387071612925629,-0.27957060686970164,-0.000983012983927035,0.0004925482852740572,0.0,0.014550299986637318,0.0
1744140055.954709,-0.5376637124767261,-0.27973824772163036,-0.0009931562086676617,0.00048416594539968654,0.0,0.014674346277279178,0.0
1744140055.964709,-0.5366071736970955,-0.27990721042325173,-0.0010015967376958413,0.00047734722702396027,0.0,0.014785515286910888,0.0
1744140055.974709,-0.5355375449536712,-0.2800774949745657,-0.0010083345710115736,0.0004720921301468783,0.0,0.014883807015532446,0.0
1744140055.984709,-0.5344548262464531,-0.28024910137557224,-0.001013369708614859,0.00046840065476844075,0.0,0.014969221463143853,0.0
1744140055.994709,-0.5333590175754414,-0.28042202962627144,-0.001016702150505697,0.0004662728008886475,0.0,0.015041758629745109,0.0
1744140056.004709,-0.5322501189406358,-0.28059627972666323,-0.001018331896684088,0.0004657085685074986,0.0,0.015101418515336215,0.0
1744140056.014709,-0.5311281303420364,-0.2807718516767477,-0.0010182589471500318,0.00046670795762499413,0.0,0.01514820111991717,0.0
1744140056.024709,-0.5299930517796434,-0.2809487454765247,-0.0010164833019035283,0.00046927096824113396,0.0,0.015182106443487975,0.0
1744140056.034709,-0.5288448832534566,-0.28112696112599433,-0.0010130049609445777,0.00047339760035591816,0.0,0.015203134486048627,0.0
1744140056.044709,-0.527683624763476,-0.2813064986251566,-0.0010078239242731798,0.0004790878539693467,0.0,0.015211285247599128,0.0
1744140056.054709,-0.5265092763097017,-0.2814873579740115,-0.001000940191889335,0.0004863417290814196,0.0,0.01520655872813948,0.0
1744140056.064709,-0.5253218378921336,-0.28166953917255894,-0.000992353763793043,0.0004951592256921369,0.0,0.01518895492766968,0.0
1744140056.074709,-0.5241213095107717,-0.28185304222079904,-0.0009820646399843038,0.0005055403438014985,0.0,0.01515847384618973,0.0
1744140056.084709,-0.5229076911656161,-0.28203786711873174,-0.0009700728204631173,0.0005174850834095045,0.0,0.015115115483699627,0.0
1744140056.094709,-0.5216809828566668,-0.28222401386635704,-0.0009563783052294835,0.0005309934445161548,0.0,0.015058879840199374,0.0
1744140056.104709,-0.5204411845839236,-0.282411482463675,-0.0009409810942834027,0.0005460654271214495,0.0,0.01498976691568897,0.0
1744140056.114709,-0.5191882963473867,-0.2826002729106855,-0.0009238811876248747,0.0005627010312253886,0.0,0.014907776710168416,0.0
1744140056.124709,-0.5179223181470561,-0.2827903852073887,-0.0009050785852538995,0.000580900256827972,0.0,0.014812909223637712,0.0
1744140056.134709,-0.5166432499829318,-0.28298181935378447,-0.0008845732871704772,0.0006006631039291998,0.0,0.014705164456096856,0.0
1744140056.1447089,-0.5153510918550136,-0.28317457534987284,-0.0008623652933746077,0.0006219895725290719,0.0,0.014584542407545848,0.0
1744140056.154709,-0.5140458437633018,-0.28336865319565385,-0.000838454603866291,0.0006448796626275883,0.0,0.01445104307798469,0.0
1744140056.164709,-0.5127275057077961,-0.28356405289112746,-0.0008128412186455272,0.0006693333742247491,0.0,0.014304666467413381,0.0
1744140056.174709,-0.5113960776884967,-0.28376077443629366,-0.0007855251377123162,0.0006953507073205543,0.0,0.014145412575831922,0.0
1744140056.184709,-0.5100515597054036,-0.2839588178311525,-0.000756506361066658,0.0007229316619150038,0.0,0.013973281403240312,0.0
1744140056.194709,-0.5086939517585167,-0.28415818307570395,-0.0007257848887085526,0.0007520762380080977,0.0,0.013788272949638549,0.0
1744140056.204709,-0.507323253847836,-0.284358870169948,-0.0006933607206380002,0.000782784435599836,0.0,0.013590387215026636,0.0
1744140056.214709,-0.5059394659733616,-0.28456087911388467,-0.0006592338568550005,0.0008150562546902186,0.0,0.013379624199404572,0.0
1744140056.224709,-0.5045425881350935,-0.28476420990751394,-0.0006234042973595537,0.0008488916952792455,0.0,0.013155983902772358,0.0
1744140056.234709,-0.5031326203330315,-0.28496886255083587,-0.0005858720421516596,0.0008842907573669167,0.0,0.012919466325129993,0.0
1744140056.244709,-0.5017095625671758,-0.2851748370438504,-0.0005466370912313185,0.0009212534409532324,0.0,0.012670071466477478,0.0
1744140056.254709,-0.5002734148375264,-0.2853821333865575,-0.0005056994445985302,0.0009597797460381924,0.0,0.01240779932681481,0.0
1744140056.264709,-0.4988241771440832,-0.28559075157895725,-0.00046305910225329463,0.0009998696726217966,0.0,0.012132649906141992,0.0
1744140056.274709,-0.4973618494868463,-0.2858006916210496,-0.00041871606419561195,0.0010415232207040452,0.0,0.011844623204459023,0.0
1744140056.289788,-0.4973618494868463,-0.2858006916210496,-0.00041871606419561195,0.0010415232207040452,0.0,0.011844623204459023,0.0
1744140056.299788,-0.4958864319045586,-0.2860105948937816,-0.0003744637863167933,0.001083114188007099,0.0,0.011554158187771944,0.0
1744140056.309788,-0.4943979244359632,-0.2862191027781004,-0.00033209572450814984,0.001123016372253119,0.0,0.011271693822086796,0.0
1744140056.319788,-0.49289632708106007,-0.286426215274006,-0.00029161187876968153,0.001161229773442105,0.0,0.010997230107403578,0.0
1744140056.329788,-0.4913816398398492,-0.2866319323814984,-0.0002530122491013884,0.001197754391574057,0.0,0.010730767043722288,0.0
1744140056.339788,-0.48985386271233067,-0.28683625410057756,-0.0002162968355032704,0.0012325902266489747,0.0,0.01047230463104293,0.0
1744140056.349788,-0.4883129956985044,-0.2870391804312435,-0.0001814656379753276,0.0012657372786668585,0.0,0.010221842869365502,0.0
1744140056.359788,-0.4867590387983704,-0.2872407113734962,-0.00014851865651755998,0.0012971955476277083,0.0,0.009979381758690004,0.0
1744140056.369788,-0.4851919920119287,-0.2874408469273357,-0.00011745589112996753,0.0013269650335315242,0.0,0.009744921299016437,0.0
1744140056.379788,-0.4836118553391793,-0.28763958709276194,-8.827734181255025e-05,0.001355045736378306,0.0,0.0095184614903448,0.0
1744140056.389788,-0.48201862878012214,-0.287836931869775,-6.098300856530815e-05,0.0013814376561680538,0.0,0.009300002332675092,0.0
1744140056.399788,-0.4804123123347573,-0.28803288125837484,-3.5572891388241226e-05,0.0014061407929007676,0.0,0.009089543826007315,0.0
1744140056.4097881,-0.4787929060030847,-0.2882274352585614,-1.2046990281349469e-05,0.0014291551465764473,0.0,0.008887085970341468,0.0
1744140056.4197881,-0.47716040978510443,-0.2884205938703348,9.594694755367118e-06,0.001450480717195093,0.0,0.008692628765677552,0.0
1744140056.429788,-0.47551482368081643,-0.288612357093695,2.935216372190853e-05,0.0014701175047567045,0.0,0.008506172212015566,0.0
1744140056.439788,-0.4738561476902207,-0.28880272492864195,4.7225416618274767e-05,0.0014880655092612822,0.0,0.00832771630935551,0.0
1744140056.449788,-0.4721843818133173,-0.28899169737517566,6.321445344446584e-05,0.001504324730708826,0.0,0.008157261057697384,0.0
1744140056.459788,-0.47049952605010614,-0.28917927443329616,7.731927420048175e-05,0.0015188951690993356,0.0,0.007994806457041188,0.0
1744140056.469788,-0.4688015804005873,-0.28936545610300346,8.953987888632248e-05,0.0015317768244328112,0.0,0.007840352507386922,0.0
1744140056.479788,-0.4670905448647607,-0.28955024238429755,9.987626750198805e-05,0.0015429696967092527,0.0,0.0076938992087345875,0.0
1744140056.489788,-0.4653664194426264,-0.2897336332771784,0.00010832844004747845,0.0015524737859286602,0.0,0.007555446561084183,0.0
1744140056.499788,-0.4636292041341844,-0.289915628781646,0.00011489639652279366,0.0015602890920910339,0.0,0.007424994564435708,0.0
1744140056.509788,-0.4618788989394347,-0.2900962288977004,0.00011958013692793372,0.0015664156151963735,0.0,0.007302543218789164,0.0
1744140056.519788,-0.46011550385837724,-0.2902754336253416,0.0001223796612628986,0.001570853355244679,0.0,0.00718809252414455,0.0
1744140056.529788,-0.4583390188910121,-0.29045324296456954,0.0001232949695276883,0.0015736023122359505,0.0,0.007081642480501866,0.0
1744140056.539788,-0.4565494440373392,-0.2906296569153843,0.00012232606172230285,0.001574662486170188,0.0,0.006983193087861112,0.0
1744140056.549788,-0.4547467792973586,-0.2908046754777858,0.00011947293784674223,0.0015740338770473916,0.0,0.006892744346222289,0.0
1744140056.559788,-0.4529310246710703,-0.2909782986517741,0.00011473559790100642,0.0015717164848675612,0.0,0.006810296255585395,0.0
1744140056.569788,-0.4511021801584743,-0.2911505264373492,0.00010811404188509545,0.0015677103096306967,0.0,0.006735848815950432,0.0
1744140056.579788,-0.4492602457595706,-0.29132135883451105,9.96082697990093e-05,0.0015620153513367981,0.0,0.0066694020273174,0.0
1744140056.589788,-0.4474052214743591,-0.2914907958432597,8.921828164274798e-05,0.0015546316099858655,0.0,0.006610955889686297,0.0
1744140056.599788,-0.44553710730283996,-0.2916588374635951,7.69440774163115e-05,0.0015455590855778989,0.0,0.0065605104030571244,0.0
1744140056.609788,-0.4436559032450131,-0.2918254836955173,6.278565711969984e-05,0.0015347977781128984,0.0,0.0065180655674298826,0.0
1744140056.619788,-0.4417616093008785,-0.2919907345390263,4.674302075291301e-05,0.0015223476875908639,0.0,0.00648362138280457,0.0
1744140056.629788,-0.4398542254704362,-0.292154589994122,2.8816168315951007e-05,0.0015082088140117953,0.0,0.006457177849181189,0.0
1744140056.639788,-0.43793375175368615,-0.29231705006080455,9.005099808813835e-06,0.0014923811573756926,0.0,0.006438734966559737,0.0
1744140056.649788,-0.4360001881506284,-0.29247811473907387,-1.2690184768498508e-05,0.001474864717682556,0.0,0.006428292734940217,0.0
1744140056.6597881,-0.43405353466126295,-0.29263778402893,-3.626968541598603e-05,0.0014556594949323852,0.0,0.006425851154322626,0.0
1744140056.6697881,-0.4320937912855898,-0.29279605793037283,-6.173340213364871e-05,0.0014347654891251806,0.0,0.006431410224706965,0.0
1744140056.679788,-0.4301209580236089,-0.2929529364434025,-8.908133492148656e-05,0.001412182700260942,0.0,0.006444969946093235,0.0
1744140056.689788,-0.4281350348753203,-0.2931084195680189,-0.00011831348377949959,0.0013879111283396693,0.0,0.006466530318481435,0.0
1744140056.699788,-0.42613602184072397,-0.29326250730422215,-0.00014942984870768778,0.0013619507733613626,0.0,0.006496091341871565,0.0
1744140056.709788,-0.42412391891981993,-0.2934151996520121,-0.00018243042970605115,0.0013343016353260218,0.0,0.006533653016263625,0.0
1744140056.719788,-0.4220987261126082,-0.2935664966113889,-0.0002173152267745897,0.001304963714233647,0.0,0.006579215341657616,0.0
1744140056.729788,-0.4200604434190887,-0.29371639818235246,-0.00025408423991330343,0.0012739370100842383,0.0,0.006632778318053536,0.0
1744140056.739788,-0.41800907083926153,-0.29386490436490276,-0.0002927374691221923,0.0012412215228777956,0.0,0.006694341945451388,0.0
1744140056.749788,-0.41594460837312663,-0.29401201515903985,-0.00033327491440125637,0.0012068172526143188,0.0,0.006763906223851169,0.0
1744140056.759788,-0.413867056020684,-0.29415773056476374,-0.0003756965757504956,0.001170724199293808,0.0,0.00684147115325288,0.0
1744140056.769788,-0.4117764137819337,-0.2943020505820744,-0.00042000245316991,0.001132942362916263,0.0,0.006927036733656522,0.0
1744140056.779788,-0.40967268165687565,-0.29444497521097185,-0.0004661925466594996,0.0010934717434816841,0.0,0.0070206029650620935,0.0
1744140056.7947884,-0.40967268165687565,-0.29444497521097185,-0.0004661925466594996,0.0010934717434816841,0.0,0.0070206029650620935,0.0
1744140056.8047884,-0.4075558596291186,-0.29458696796264555,-0.0005121995507922196,0.0010541044427383587,0.0,0.007115031526665953,0.0
1744140056.8147883,-0.40542594768227125,-0.2947284923482849,-0.0005559561601410256,0.0010166325624345748,0.0,0.007203184097664459,0.0
1744140056.8247883,-0.4032829458163336,-0.29486954836789,-0.0005974623747059174,0.0009810561025703321,0.0,0.0072850606780576095,0.0
1744140056.8347883,-0.4011268540313057,-0.2950101360214607,-0.0006367181944868952,0.0009473750631456308,0.0,0.0073606612678454066,0.0
1744140056.8447883,-0.39895767232718754,-0.2951502553089971,-0.0006737236194839589,0.0009155894441604708,0.0,0.007429985867027849,0.0
1744140056.8547883,-0.3967754007039791,-0.29528990623049917,-0.0007084786496971085,0.0008856992456148522,0.0,0.0074930344756049365,0.0
1744140056.8647883,-0.3945800391616804,-0.2954290887859669,-0.000740983285126344,0.000857704467508775,0.0,0.00754980709357667,0.0
1744140056.8747883,-0.3923715877002914,-0.2955678029754003,-0.0007712375257716655,0.0008316051098422391,0.0,0.007600303720943049,0.0
1744140056.8847883,-0.39015004631981215,-0.29570604879879936,-0.0007992413716330729,0.0008074011726152445,0.0,0.0076445243577040745,0.0
1744140056.8947883,-0.3879154150202426,-0.2958438262561641,-0.0008249948227105661,0.0007850926558277912,0.0,0.007682469003859745,0.0
1744140056.9047883,-0.38566769380158283,-0.29598113534749454,-0.0008484978790041453,0.0007646795594798793,0.0,0.0077141376594100615,0.0
1744140056.9147885,-0.38340688266383277,-0.2961179760727906,-0.0008697505405138104,0.0007461618835715088,0.0,0.007739530324355023,0.0
1744140056.9247885,-0.38113298160699244,-0.2962543484320524,-0.0008887528072395615,0.0007295396281026795,0.0,0.0077586469986946315,0.0
1744140056.9347885,-0.37884599063106184,-0.29639025242527983,-0.0009055046791813984,0.0007148127930733917,0.0,0.007771487682428885,0.0
1744140056.9447885,-0.37654590973604096,-0.2965256880524729,-0.0009200061563393213,0.0007019813784836451,0.0,0.007778052375557784,0.0
1744140056.9547884,-0.3742327389219298,-0.2966606553136317,-0.0009322572387133301,0.0006910453843334399,0.0,0.007778341078081329,0.0
1744140056.9647884,-0.3719064781887284,-0.2967951542087562,-0.0009422579263034248,0.000682004810622776,0.0,0.00777235378999952,0.0
1744140056.9747884,-0.3695671275364367,-0.2969291847378463,-0.0009500082191096054,0.0006748596573516535,0.0,0.007760090511312356,0.0
1744140056.9847884,-0.36721468696505477,-0.29706274690090206,-0.0009555081171318719,0.0006696099245200723,0.0,0.007741551242019838,0.0
1744140056.9947884,-0.36484915647458255,-0.29719584069792354,-0.0009587576203702243,0.0006662556121280324,0.0,0.007716735982121966,0.0
1744140057.0047884,-0.36247053606502005,-0.2973284661289107,-0.0009597567288246626,0.000664796720175534,0.0,0.00768564473161874,0.0
1744140057.0147884,-0.3600788257363673,-0.29746062319386346,-0.0009585054424951868,0.0006652332486625767,0.0,0.007648277490510159,0.0
1744140057.0247884,-0.35767402548862426,-0.29759231189278196,-0.0009550037613817969,0.0006675651975891609,0.0,0.007604634258796224,0.0
1744140057.0347884,-0.35525613532179096,-0.2977235322256661,-0.0009492516854844929,0.0006717925669552865,0.0,0.007554715036476934,0.0
1744140057.0447884,-0.3528251552358674,-0.2978542841925159,-0.0009412492148032748,0.0006779153567609533,0.0,0.00749851982355229,0.0
1744140057.0547884,-0.35038108523085354,-0.2979845677933314,-0.0009309963493381426,0.0006859335670061615,0.0,0.007436048620022292,0.0
1744140057.0647883,-0.3479239253067494,-0.29811438302811255,-0.0009184930890890964,0.000695847197690911,0.0,0.007367301425886939,0.0
1744140057.0747883,-0.34545367546355504,-0.2982437298968594,-0.0009037394340561361,0.0007076562488152019,0.0,0.0072922782411462325,0.0
1744140057.0847883,-0.3429703357012704,-0.29837260839957186,-0.0008867353842392617,0.0007213607203790341,0.0,0.007210979065800171,0.0
1744140057.0947883,-0.34047390601989547,-0.29850101853625005,-0.0008674809396384732,0.0007369606123824076,0.0,0.007123403899848756,0.0
1744140057.1047883,-0.3379643864194303,-0.2986289603068939,-0.0008459761002537706,0.0007544559248253226,0.0,0.007029552743291986,0.0
1744140057.1147883,-0.3354417768998748,-0.2987564337115034,-0.0008222208660851539,0.0007738466577077788,0.0,0.006929425596129862,0.0
1744140057.1247883,-0.3329060774612291,-0.29888343875007856,-0.0007962152371326232,0.0007951328110297764,0.0,0.006823022458362383,0.0
1744140057.1347883,-0.3303572881034931,-0.2990099754226194,-0.0007679592133961784,0.0008183143847913152,0.0,0.006710343329989551,0.0
1744140057.1447883,-0.3277954088266668,-0.29913604372912594,-0.0007374527948758194,0.0008433913789923955,0.0,0.006591388211011364,0.0
1744140057.1547883,-0.32522043963075026,-0.2992616436695981,-0.0007046959815715465,0.0008703637936330171,0.0,0.006466157101427823,0.0
1744140057.1647885,-0.32263238051574344,-0.299386775244036,-0.0006696887734833594,0.00089923162871318,0.0,0.006334650001238927,0.0
1744140057.1747885,-0.32003123148164636,-0.29951143845243955,-0.0006324311706112582,0.0009299948842328844,0.0,0.006196866910444678,0.0
1744140057.1847885,-0.317416992528459,-0.29963563329480875,-0.000592923172955243,0.0009626535601921299,0.0,0.006052807829045073,0.0
1744140057.1947885,-0.3147896636561814,-0.29975935977114365,-0.0005511647805153137,0.0009972076565909168,0.0,0.005902472757040115,0.0
1744140057.2047884,-0.3121492448648135,-0.2998826178814442,-0.0005071559932914703,0.001033657173429245,0.0,0.005745861694429802,0.0
1744140057.2147884,-0.3094957361543553,-0.30000540762571043,-0.00046089681128371276,0.0010720021107071148,0.0,0.005582974641214136,0.0
1744140057.2247884,-0.3068291375248069,-0.3001277290039423,-0.0004123872344920412,0.0011122424684245258,0.0,0.005413811597393114,0.0
1744140057.2347884,-0.3041494489761682,-0.3002495820161399,-0.00036162726291645553,0.001154378246581478,0.0,0.005238372562966739,0.0
1744140057.2447884,-0.3014566705084392,-0.3003709666623031,-0.0003086168965569558,0.0011984094451779716,0.0,0.005056657537935009,0.0
1744140057.2547884,-0.29875080212162,-0.300491882942432,-0.00025335613541354197,0.0012443360642140067,0.0,0.004868666522297924,0.0
1744140057.2647884,-0.29603184381571046,-0.3006123308565266,-0.00019584497948621404,0.001292158103689583,0.0,0.004674399516055486,0.0
1744140057.2747884,-0.2932997955907107,-0.30073231040458687,-0.00013608342877497202,0.0013418755636047006,0.0,0.0044738565192076925,0.0
1744140057.2847884,-0.2905546574466206,-0.3008518215866128,-7.407148327981592e-05,0.0013934884439593597,0.0,0.004267037531754545,0.0
1744140057.2996986,-0.2905546574466206,-0.3008518215866128,-7.407148327981592e-05,0.0013934884439593597,0.0,0.004267037531754545,0.0
1744140057.3096986,-0.28779642941920314,-0.3009712381379181,-1.2192475141489455e-05,0.0014450415714026895,0.0,0.004059882956181474,0.0
1744140057.3196986,-0.28502511154422094,-0.30109093379381663,4.717026349926364e-05,0.0014945797725838194,0.0,0.0038583331949739092,0.0
1744140057.3296986,-0.28224070382167404,-0.3012109085543084,0.00010401673264244334,0.0015421030475027493,0.0,0.0036623882481318505,0.0
1744140057.3396986,-0.27944320625156244,-0.30133116241939334,0.00015834693228804968,0.0015876113961594794,0.0,0.0034720481156552976,0.0
1744140057.3496985,-0.2766326188338861,-0.3014516953890715,0.00021016086243608263,0.0016311048185540097,0.0,0.003287312797544251,0.0
1744140057.3596985,-0.2738089415686451,-0.3015725074633429,0.0002594585230865422,0.00167258331468634,0.0,0.0031081822937987103,0.0
1744140057.3696985,-0.27097217445583943,-0.3016935986422075,0.0003062399142394284,0.0017120468845564704,0.0,0.002934656604418676,0.0
1744140057.3796985,-0.26812231749546905,-0.30181496892566534,0.0003505050358947412,0.001749495528164401,0.0,0.002766735729404148,0.0
1744140057.3896985,-0.26525937068753397,-0.3019366183137164,0.0003922538880524807,0.0017849292455101317,0.0,0.002604419668755126,0.0
1744140057.3996985,-0.2623833340320342,-0.30205854680636063,0.0004314864707126468,0.0018183480365936626,0.0,0.0024477084224716105,0.0
1744140057.4096985,-0.2594942075289697,-0.3021807544035981,0.0004682027838752395,0.0018497519014149936,0.0,0.002296601990553601,0.0
1744140057.4196987,-0.2565919911783405,-0.3023032411054287,0.0005024028275402589,0.0018791408399741246,0.0,0.002151100373001098,0.0
1744140057.4296987,-0.2536766849801466,-0.30242600691185256,0.0005340866017077048,0.0019065148522710558,0.0,0.0020112035698141005,0.0
1744140057.4396987,-0.25074828893438805,-0.3025490518228696,0.0005632541063775774,0.0019318739383057872,0.0,0.0018769115809926097,0.0
1744140057.4496987,-0.24780680304106475,-0.3026723758384799,0.0005899053415498768,0.001955218098078319,0.0,0.001748224406536625,0.0
1744140057.4596987,-0.24485222730017675,-0.3027959789586834,0.0006140403072246027,0.0019765473315886506,0.0,0.0016251420464461464,0.0
1744140057.4696987,-0.24188456171172404,-0.3029198611834801,0.0006356590034017552,0.0019958616388367823,0.0,0.001507664500721174,0.0
1744140057.4796987,-0.23890380627570665,-0.30304402251287,0.0006547614300813344,0.0020131610198227145,0.0,0.001395791769361708,0.0
1744140057.4896986,-0.23590996099212455,-0.3031684629468531,0.0006713475872633402,0.0020284454745464467,0.0,0.0012895238523677479,0.0
1744140057.4996986,-0.23290302586097777,-0.30329318248542947,0.0006854174749477725,0.002041715003007979,0.0,0.001188860749739294,0.0
1744140057.5096986,-0.2298830008822663,-0.30341818112859903,0.0006969710931346315,0.0020529696052073113,0.0,0.0010938024614763463,0.0
1744140057.5196986,-0.2268498860559901,-0.3035434588763618,0.0007060084418239171,0.002062209281144444,0.0,0.001004348987578905,0.0
1744140057.5296986,-0.22380368138214923,-0.3036690157287178,0.0007125295210156293,0.0020694340308193763,0.0,0.0009205003280469696,0.0
1744140057.5396986,-0.22074438686074366,-0.30379485168566694,0.0007165343307097683,0.0020746438542321092,0.0,0.0008422564828805405,0.0
1744140057.5496986,-0.21767200249177338,-0.3039209667472093,0.0007180228709063338,0.002077838751382642,0.0,0.0007696174520796174,0.0
1744140057.5596986,-0.21458652827523841,-0.3040473609133449,0.000716995141605326,0.002079018722270975,0.0,0.0007025832356442007,0.0
1744140057.5696986,-0.21148796421113875,-0.3041740341840737,0.0007134511428067448,0.0020781837668971083,0.0,0.00064115383357429,0.0
1744140057.5796986,-0.20837631029947437,-0.3043009865593957,0.0007073908745105902,0.0020753338852610415,0.0,0.0005853292458698855,0.0
1744140057.5896986,-0.20525156654024532,-0.3044282180393109,0.0006988143367168622,0.0020704690773627747,0.0,0.0005351094725309872,0.0
1744140057.5996985,-0.20211373293345156,-0.30455572862381936,0.0006877215294255608,0.0020635893432023084,0.0,0.0004904945135575951,0.0
1744140057.6096985,-0.1989628094790931,-0.304683518312921,0.000674112452636686,0.002054694682779642,0.0,0.0004514843689497091,0.0
1744140057.6196985,-0.19579879617716994,-0.3048115871066159,0.0006579871063502378,0.0020437850960947756,0.0,0.00041807903870732935,0.0
1744140057.6296985,-0.1926216930276821,-0.30493993500490396,0.0006393454905662164,0.0020308605831477096,0.0,0.0003902785228304558,0.0
1744140057.6396985,-0.18943150003062953,-0.30506856200778526,0.0006181876052846215,0.0020159211439384436,0.0,0.00036808282131908836,0.0
1744140057.6496985,-0.1862282171860123,-0.3051974681152597,0.0005945134505054533,0.0019989667784669775,0.0,0.0003514919341732271,0.0
1744140057.6596985,-0.18301184449383034,-0.3053266533273274,0.0005683230262287117,0.001979997486733312,0.0,0.000340505861392872,0.0
1744140057.6696987,-0.1797823819540837,-0.3054561176439883,0.0005396163324543967,0.0019590132687374463,0.0,0.0003351246029780231,0.0
1744140057.6796987,-0.17653982956677236,-0.3055858610652424,0.0005083933691825083,0.0019360141244793804,0.0,0.00033534815892868034,0.0
1744140057.6896987,-0.17328418733189632,-0.3057158835910897,0.0004746541364130466,0.0019110000539591147,0.0,0.00034117652924484375,0.0
1744140057.6996987,-0.17001545524945558,-0.30584618522153023,0.0004383986341460114,0.0018839710571766492,0.0,0.0003526097139265134,0.0
1744140057.7096987,-0.16673363331945015,-0.305976765956564,0.0003996268623814029,0.0018549271341319837,0.0,0.00036964771297368917,0.0
1744140057.7196987,-0.16343872154188002,-0.30610762579619094,0.00035833882111922094,0.0018238682848251183,0.0,0.0003922905263863711,0.0
1744140057.7296987,-0.16013071991674518,-0.3062387647404111,0.0003145345103594657,0.0017907945092560532,0.0,0.00042053815416455924,0.0
1744140057.7396986,-0.15680962844404567,-0.3063701827892245,0.000268213930102137,0.001755705807424788,0.0,0.0004543905963082535,0.0
1744140057.7496986,-0.15347544712378144,-0.3065018799426311,0.00021937708034723498,0.001718602179331323,0.0,0.000493847852817454,0.0
1744140057.7596986,-0.15012817595595251,-0.3066338562006309,0.00016802396109475955,0.0016794836249756583,0.0,0.0005389099236921606,0.0
1744140057.7696986,-0.1467678149405589,-0.30676611156322386,0.00011415457234471076,0.0016383501443577935,0.0,0.0005895768089323734,0.0
1744140057.7796986,-0.1433943640776006,-0.30689864603041006,5.7768914097088604e-05,0.001595201737477729,0.0,0.0006458485085380924,0.0
1744140057.7896986,-0.14000782336707757,-0.30703145960218947,-1.1330136481069281e-06,0.0015500384043354645,0.0,0.0007077250225093175,0.0
1744140057.8048444,-0.14000782336707757,-0.30703145960218947,-1.1330136481069281e-06,0.0015500384043354645,0.0,0.0007077250225093175,0.0
1744140057.8148444,-0.13660819275236546,-0.30716434800083087,-6.000691426487424e-05,0.0015050903123199162,0.0,0.0007702437279129592,0.0
1744140057.8248444,-0.13319547217683983,-0.30729710694860296,-0.00011630849112721172,0.00146258762882,0.0,0.0008284420018159275,0.0
1744140057.8348444,-0.1297696616405007,-0.3074297364455058,-0.00017003774423511939,0.0014225303538357161,0.0,0.0008823198442182225,0.0
1744140057.8448443,-0.126330761143348,-0.30756223649153935,-0.00022119467358859722,0.0013849184873670644,0.0,0.0009318772551198442,0.0
1744140057.8548443,-0.1228787706853818,-0.30769460708670365,-0.00026977927918764527,0.0013497520294140448,0.0,0.0009771142345207926,0.0
1744140057.8648443,-0.11941369026660208,-0.30782684823099865,-0.0003157915610322635,0.0013170309799766574,0.0,0.0010180307824210677,0.0
1744140057.8748443,-0.11593551988700881,-0.30795895992442435,-0.0003592315191224519,0.001286755339054902,0.0,0.0010546268988206695,0.0
1744140057.8848443,-0.11244425954660203,-0.3080909421669808,-0.0004000991534582105,0.001258925106648779,0.0,0.001086902583719598,0.0
1744140057.8948443,-0.10893990924538173,-0.30822279495866794,-0.00043839446403953926,0.001233540282758288,0.0,0.0011148578371178535,0.0
1744140057.9048443,-0.10542246898334791,-0.3083545182994858,-0.00047411745086643823,0.001210600867383429,0.0,0.0011384926590154354,0.0
1744140057.9148443,-0.10189193876050057,-0.3084861121894344,-0.0005072681139389073,0.0011901068605242023,0.0,0.001157807049412344,0.0
1744140057.9248445,-0.0983483185768397,-0.3086175766285137,-0.0005378464532569465,0.0011720582621806076,0.0,0.0011728010083085795,0.0
1744140057.9348445,-0.09479160843236532,-0.30874891161672374,-0.000565852468820556,0.0011564550723526452,0.0,0.0011834745357041415,0.0
1744140057.9448445,-0.09122180832707741,-0.3088801171540645,-0.0005912861606297356,0.0011432972910403148,0.0,0.0011898276315990303,0.0
1744140057.9548445,-0.08763891826097597,-0.30901119324053594,-0.0006141475286844854,0.0011325849182436166,0.0,0.0011918602959932459,0.0
1744140057.9648445,-0.08404293823406102,-0.30914213987613814,-0.0006344365729848054,0.0011243179539625508,0.0,0.0011895725288867882,0.0
1744140057.9748445,-0.08043386824633254,-0.30927295706087105,-0.0006521532935306956,0.001118496398197117,0.0,0.001182964330279657,0.0
1744140057.9848444,-0.07681170829779055,-0.30940364479473464,-0.000667297690322156,0.0011151202509473155,0.0,0.0011720357001718527,0.0
1744140057.9948444,-0.07317645838843503,-0.309534203077729,-0.0006798697633591865,0.001114189512213146,0.0,0.001156786638563375,0.0
1744140058.0048444,-0.06952811851826599,-0.30966463190985405,-0.0006898695126417872,0.0011157041819946088,0.0,0.001137217145454224,0.0
1744140058.0148444,-0.06586668868728342,-0.30979493129110985,-0.0006972969381699581,0.0011196642602917036,0.0,0.0011133272208443997,0.0
1744140058.0248444,-0.062192168895487336,-0.30992510122149636,-0.0007021520399436992,0.0011260697471044306,0.0,0.0010851168647339022,0.0
1744140058.0348444,-0.058504559142877735,-0.31005514170101356,-0.0007044348179630105,0.0011349206424327897,0.0,0.0010525860771227315,0.0
1744140058.0448444,-0.054803859429454614,-0.3101850527296615,-0.0007041452722278919,0.001146216946276781,0.0,0.0010157348580108873,0.0
1744140058.0548444,-0.051090069755217966,-0.31031483430744017,-0.0007012834027383436,0.0011599586586364043,0.0,0.0009745632073983699,0.0
1744140058.0648444,-0.0473631901201678,-0.3104444864343495,-0.0006958492094943653,0.0011761457795116598,0.0,0.0009290711252851791,0.0
1744140058.0748444,-0.04362322052430411,-0.3105740091103896,-0.0006878426924959573,0.0011947783089025475,0.0,0.0008792586116713151,0.0
1744140058.0848444,-0.0398701609676269,-0.31070340233556043,-0.0006772638517431195,0.0012158562468090673,0.0,0.0008251256665567778,0.0
1744140058.0948443,-0.03610401145013616,-0.310832666109862,-0.0006641126872358519,0.0012393795932312192,0.0,0.0007666722899415672,0.0
1744140058.1048443,-0.03232477197183191,-0.31096180043329424,-0.0006483891989741544,0.0012653483481690035,0.0,0.0007038984818256833,0.0
1744140058.1148443,-0.028532442532714128,-0.3110908053058572,-0.0006300933869580271,0.00129376251162242,0.0,0.0006368042422091262,0.0
1744140058.1248443,-0.024727023132782827,-0.3112196807275509,-0.00060922525118747,0.0013246220835914685,0.0,0.0005653895710918957,0.0
1744140058.1348443,-0.020908513772038003,-0.3113484266983753,-0.0005857847916624831,0.0013579270640761492,0.0,0.0004896544684739919,0.0
1744140058.1448443,-0.01707691445047966,-0.3114770432183304,-0.0005597720083830663,0.001393677453076462,0.0,0.00040959893435541477,0.0
1744140058.1548443,-0.01323222516810779,-0.3116055302874163,-0.0005311869013492198,0.001431873250592407,0.0,0.0003252229687361644,0.0
1744140058.1648443,-0.0093744459249224,-0.31173388790563283,-0.0005000294705609434,0.0014725144566239841,0.0,0.00023652657161624067,0.0
1744140058.1748445,-0.005503576720923487,-0.31186211607298014,-0.0004662997160182373,0.0015156010711711934,0.0,0.00014350974299564369,0.0
1744140058.1848445,-0.001619617556111052,-0.31199021478945815,-0.00042999763772110135,0.0015611330942340348,0.0,4.617248287437338e-05,0.0
1744140058.1948445,0.002277431569514905,-0.31211818405506686,-0.0003911232356695356,0.0016091105258125083,0.0,-5.548520874757023e-05,0.0
1744140058.2048445,0.006187570655954384,-0.3122460238698063,-0.00034967650986354,0.001659533365906614,0.0,-0.00016146333187018713,0.0
1744140058.2148445,0.010110799703207385,-0.3123737342336765,-0.00030565746030311456,0.0017124016145163518,0.0,-0.00027176188649347734,0.0
1744140058.2248445,0.014047118711273909,-0.31250131514667734,-0.00025906608698825933,0.001767715271641722,0.0,-0.0003863808726174409,0.0
1744140058.2348444,0.017996527680153952,-0.31262876660880895,-0.00020990238991897426,0.0018254743372827242,0.0,-0.0005053202902420776,0.0
1744140058.2448444,0.02195902660984752,-0.31275608862007126,-0.00015816636909525938,0.0018856788114393586,0.0,-0.0006285801393673877,0.0
1744140058.2548444,0.025934615500354606,-0.3128832811804643,-0.00010385802451711468,0.0019483286941116252,0.0,-0.0007561604199933711,0.0
